lz3450/rt_ws/weekly/0506/heavy.csv
topic,timestamp,timestamp_ns,panda_joint1_position,panda_joint1_velocity,panda_joint1_effort,panda_joint2_position,panda_joint2_velocity,panda_joint2_effort,panda_joint3_position,panda_joint3_velocity,panda_joint3_effort,panda_joint4_position,panda_joint4_velocity,panda_joint4_effort,panda_joint5_position,panda_joint5_velocity,panda_joint5_effort,panda_joint6_position,panda_joint6_velocity,panda_joint6_effort,panda_joint7_position,panda_joint7_velocity,panda_joint7_effort,panda_finger_joint1_position,panda_finger_joint1_velocity,panda_finger_joint1_effort,panda_finger_joint2_position,panda_finger_joint2_velocity,panda_finger_joint2_effort
states,5,100000265,0.0127,-0.0012,-3.0934,-0.5245,-0.1673,-2721.8938,0.0001,-0.0001,-3.4596,-2.8712,0.101,3686.1216,0.0,0.0,0.0015,3.0369,-0.0001,1.1966,0.8286,-0.0721,0.0001,0.04,0.0,-0.0035,0.04,0.0,0.0035
states,5,116666933,0.0127,-0.0012,-3.0934,-0.5245,-0.1673,-2721.8938,0.0001,-0.0001,-3.4596,-2.8712,0.101,3686.1216,0.0,0.0,0.0015,3.0369,-0.0001,1.1966,0.8286,-0.0721,0.0001,0.04,0.0,-0.0035,0.04,0.0,0.0035
states,5,133333601,0.0127,-0.0012,-3.0934,-0.5245,-0.1673,-2721.8938,0.0001,-0.0001,-3.4596,-2.8712,0.101,3686.1216,0.0,0.0,0.0015,3.0369,-0.0001,1.1966,0.8286,-0.0721,0.0001,0.04,0.0,-0.0035,0.04,0.0,0.0035
states,5,150000268,0.0127,-0.0012,-3.0934,-0.5245,-0.1673,-2721.8938,0.0001,-0.0001,-3.4596,-2.8712,0.101,3686.1216,0.0,0.0,0.0015,3.0369,-0.0001,1.1966,0.8286,-0.0721,0.0001,0.04,0.0,-0.0035,0.04,0.0,0.0035
states,5,166666936,0.0127,-0.0012,-3.0934,-0.5245,-0.1673,-2721.8938,0.0001,-0.0001,-3.4596,-2.8712,0.101,3686.1216,0.0,0.0,0.0015,3.0369,-0.0001,1.1966,0.8286,-0.0721,0.0001,0.04,0.0,-0.0035,0.04,0.0,0.0035
states,5,183333603,0.0127,-0.0012,-3.0934,-0.5245,-0.1673,-2721.8938,0.0001,-0.0001,-3.4596,-2.8712,0.101,3686.1216,0.0,0.0,0.0015,3.0369,-0.0001,1.1966,0.8286,-0.0721,0.0001,0.04,0.0,-0.0035,0.04,0.0,0.0035
states,5,200000271,0.0127,-0.0012,-3.0934,-0.5245,-0.1673,-2721.8938,0.0001,-0.0001,-3.4596,-2.8712,0.101,3686.1216,0.0,0.0,0.0015,3.0369,-0.0001,1.1966,0.8286,-0.0721,0.0001,0.04,0.0,-0.0035,0.04,0.0,0.0035
states,5,216666938,0.0127,-0.0012,-3.0934,-0.5245,-0.1673,-2721.8938,0.0001,-0.0001,-3.4596,-2.8712,0.101,3686.1216,0.0,0.0,0.0015,3.0369,-0.0001,1.1966,0.8286,-0.0721,0.0001,0.04,0.0,-0.0035,0.04,0.0,0.0035
states,5,233333606,0.0127,-0.0012,-3.0934,-0.5245,-0.1673,-2721.8938,0.0001,-0.0001,-3.4596,-2.8712,0.101,3686.1216,0.0,0.0,0.0015,3.0369,-0.0001,1.1966,0.8286,-0.0721,0.0001,0.04,0.0,-0.0035,0.04,0.0,0.0035
states,5,250000273,0.0127,-0.0012,-3.0934,-0.5245,-0.1673,-2721.8938,0.0001,-0.0001,-3.4596,-2.8712,0.101,3686.1216,0.0,0.0,0.0015,3.0369,-0.0001,1.1966,0.8286,-0.0721,0.0001,0.04,0.0,-0.0035,0.04,0.0,0.0035
states,5,266666941,0.0127,-0.0012,-3.0934,-0.5245,-0.1673,-2721.8938,0.0001,-0.0001,-3.4596,-2.8712,0.101,3686.1216,0.0,0.0,0.0015,3.0369,-0.0001,1.1966,0.8286,-0.0721,0.0001,0.04,0.0,-0.0035,0.04,0.0,0.0035
states,5,283333608,0.0127,-0.0012,-3.0934,-0.5245,-0.1673,-2721.8938,0.0001,-0.0001,-3.4596,-2.8712,0.101,3686.1216,0.0,0.0,0.0015,3.0369,-0.0001,1.1966,0.8286,-0.0721,0.0001,0.04,0.0,-0.0035,0.04,0.0,0.0035
states,5,300000276,0.0127,-0.0012,-3.0934,-0.5245,-0.1673,-2721.8938,0.0001,-0.0001,-3.4596,-2.8712,0.101,3686.1216,0.0,0.0,0.0015,3.0369,-0.0001,1.1966,0.8286,-0.0721,0.0001,0.04,0.0,-0.0035,0.04,0.0,0.0035
states,5,316666943,0.0127,-0.0012,-3.0934,-0.5245,-0.1673,-2721.8938,0.0001,-0.0001,-3.4596,-2.8712,0.101,3686.1216,0.0,0.0,0.0015,3.0369,-0.0001,1.1966,0.8286,-0.0721,0.0001,0.04,0.0,-0.0035,0.04,0.0,0.0035
states,5,333333611,0.0127,-0.0012,-3.0934,-0.5245,-0.1673,-2721.8938,0.0001,-0.0001,-3.4596,-2.8712,0.101,3686.1216,0.0,0.0,0.0015,3.0369,-0.0001,1.1966,0.8286,-0.0721,0.0001,0.04,0.0,-0.0035,0.04,0.0,0.0035
states,5,350000279,0.0127,-0.0012,-3.0934,-0.5245,-0.1673,-2721.8938,0.0001,-0.0001,-3.4596,-2.8712,0.101,3686.1216,0.0,0.0,0.0015,3.0369,-0.0001,1.1966,0.8286,-0.0721,0.0001,0.04,0.0,-0.0035,0.04,0.0,0.0035
states,5,366666946,0.0127,-0.0012,-3.0934,-0.5245,-0.1673,-2721.8938,0.0001,-0.0001,-3.4596,-2.8712,0.101,3686.1216,0.0,0.0,0.0015,3.0369,-0.0001,1.1966,0.8286,-0.0721,0.0001,0.04,0.0,-0.0035,0.04,0.0,0.0035
states,5,383333614,0.0127,-0.0012,-3.0934,-0.5245,-0.1673,-2721.8938,0.0001,-0.0001,-3.4596,-2.8712,0.101,3686.1216,0.0,0.0,0.0015,3.0369,-0.0001,1.1966,0.8286,-0.0721,0.0001,0.04,0.0,-0.0035,0.04,0.0,0.0035
states,5,400000281,0.0127,-0.0012,-3.0934,-0.5245,-0.1673,-2721.8938,0.0001,-0.0001,-3.4596,-2.8712,0.101,3686.1216,0.0,0.0,0.0015,3.0369,-0.0001,1.1966,0.8286,-0.0721,0.0001,0.04,0.0,-0.0035,0.04,0.0,0.0035
states,5,416666949,0.0127,-0.0012,-3.0934,-0.5245,-0.1673,-2721.8938,0.0001,-0.0001,-3.4596,-2.8712,0.101,3686.1216,0.0,0.0,0.0015,3.0369,-0.0001,1.1966,0.8286,-0.0721,0.0001,0.04,0.0,-0.0035,0.04,0.0,0.0035
states,5,433333616,0.0127,-0.0012,-3.0934,-0.5245,-0.1673,-2721.8938,0.0001,-0.0001,-3.4596,-2.8712,0.101,3686.1216,0.0,0.0,0.0015,3.0369,-0.0001,1.1966,0.8286,-0.0721,0.0001,0.04,0.0,-0.0035,0.04,0.0,0.0035
states,5,450000284,0.0127,-0.0012,-3.0934,-0.5245,-0.1673,-2721.8938,0.0001,-0.0001,-3.4596,-2.8712,0.101,3686.1216,0.0,0.0,0.0015,3.0369,-0.0001,1.1966,0.8286,-0.0721,0.0001,0.04,0.0,-0.0035,0.04,0.0,0.0035
states,5,466666951,0.0127,-0.0012,-3.0934,-0.5245,-0.1673,-2721.8938,0.0001,-0.0001,-3.4596,-2.8712,0.101,3686.1216,0.0,0.0,0.0015,3.0369,-0.0001,1.1966,0.8286,-0.0721,0.0001,0.04,0.0,-0.0035,0.04,0.0,0.0035
states,5,483333619,0.0127,-0.0012,-3.0934,-0.5245,-0.1673,-2721.8938,0.0001,-0.0001,-3.4596,-2.8712,0.101,3686.1216,0.0,0.0,0.0015,3.0369,-0.0001,1.1966,0.8286,-0.0721,0.0001,0.04,0.0,-0.0035,0.04,0.0,0.0035
states,5,500000286,0.0127,-0.0012,-3.0934,-0.5245,-0.1673,-2721.8938,0.0001,-0.0001,-3.4596,-2.8712,0.101,3686.1216,0.0,0.0,0.0015,3.0369,-0.0001,1.1966,0.8286,-0.0721,0.0001,0.04,0.0,-0.0035,0.04,0.0,0.0035
states,5,516666954,0.0127,-0.0012,-3.0934,-0.5245,-0.1673,-2721.8938,0.0001,-0.0001,-3.4596,-2.8712,0.101,3686.1216,0.0,0.0,0.0015,3.0369,-0.0001,1.1966,0.8286,-0.0721,0.0001,0.04,0.0,-0.0035,0.04,0.0,0.0035
states,5,533333621,0.0127,-0.0012,-3.0934,-0.5245,-0.1673,-2721.8938,0.0001,-0.0001,-3.4596,-2.8712,0.101,3686.1216,0.0,0.0,0.0015,3.0369,-0.0001,1.1966,0.8286,-0.0721,0.0001,0.04,0.0,-0.0035,0.04,0.0,0.0035
states,5,550000289,0.0127,-0.0012,-3.0934,-0.5245,-0.1673,-2721.8938,0.0001,-0.0001,-3.4596,-2.8712,0.101,3686.1216,0.0,0.0,0.0015,3.0369,-0.0001,1.1966,0.8286,-0.0721,0.0001,0.04,0.0,-0.0035,0.04,0.0,0.0035
states,5,566666956,0.0127,-0.0012,-3.0934,-0.5245,-0.1673,-2721.8938,0.0001,-0.0001,-3.4596,-2.8712,0.101,3686.1216,0.0,0.0,0.0015,3.0369,-0.0001,1.1966,0.8286,-0.0721,0.0001,0.04,0.0,-0.0035,0.04,0.0,0.0035
states,5,583333624,0.0127,-0.0012,-3.0934,-0.5245,-0.1673,-2721.8938,0.0001,-0.0001,-3.4596,-2.8712,0.101,3686.1216,0.0,0.0,0.0015,3.0369,-0.0001,1.1966,0.8286,-0.0721,0.0001,0.04,0.0,-0.0035,0.04,0.0,0.0035
states,5,600000292,0.0127,-0.0012,-3.0934,-0.5245,-0.1673,-2721.8938,0.0001,-0.0001,-3.4596,-2.8712,0.101,3686.1216,0.0,0.0,0.0015,3.0369,-0.0001,1.1966,0.8286,-0.0721,0.0001,0.04,0.0,-0.0035,0.04,0.0,0.0035
states,5,616666959,0.0127,-0.0012,-3.0934,-0.5245,-0.1673,-2721.8938,0.0001,-0.0001,-3.4596,-2.8712,0.101,3686.1216,0.0,0.0,0.0015,3.0369,-0.0001,1.1966,0.8286,-0.0721,0.0001,0.04,0.0,-0.0035,0.04,0.0,0.0035
states,5,633333627,0.0127,-0.0012,-3.0934,-0.5245,-0.1673,-2721.8938,0.0001,-0.0001,-3.4596,-2.8712,0.101,3686.1216,0.0,0.0,0.0015,3.0369,-0.0001,1.1966,0.8286,-0.0721,0.0001,0.04,0.0,-0.0035,0.04,0.0,0.0035
states,5,650000294,0.0127,-0.0012,-3.0934,-0.5245,-0.1673,-2721.8938,0.0001,-0.0001,-3.4596,-2.8712,0.101,3686.1216,0.0,0.0,0.0015,3.0369,-0.0001,1.1966,0.8286,-0.0721,0.0001,0.04,0.0,-0.0035,0.04,0.0,0.0035
states,5,666666962,0.0127,-0.0012,-3.0934,-0.5245,-0.1673,-2721.8938,0.0001,-0.0001,-3.4596,-2.8712,0.101,3686.1216,0.0,0.0,0.0015,3.0369,-0.0001,1.1966,0.8286,-0.0721,0.0001,0.04,0.0,-0.0035,0.04,0.0,0.0035
states,5,683333629,0.0127,-0.0012,-3.0934,-0.5245,-0.1673,-2721.8938,0.0001,-0.0001,-3.4596,-2.8712,0.101,3686.1216,0.0,0.0,0.0015,3.0369,-0.0001,1.1966,0.8286,-0.0721,0.0001,0.04,0.0,-0.0035,0.04,0.0,0.0035
states,5,700000297,0.0127,-0.0012,-3.0934,-0.5245,-0.1673,-2721.8938,0.0001,-0.0001,-3.4596,-2.8712,0.101,3686.1216,0.0,0.0,0.0015,3.0369,-0.0001,1.1966,0.8286,-0.0721,0.0001,0.04,0.0,-0.0035,0.04,0.0,0.0035
states,5,716666964,0.0127,-0.0012,-3.0934,-0.5245,-0.1673,-2721.8938,0.0001,-0.0001,-3.4596,-2.8712,0.101,3686.1216,0.0,0.0,0.0015,3.0369,-0.0001,1.1966,0.8286,-0.0721,0.0001,0.04,0.0,-0.0035,0.04,0.0,0.0035
states,5,733333632,0.0127,-0.0012,-3.0934,-0.5245,-0.1673,-2721.8938,0.0001,-0.0001,-3.4596,-2.8712,0.101,3686.1216,0.0,0.0,0.0015,3.0369,-0.0001,1.1966,0.8286,-0.0721,0.0001,0.04,0.0,-0.0035,0.04,0.0,0.0035
states,5,750000299,0.0127,-0.0012,-3.0934,-0.5245,-0.1673,-2721.8938,0.0001,-0.0001,-3.4596,-2.8712,0.101,3686.1216,0.0,0.0,0.0015,3.0369,-0.0001,1.1966,0.8286,-0.0721,0.0001,0.04,0.0,-0.0035,0.04,0.0,0.0035
states,5,766666967,0.0127,-0.0012,-3.0934,-0.5245,-0.1673,-2721.8938,0.0001,-0.0001,-3.4596,-2.8712,0.101,3686.1216,0.0,0.0,0.0015,3.0369,-0.0001,1.1966,0.8286,-0.0721,0.0001,0.04,0.0,-0.0035,0.04,0.0,0.0035
states,5,783333634,0.0127,-0.0012,-3.0934,-0.5245,-0.1673,-2721.8938,0.0001,-0.0001,-3.4596,-2.8712,0.101,3686.1216,0.0,0.0,0.0015,3.0369,-0.0001,1.1966,0.8286,-0.0721,0.0001,0.04,0.0,-0.0035,0.04,0.0,0.0035
states,5,800000302,0.0127,-0.0012,-3.0934,-0.5245,-0.1673,-2721.8938,0.0001,-0.0001,-3.4596,-2.8712,0.101,3686.1216,0.0,0.0,0.0015,3.0369,-0.0001,1.1966,0.8286,-0.0721,0.0001,0.04,0.0,-0.0035,0.04,0.0,0.0035
states,5,816666970,0.0127,-0.0012,-3.0934,-0.5245,-0.1673,-2721.8938,0.0001,-0.0001,-3.4596,-2.8712,0.101,3686.1216,0.0,0.0,0.0015,3.0369,-0.0001,1.1966,0.8286,-0.0721,0.0001,0.04,0.0,-0.0035,0.04,0.0,0.0035
states,5,833333637,0.0127,-0.0012,-3.0934,-0.5245,-0.1673,-2721.8938,0.0001,-0.0001,-3.4596,-2.8712,0.101,3686.1216,0.0,0.0,0.0015,3.0369,-0.0001,1.1966,0.8286,-0.0721,0.0001,0.04,0.0,-0.0035,0.04,0.0,0.0035
states,5,850000305,0.0127,-0.0012,-3.0934,-0.5245,-0.1673,-2721.8938,0.0001,-0.0001,-3.4596,-2.8712,0.101,3686.1216,0.0,0.0,0.0015,3.0369,-0.0001,1.1966,0.8286,-0.0721,0.0001,0.04,0.0,-0.0035,0.04,0.0,0.0035
states,5,866666972,0.0127,-0.0012,-3.0934,-0.5245,-0.1673,-2721.8938,0.0001,-0.0001,-3.4596,-2.8712,0.101,3686.1216,0.0,0.0,0.0015,3.0369,-0.0001,1.1966,0.8286,-0.0721,0.0001,0.04,0.0,-0.0035,0.04,0.0,0.0035
states,5,883333640,0.0127,-0.0012,-3.0934,-0.5245,-0.1673,-2721.8938,0.0001,-0.0001,-3.4596,-2.8712,0.101,3686.1216,0.0,0.0,0.0015,3.0369,-0.0001,1.1966,0.8286,-0.0721,0.0001,0.04,0.0,-0.0035,0.04,0.0,0.0035
states,5,900000307,0.0127,-0.0012,-3.0934,-0.5245,-0.1673,-2721.8938,0.0001,-0.0001,-3.4596,-2.8712,0.101,3686.1216,0.0,0.0,0.0015,3.0369,-0.0001,1.1966,0.8286,-0.0721,0.0001,0.04,0.0,-0.0035,0.04,0.0,0.0035
states,5,916666975,0.0127,-0.0012,-3.0934,-0.5245,-0.1673,-2721.8938,0.0001,-0.0001,-3.4596,-2.8712,0.101,3686.1216,0.0,0.0,0.0015,3.0369,-0.0001,1.1966,0.8286,-0.0721,0.0001,0.04,0.0,-0.0035,0.04,0.0,0.0035
states,5,933333642,0.0127,-0.0012,-3.0934,-0.5245,-0.1673,-2721.8938,0.0001,-0.0001,-3.4596,-2.8712,0.101,3686.1216,0.0,0.0,0.0015,3.0369,-0.0001,1.1966,0.8286,-0.0721,0.0001,0.04,0.0,-0.0035,0.04,0.0,0.0035
states,5,950000310,0.0127,-0.0012,-3.0934,-0.5245,-0.1673,-2721.8938,0.0001,-0.0001,-3.4596,-2.8712,0.101,3686.1216,0.0,0.0,0.0015,3.0369,-0.0001,1.1966,0.8286,-0.0721,0.0001,0.04,0.0,-0.0035,0.04,0.0,0.0035
states,5,966666977,0.0127,-0.0012,-3.0934,-0.5245,-0.1673,-2721.8938,0.0001,-0.0001,-3.4596,-2.8712,0.101,3686.1216,0.0,0.0,0.0015,3.0369,-0.0001,1.1966,0.8286,-0.0721,0.0001,0.04,0.0,-0.0035,0.04,0.0,0.0035
states,5,983333645,0.0127,-0.0012,-3.0934,-0.5245,-0.1673,-2721.8938,0.0001,-0.0001,-3.4596,-2.8712,0.101,3686.1216,0.0,0.0,0.0015,3.0369,-0.0001,1.1966,0.8286,-0.0721,0.0001,0.04,0.0,-0.0035,0.04,0.0,0.0035
states,6,312,0.0127,-0.0012,-3.0934,-0.5245,-0.1673,-2721.8938,0.0001,-0.0001,-3.4596,-2.8712,0.101,3686.1216,0.0,0.0,0.0015,3.0369,-0.0001,1.1966,0.8286,-0.0721,0.0001,0.04,0.0,-0.0035,0.04,0.0,0.0035
states,6,16666980,0.0127,-0.0012,-3.0934,-0.5245,-0.1673,-2721.8938,0.0001,-0.0001,-3.4596,-2.8712,0.101,3686.1216,0.0,0.0,0.0015,3.0369,-0.0001,1.1966,0.8286,-0.0721,0.0001,0.04,0.0,-0.0035,0.04,0.0,0.0035
states,6,33333647,0.0127,-0.0012,-3.0934,-0.5245,-0.1673,-2721.8938,0.0001,-0.0001,-3.4596,-2.8712,0.101,3686.1216,0.0,0.0,0.0015,3.0369,-0.0001,1.1966,0.8286,-0.0721,0.0001,0.04,0.0,-0.0035,0.04,0.0,0.0035
states,6,50000315,0.0127,-0.0012,-3.0934,-0.5245,-0.1673,-2721.8938,0.0001,-0.0001,-3.4596,-2.8712,0.101,3686.1216,0.0,0.0,0.0015,3.0369,-0.0001,1.1966,0.8286,-0.0721,0.0001,0.04,0.0,-0.0035,0.04,0.0,0.0035
states,6,66666983,0.0127,-0.0012,-3.0934,-0.5245,-0.1673,-2721.8938,0.0001,-0.0001,-3.4596,-2.8712,0.101,3686.1216,0.0,0.0,0.0015,3.0369,-0.0001,1.1966,0.8286,-0.0721,0.0001,0.04,0.0,-0.0035,0.04,0.0,0.0035
states,6,83333650,0.0127,-0.0012,-3.0934,-0.5245,-0.1673,-2721.8938,0.0001,-0.0001,-3.4596,-2.8712,0.101,3686.1216,0.0,0.0,0.0015,3.0369,-0.0001,1.1966,0.8286,-0.0721,0.0001,0.04,0.0,-0.0035,0.04,0.0,0.0035
states,6,100000318,0.0127,-0.0012,-3.0934,-0.5245,-0.1673,-2721.8938,0.0001,-0.0001,-3.4596,-2.8712,0.101,3686.1216,0.0,0.0,0.0015,3.0369,-0.0001,1.1966,0.8286,-0.0721,0.0001,0.04,0.0,-0.0035,0.04,0.0,0.0035
states,6,116666985,0.0127,-0.0012,-3.0934,-0.5245,-0.1673,-2721.8938,0.0001,-0.0001,-3.4596,-2.8712,0.101,3686.1216,0.0,0.0,0.0015,3.0369,-0.0001,1.1966,0.8286,-0.0721,0.0001,0.04,0.0,-0.0035,0.04,0.0,0.0035
states,6,133333653,0.0127,-0.0012,-3.0934,-0.5245,-0.1673,-2721.8938,0.0001,-0.0001,-3.4596,-2.8712,0.101,3686.1216,0.0,0.0,0.0015,3.0369,-0.0001,1.1966,0.8286,-0.0721,0.0001,0.04,0.0,-0.0035,0.04,0.0,0.0035
states,6,150000320,0.0127,-0.0012,-3.0934,-0.5245,-0.1673,-2721.8938,0.0001,-0.0001,-3.4596,-2.8712,0.101,3686.1216,0.0,0.0,0.0015,3.0369,-0.0001,1.1966,0.8286,-0.0721,0.0001,0.04,0.0,-0.0035,0.04,0.0,0.0035
states,6,166666988,0.0127,-0.0012,-3.0934,-0.5245,-0.1673,-2721.8938,0.0001,-0.0001,-3.4596,-2.8712,0.101,3686.1216,0.0,0.0,0.0015,3.0369,-0.0001,1.1966,0.8286,-0.0721,0.0001,0.04,0.0,-0.0035,0.04,0.0,0.0035
states,6,183333655,0.0127,-0.0012,-3.0934,-0.5245,-0.1673,-2721.8938,0.0001,-0.0001,-3.4596,-2.8712,0.101,3686.1216,0.0,0.0,0.0015,3.0369,-0.0001,1.1966,0.8286,-0.0721,0.0001,0.04,0.0,-0.0035,0.04,0.0,0.0035
states,6,200000323,0.0127,-0.0012,-3.0934,-0.5245,-0.1673,-2721.8938,0.0001,-0.0001,-3.4596,-2.8712,0.101,3686.1216,0.0,0.0,0.0015,3.0369,-0.0001,1.1966,0.8286,-0.0721,0.0001,0.04,0.0,-0.0035,0.04,0.0,0.0035
states,6,216666990,0.0127,-0.0012,-3.0934,-0.5245,-0.1673,-2721.8938,0.0001,-0.0001,-3.4596,-2.8712,0.101,3686.1216,0.0,0.0,0.0015,3.0369,-0.0001,1.1966,0.8286,-0.0721,0.0001,0.04,0.0,-0.0035,0.04,0.0,0.0035
states,6,233333658,0.0127,-0.0012,-3.0934,-0.5245,-0.1673,-2721.8938,0.0001,-0.0001,-3.4596,-2.8712,0.101,3686.1216,0.0,0.0,0.0015,3.0369,-0.0001,1.1966,0.8286,-0.0721,0.0001,0.04,0.0,-0.0035,0.04,0.0,0.0035
states,6,250000325,0.0127,-0.0012,-3.0934,-0.5245,-0.1673,-2721.8938,0.0001,-0.0001,-3.4596,-2.8712,0.101,3686.1216,0.0,0.0,0.0015,3.0369,-0.0001,1.1966,0.8286,-0.0721,0.0001,0.04,0.0,-0.0035,0.04,0.0,0.0035
states,6,266666993,0.0127,-0.0012,-3.0934,-0.5245,-0.1673,-2721.8938,0.0001,-0.0001,-3.4596,-2.8712,0.101,3686.1216,0.0,0.0,0.0015,3.0369,-0.0001,1.1966,0.8286,-0.0721,0.0001,0.04,0.0,-0.0035,0.04,0.0,0.0035
states,6,283333661,0.0127,-0.0012,-3.0934,-0.5245,-0.1673,-2721.8938,0.0001,-0.0001,-3.4596,-2.8712,0.101,3686.1216,0.0,0.0,0.0015,3.0369,-0.0001,1.1966,0.8286,-0.0721,0.0001,0.04,0.0,-0.0035,0.04,0.0,0.0035
states,6,300000328,0.0127,-0.0012,-3.0934,-0.5245,-0.1673,-2721.8938,0.0001,-0.0001,-3.4596,-2.8712,0.101,3686.1216,0.0,0.0,0.0015,3.0369,-0.0001,1.1966,0.8286,-0.0721,0.0001,0.04,0.0,-0.0035,0.04,0.0,0.0035
states,6,316666996,0.0127,-0.0012,-3.0934,-0.5245,-0.1673,-2721.8938,0.0001,-0.0001,-3.4596,-2.8712,0.101,3686.1216,0.0,0.0,0.0015,3.0369,-0.0001,1.1966,0.8286,-0.0721,0.0001,0.04,0.0,-0.0035,0.04,0.0,0.0035
states,6,333333663,0.0127,-0.0012,-3.0934,-0.5245,-0.1673,-2721.8938,0.0001,-0.0001,-3.4596,-2.8712,0.101,3686.1216,0.0,0.0,0.0015,3.0369,-0.0001,1.1966,0.8286,-0.0721,0.0001,0.04,0.0,-0.0035,0.04,0.0,0.0035
states,6,350000331,0.0127,-0.0012,-3.0934,-0.5245,-0.1673,-2721.8938,0.0001,-0.0001,-3.4596,-2.8712,0.101,3686.1216,0.0,0.0,0.0015,3.0369,-0.0001,1.1966,0.8286,-0.0721,0.0001,0.04,0.0,-0.0035,0.04,0.0,0.0035
states,6,366666998,0.0127,-0.0012,-3.0934,-0.5245,-0.1673,-2721.8938,0.0001,-0.0001,-3.4596,-2.8712,0.101,3686.1216,0.0,0.0,0.0015,3.0369,-0.0001,1.1966,0.8286,-0.0721,0.0001,0.04,0.0,-0.0035,0.04,0.0,0.0035
states,6,383333666,0.0127,-0.0012,-3.0934,-0.5245,-0.1673,-2721.8938,0.0001,-0.0001,-3.4596,-2.8712,0.101,3686.1216,0.0,0.0,0.0015,3.0369,-0.0001,1.1966,0.8286,-0.0721,0.0001,0.04,0.0,-0.0035,0.04,0.0,0.0035
states,6,400000333,0.0127,-0.0012,-3.0934,-0.5245,-0.1673,-2721.8938,0.0001,-0.0001,-3.4596,-2.8712,0.101,3686.1216,0.0,0.0,0.0015,3.0369,-0.0001,1.1966,0.8286,-0.0721,0.0001,0.04,0.0,-0.0035,0.04,0.0,0.0035
states,6,416667001,0.0127,-0.0012,-3.0934,-0.5245,-0.1673,-2721.8938,0.0001,-0.0001,-3.4596,-2.8712,0.101,3686.1216,0.0,0.0,0.0015,3.0369,-0.0001,1.1966,0.8286,-0.0721,0.0001,0.04,0.0,-0.0035,0.04,0.0,0.0035
states,6,433333668,0.0127,-0.0012,-3.0934,-0.5245,-0.1673,-2721.8938,0.0001,-0.0001,-3.4596,-2.8712,0.101,3686.1216,0.0,0.0,0.0015,3.0369,-0.0001,1.1966,0.8286,-0.0721,0.0001,0.04,0.0,-0.0035,0.04,0.0,0.0035
states,6,450000336,0.0127,-0.0012,-3.0934,-0.5245,-0.1673,-2721.8938,0.0001,-0.0001,-3.4596,-2.8712,0.101,3686.1216,0.0,0.0,0.0015,3.0369,-0.0001,1.1966,0.8286,-0.0721,0.0001,0.04,0.0,-0.0035,0.04,0.0,0.0035
states,6,466667003,0.0127,-0.0012,-3.0934,-0.5245,-0.1673,-2721.8938,0.0001,-0.0001,-3.4596,-2.8712,0.101,3686.1216,0.0,0.0,0.0015,3.0369,-0.0001,1.1966,0.8286,-0.0721,0.0001,0.04,0.0,-0.0035,0.04,0.0,0.0035
states,6,483333671,0.0127,-0.0012,-3.0934,-0.5245,-0.1673,-2721.8938,0.0001,-0.0001,-3.4596,-2.8712,0.101,3686.1216,0.0,0.0,0.0015,3.0369,-0.0001,1.1966,0.8286,-0.0721,0.0001,0.04,0.0,-0.0035,0.04,0.0,0.0035
states,6,500000339,0.0127,-0.0012,-3.0934,-0.5245,-0.1673,-2721.8938,0.0001,-0.0001,-3.4596,-2.8712,0.101,3686.1216,0.0,0.0,0.0015,3.0369,-0.0001,1.1966,0.8286,-0.0721,0.0001,0.04,0.0,-0.0035,0.04,0.0,0.0035
states,6,516667006,0.0127,-0.0012,-3.0934,-0.5245,-0.1673,-2721.8938,0.0001,-0.0001,-3.4596,-2.8712,0.101,3686.1216,0.0,0.0,0.0015,3.0369,-0.0001,1.1966,0.8286,-0.0721,0.0001,0.04,0.0,-0.0035,0.04,0.0,0.0035
states,6,533333674,0.0127,-0.0012,-3.0934,-0.5245,-0.1673,-2721.8938,0.0001,-0.0001,-3.4596,-2.8712,0.101,3686.1216,0.0,0.0,0.0015,3.0369,-0.0001,1.1966,0.8286,-0.0721,0.0001,0.04,0.0,-0.0035,0.04,0.0,0.0035
states,6,550000341,0.0127,-0.0012,-3.0934,-0.5245,-0.1673,-2721.8938,0.0001,-0.0001,-3.4596,-2.8712,0.101,3686.1216,0.0,0.0,0.0015,3.0369,-0.0001,1.1966,0.8286,-0.0721,0.0001,0.04,0.0,-0.0035,0.04,0.0,0.0035
states,6,566667009,0.0127,-0.0012,-3.0934,-0.5245,-0.1673,-2721.8938,0.0001,-0.0001,-3.4596,-2.8712,0.101,3686.1216,0.0,0.0,0.0015,3.0369,-0.0001,1.1966,0.8286,-0.0721,0.0001,0.04,0.0,-0.0035,0.04,0.0,0.0035
states,6,583333676,0.0127,-0.0012,-3.0934,-0.5245,-0.1673,-2721.8938,0.0001,-0.0001,-3.4596,-2.8712,0.101,3686.1216,0.0,0.0,0.0015,3.0369,-0.0001,1.1966,0.8286,-0.0721,0.0001,0.04,0.0,-0.0035,0.04,0.0,0.0035
states,6,600000344,0.0127,-0.0012,-3.0934,-0.5245,-0.1673,-2721.8938,0.0001,-0.0001,-3.4596,-2.8712,0.101,3686.1216,0.0,0.0,0.0015,3.0369,-0.0001,1.1966,0.8286,-0.0721,0.0001,0.04,0.0,-0.0035,0.04,0.0,0.0035
states,6,616667011,0.0127,-0.0012,-3.0934,-0.5245,-0.1673,-2721.8938,0.0001,-0.0001,-3.4596,-2.8712,0.101,3686.1216,0.0,0.0,0.0015,3.0369,-0.0001,1.1966,0.8286,-0.0721,0.0001,0.04,0.0,-0.0035,0.04,0.0,0.0035
states,6,633333679,0.0127,-0.0012,-3.0934,-0.5245,-0.1673,-2721.8938,0.0001,-0.0001,-3.4596,-2.8712,0.101,3686.1216,0.0,0.0,0.0015,3.0369,-0.0001,1.1966,0.8286,-0.0721,0.0001,0.04,0.0,-0.0035,0.04,0.0,0.0035
states,6,650000346,0.0127,-0.0012,-3.0934,-0.5245,-0.1673,-2721.8938,0.0001,-0.0001,-3.4596,-2.8712,0.101,3686.1216,0.0,0.0,0.0015,3.0369,-0.0001,1.1966,0.8286,-0.0721,0.0001,0.04,0.0,-0.0035,0.04,0.0,0.0035
states,6,666667014,0.0127,-0.0012,-3.0934,-0.5245,-0.1673,-2721.8938,0.0001,-0.0001,-3.4596,-2.8712,0.101,3686.1216,0.0,0.0,0.0015,3.0369,-0.0001,1.1966,0.8286,-0.0721,0.0001,0.04,0.0,-0.0035,0.04,0.0,0.0035
states,6,683333681,0.0127,-0.0012,-3.0934,-0.5245,-0.1673,-2721.8938,0.0001,-0.0001,-3.4596,-2.8712,0.101,3686.1216,0.0,0.0,0.0015,3.0369,-0.0001,1.1966,0.8286,-0.0721,0.0001,0.04,0.0,-0.0035,0.04,0.0,0.0035
states,6,700000349,0.0127,-0.0012,-3.0934,-0.5245,-0.1673,-2721.8938,0.0001,-0.0001,-3.4596,-2.8712,0.101,3686.1216,0.0,0.0,0.0015,3.0369,-0.0001,1.1966,0.8286,-0.0721,0.0001,0.04,0.0,-0.0035,0.04,0.0,0.0035
states,6,716667016,0.0127,-0.0012,-3.0934,-0.5245,-0.1673,-2721.8938,0.0001,-0.0001,-3.4596,-2.8712,0.101,3686.1216,0.0,0.0,0.0015,3.0369,-0.0001,1.1966,0.8286,-0.0721,0.0001,0.04,0.0,-0.0035,0.04,0.0,0.0035
states,6,733333684,0.0127,-0.0012,-3.0934,-0.5245,-0.1673,-2721.8938,0.0001,-0.0001,-3.4596,-2.8712,0.101,3686.1216,0.0,0.0,0.0015,3.0369,-0.0001,1.1966,0.8286,-0.0721,0.0001,0.04,0.0,-0.0035,0.04,0.0,0.0035
states,6,750000352,0.0127,-0.0012,-3.0934,-0.5245,-0.1673,-2721.8938,0.0001,-0.0001,-3.4596,-2.8712,0.101,3686.1216,0.0,0.0,0.0015,3.0369,-0.0001,1.1966,0.8286,-0.0721,0.0001,0.04,0.0,-0.0035,0.04,0.0,0.0035
states,6,766667019,0.0127,-0.0012,-3.0934,-0.5245,-0.1673,-2721.8938,0.0001,-0.0001,-3.4596,-2.8712,0.101,3686.1216,0.0,0.0,0.0015,3.0369,-0.0001,1.1966,0.8286,-0.0721,0.0001,0.04,0.0,-0.0035,0.04,0.0,0.0035
states,6,783333687,0.0127,-0.0012,-3.0934,-0.5245,-0.1673,-2721.8938,0.0001,-0.0001,-3.4596,-2.8712,0.101,3686.1216,0.0,0.0,0.0015,3.0369,-0.0001,1.1966,0.8286,-0.0721,0.0001,0.04,0.0,-0.0035,0.04,0.0,0.0035
states,6,800000354,0.0127,-0.0012,-3.0934,-0.5245,-0.1673,-2721.8938,0.0001,-0.0001,-3.4596,-2.8712,0.101,3686.1216,0.0,0.0,0.0015,3.0369,-0.0001,1.1966,0.8286,-0.0721,0.0001,0.04,0.0,-0.0035,0.04,0.0,0.0035
states,6,816667022,0.0127,-0.0012,-3.0934,-0.5245,-0.1673,-2721.8938,0.0001,-0.0001,-3.4596,-2.8712,0.101,3686.1216,0.0,0.0,0.0015,3.0369,-0.0001,1.1966,0.8286,-0.0721,0.0001,0.04,0.0,-0.0035,0.04,0.0,0.0035
states,6,833333689,0.0127,-0.0012,-3.0934,-0.5245,-0.1673,-2721.8938,0.0001,-0.0001,-3.4596,-2.8712,0.101,3686.1216,0.0,0.0,0.0015,3.0369,-0.0001,1.1966,0.8286,-0.0721,0.0001,0.04,0.0,-0.0035,0.04,0.0,0.0035
states,6,850000357,0.0127,-0.0012,-3.0934,-0.5245,-0.1673,-2721.8938,0.0001,-0.0001,-3.4596,-2.8712,0.101,3686.1216,0.0,0.0,0.0015,3.0369,-0.0001,1.1966,0.8286,-0.0721,0.0001,0.04,0.0,-0.0035,0.04,0.0,0.0035
states,6,866667024,0.0127,-0.0012,-3.0934,-0.5245,-0.1673,-2721.8938,0.0001,-0.0001,-3.4596,-2.8712,0.101,3686.1216,0.0,0.0,0.0015,3.0369,-0.0001,1.1966,0.8286,-0.0721,0.0001,0.04,0.0,-0.0035,0.04,0.0,0.0035
states,6,883333692,0.0127,-0.0012,-3.0934,-0.5245,-0.1673,-2721.8938,0.0001,-0.0001,-3.4596,-2.8712,0.101,3686.1216,0.0,0.0,0.0015,3.0369,-0.0001,1.1966,0.8286,-0.0721,0.0001,0.04,0.0,-0.0035,0.04,0.0,0.0035
states,6,900000359,0.0127,-0.0012,-3.0934,-0.5245,-0.1673,-2721.8938,0.0001,-0.0001,-3.4596,-2.8712,0.101,3686.1216,0.0,0.0,0.0015,3.0369,-0.0001,1.1966,0.8286,-0.0721,0.0001,0.04,0.0,-0.0035,0.04,0.0,0.0035
states,6,916667027,0.0127,-0.0012,-3.0934,-0.5245,-0.1673,-2721.8938,0.0001,-0.0001,-3.4596,-2.8712,0.101,3686.1216,0.0,0.0,0.0015,3.0369,-0.0001,1.1966,0.8286,-0.0721,0.0001,0.04,0.0,-0.0035,0.04,0.0,0.0035
states,6,933333694,0.0127,-0.0012,-3.0934,-0.5245,-0.1673,-2721.8938,0.0001,-0.0001,-3.4596,-2.8712,0.101,3686.1216,0.0,0.0,0.0015,3.0369,-0.0001,1.1966,0.8286,-0.0721,0.0001,0.04,0.0,-0.0035,0.04,0.0,0.0035
states,6,950000362,0.0127,-0.0012,-3.0934,-0.5245,-0.1673,-2721.8938,0.0001,-0.0001,-3.4596,-2.8712,0.101,3686.1216,0.0,0.0,0.0015,3.0369,-0.0001,1.1966,0.8286,-0.0721,0.0001,0.04,0.0,-0.0035,0.04,0.0,0.0035
states,6,966667030,0.0127,-0.0012,-3.0934,-0.5245,-0.1673,-2721.8938,0.0001,-0.0001,-3.4596,-2.8712,0.101,3686.1216,0.0,0.0,0.0015,3.0369,-0.0001,1.1966,0.8286,-0.0721,0.0001,0.04,0.0,-0.0035,0.04,0.0,0.0035
states,6,983333697,0.0127,-0.0012,-3.0934,-0.5245,-0.1673,-2721.8938,0.0001,-0.0001,-3.4596,-2.8712,0.101,3686.1216,0.0,0.0,0.0015,3.0369,-0.0001,1.1966,0.8286,-0.0721,0.0001,0.04,0.0,-0.0035,0.04,0.0,0.0035
states,7,365,0.0127,-0.0012,-3.0934,-0.5245,-0.1673,-2721.8938,0.0001,-0.0001,-3.4596,-2.8712,0.101,3686.1216,0.0,0.0,0.0015,3.0369,-0.0001,1.1966,0.8286,-0.0721,0.0001,0.04,0.0,-0.0035,0.04,0.0,0.0035
states,7,16667032,0.0127,-0.0012,-3.0934,-0.5245,-0.1673,-2721.8938,0.0001,-0.0001,-3.4596,-2.8712,0.101,3686.1216,0.0,0.0,0.0015,3.0369,-0.0001,1.1966,0.8286,-0.0721,0.0001,0.04,0.0,-0.0035,0.04,0.0,0.0035
states,7,33333700,0.0127,-0.0012,-3.0934,-0.5245,-0.1673,-2721.8938,0.0001,-0.0001,-3.4596,-2.8712,0.101,3686.1216,0.0,0.0,0.0015,3.0369,-0.0001,1.1966,0.8286,-0.0721,0.0001,0.04,0.0,-0.0035,0.04,0.0,0.0035
states,7,50000367,0.0127,-0.0012,-3.0934,-0.5245,-0.1673,-2721.8938,0.0001,-0.0001,-3.4596,-2.8712,0.101,3686.1216,0.0,0.0,0.0015,3.0369,-0.0001,1.1966,0.8286,-0.0721,0.0001,0.04,0.0,-0.0035,0.04,0.0,0.0035
states,7,66667035,0.0127,-0.0012,-3.0934,-0.5245,-0.1673,-2721.8938,0.0001,-0.0001,-3.4596,-2.8712,0.101,3686.1216,0.0,0.0,0.0015,3.0369,-0.0001,1.1966,0.8286,-0.0721,0.0001,0.04,0.0,-0.0035,0.04,0.0,0.0035
states,7,83333702,0.0127,-0.0012,-3.0934,-0.5245,-0.1673,-2721.8938,0.0001,-0.0001,-3.4596,-2.8712,0.101,3686.1216,0.0,0.0,0.0015,3.0369,-0.0001,1.1966,0.8286,-0.0721,0.0001,0.04,0.0,-0.0035,0.04,0.0,0.0035
states,7,100000370,0.0127,-0.0012,-3.0934,-0.5245,-0.1673,-2721.8938,0.0001,-0.0001,-3.4596,-2.8712,0.101,3686.1216,0.0,0.0,0.0015,3.0369,-0.0001,1.1966,0.8286,-0.0721,0.0001,0.04,0.0,-0.0035,0.04,0.0,0.0035
states,7,116667037,0.0127,-0.0012,-3.0934,-0.5245,-0.1673,-2721.8938,0.0001,-0.0001,-3.4596,-2.8712,0.101,3686.1216,0.0,0.0,0.0015,3.0369,-0.0001,1.1966,0.8286,-0.0721,0.0001,0.04,0.0,-0.0035,0.04,0.0,0.0035
states,7,133333705,0.0127,-0.0012,-3.0934,-0.5245,-0.1673,-2721.8938,0.0001,-0.0001,-3.4596,-2.8712,0.101,3686.1216,0.0,0.0,0.0015,3.0369,-0.0001,1.1966,0.8286,-0.0721,0.0001,0.04,0.0,-0.0035,0.04,0.0,0.0035
states,7,150000372,0.0127,-0.0012,-3.0934,-0.5245,-0.1673,-2721.8938,0.0001,-0.0001,-3.4596,-2.8712,0.101,3686.1216,0.0,0.0,0.0015,3.0369,-0.0001,1.1966,0.8286,-0.0721,0.0001,0.04,0.0,-0.0035,0.04,0.0,0.0035
states,7,166667040,0.0127,-0.0012,-3.0934,-0.5245,-0.1673,-2721.8938,0.0001,-0.0001,-3.4596,-2.8712,0.101,3686.1216,0.0,0.0,0.0015,3.0369,-0.0001,1.1966,0.8286,-0.0721,0.0001,0.04,0.0,-0.0035,0.04,0.0,0.0035
states,7,183333707,0.0127,-0.0012,-3.0934,-0.5245,-0.1673,-2721.8938,0.0001,-0.0001,-3.4596,-2.8712,0.101,3686.1216,0.0,0.0,0.0015,3.0369,-0.0001,1.1966,0.8286,-0.0721,0.0001,0.04,0.0,-0.0035,0.04,0.0,0.0035
states,7,200000375,0.0127,-0.0012,-3.0934,-0.5245,-0.1673,-2721.8938,0.0001,-0.0001,-3.4596,-2.8712,0.101,3686.1216,0.0,0.0,0.0015,3.0369,-0.0001,1.1966,0.8286,-0.0721,0.0001,0.04,0.0,-0.0035,0.04,0.0,0.0035
states,7,216667043,0.0127,-0.0012,-3.0934,-0.5245,-0.1673,-2721.8938,0.0001,-0.0001,-3.4596,-2.8712,0.101,3686.1216,0.0,0.0,0.0015,3.0369,-0.0001,1.1966,0.8286,-0.0721,0.0001,0.04,0.0,-0.0035,0.04,0.0,0.0035
states,7,233333710,0.0127,-0.0012,-3.0934,-0.5245,-0.1673,-2721.8938,0.0001,-0.0001,-3.4596,-2.8712,0.101,3686.1216,0.0,0.0,0.0015,3.0369,-0.0001,1.1966,0.8286,-0.0721,0.0001,0.04,0.0,-0.0035,0.04,0.0,0.0035
states,7,250000378,0.0127,-0.0012,-3.0934,-0.5245,-0.1673,-2721.8938,0.0001,-0.0001,-3.4596,-2.8712,0.101,3686.1216,0.0,0.0,0.0015,3.0369,-0.0001,1.1966,0.8286,-0.0721,0.0001,0.04,0.0,-0.0035,0.04,0.0,0.0035
states,7,266667045,0.0127,-0.0012,-3.0934,-0.5245,-0.1673,-2721.8938,0.0001,-0.0001,-3.4596,-2.8712,0.101,3686.1216,0.0,0.0,0.0015,3.0369,-0.0001,1.1966,0.8286,-0.0721,0.0001,0.04,0.0,-0.0035,0.04,0.0,0.0035
states,7,283333713,0.0127,-0.0012,-3.0934,-0.5245,-0.1673,-2721.8938,0.0001,-0.0001,-3.4596,-2.8712,0.101,3686.1216,0.0,0.0,0.0015,3.0369,-0.0001,1.1966,0.8286,-0.0721,0.0001,0.04,0.0,-0.0035,0.04,0.0,0.0035
states,7,300000380,0.0127,-0.0012,-3.0934,-0.5245,-0.1673,-2721.8938,0.0001,-0.0001,-3.4596,-2.8712,0.101,3686.1216,0.0,0.0,0.0015,3.0369,-0.0001,1.1966,0.8286,-0.0721,0.0001,0.04,0.0,-0.0035,0.04,0.0,0.0035
states,7,316667048,0.0127,-0.0012,-3.0934,-0.5245,-0.1673,-2721.8938,0.0001,-0.0001,-3.4596,-2.8712,0.101,3686.1216,0.0,0.0,0.0015,3.0369,-0.0001,1.1966,0.8286,-0.0721,0.0001,0.04,0.0,-0.0035,0.04,0.0,0.0035
states,7,333333715,0.0127,-0.0012,-3.0934,-0.5245,-0.1673,-2721.8938,0.0001,-0.0001,-3.4596,-2.8712,0.101,3686.1216,0.0,0.0,0.0015,3.0369,-0.0001,1.1966,0.8286,-0.0721,0.0001,0.04,0.0,-0.0035,0.04,0.0,0.0035
states,7,350000383,0.0127,-0.0012,-3.0934,-0.5245,-0.1673,-2721.8938,0.0001,-0.0001,-3.4596,-2.8712,0.101,3686.1216,0.0,0.0,0.0015,3.0369,-0.0001,1.1966,0.8286,-0.0721,0.0001,0.04,0.0,-0.0035,0.04,0.0,0.0035
states,7,366667050,0.0127,-0.0012,-3.0934,-0.5245,-0.1673,-2721.8938,0.0001,-0.0001,-3.4596,-2.8712,0.101,3686.1216,0.0,0.0,0.0015,3.0369,-0.0001,1.1966,0.8286,-0.0721,0.0001,0.04,0.0,-0.0035,0.04,0.0,0.0035
states,7,383333718,0.0127,-0.0012,-3.0934,-0.5245,-0.1673,-2721.8938,0.0001,-0.0001,-3.4596,-2.8712,0.101,3686.1216,0.0,0.0,0.0015,3.0369,-0.0001,1.1966,0.8286,-0.0721,0.0001,0.04,0.0,-0.0035,0.04,0.0,0.0035
states,7,400000385,0.0127,-0.0012,-3.0934,-0.5245,-0.1673,-2721.8938,0.0001,-0.0001,-3.4596,-2.8712,0.101,3686.1216,0.0,0.0,0.0015,3.0369,-0.0001,1.1966,0.8286,-0.0721,0.0001,0.04,0.0,-0.0035,0.04,0.0,0.0035
states,7,416667053,0.0127,-0.0012,-3.0934,-0.5245,-0.1673,-2721.8938,0.0001,-0.0001,-3.4596,-2.8712,0.101,3686.1216,0.0,0.0,0.0015,3.0369,-0.0001,1.1966,0.8286,-0.0721,0.0001,0.04,0.0,-0.0035,0.04,0.0,0.0035
states,7,433333721,0.0127,-0.0012,-3.0934,-0.5245,-0.1673,-2721.8938,0.0001,-0.0001,-3.4596,-2.8712,0.101,3686.1216,0.0,0.0,0.0015,3.0369,-0.0001,1.1966,0.8286,-0.0721,0.0001,0.04,0.0,-0.0035,0.04,0.0,0.0035
states,7,450000388,0.0127,-0.0012,-3.0934,-0.5245,-0.1673,-2721.8938,0.0001,-0.0001,-3.4596,-2.8712,0.101,3686.1216,0.0,0.0,0.0015,3.0369,-0.0001,1.1966,0.8286,-0.0721,0.0001,0.04,0.0,-0.0035,0.04,0.0,0.0035
states,7,466667056,0.0127,-0.0012,-3.0934,-0.5245,-0.1673,-2721.8938,0.0001,-0.0001,-3.4596,-2.8712,0.101,3686.1216,0.0,0.0,0.0015,3.0369,-0.0001,1.1966,0.8286,-0.0721,0.0001,0.04,0.0,-0.0035,0.04,0.0,0.0035
states,7,483333723,0.0127,-0.0012,-3.0934,-0.5245,-0.1673,-2721.8938,0.0001,-0.0001,-3.4596,-2.8712,0.101,3686.1216,0.0,0.0,0.0015,3.0369,-0.0001,1.1966,0.8286,-0.0721,0.0001,0.04,0.0,-0.0035,0.04,0.0,0.0035
states,7,500000391,0.0127,-0.0012,-3.0934,-0.5245,-0.1673,-2721.8938,0.0001,-0.0001,-3.4596,-2.8712,0.101,3686.1216,0.0,0.0,0.0015,3.0369,-0.0001,1.1966,0.8286,-0.0721,0.0001,0.04,0.0,-0.0035,0.04,0.0,0.0035
states,7,516667058,0.0127,-0.0012,-3.0934,-0.5245,-0.1673,-2721.8938,0.0001,-0.0001,-3.4596,-2.8712,0.101,3686.1216,0.0,0.0,0.0015,3.0369,-0.0001,1.1966,0.8286,-0.0721,0.0001,0.04,0.0,-0.0035,0.04,0.0,0.0035
states,7,533333726,0.0127,-0.0012,-3.0934,-0.5245,-0.1673,-2721.8938,0.0001,-0.0001,-3.4596,-2.8712,0.101,3686.1216,0.0,0.0,0.0015,3.0369,-0.0001,1.1966,0.8286,-0.0721,0.0001,0.04,0.0,-0.0035,0.04,0.0,0.0035
states,7,550000393,0.0127,-0.0012,-3.0934,-0.5245,-0.1673,-2721.8938,0.0001,-0.0001,-3.4596,-2.8712,0.101,3686.1216,0.0,0.0,0.0015,3.0369,-0.0001,1.1966,0.8286,-0.0721,0.0001,0.04,0.0,-0.0035,0.04,0.0,0.0035
states,7,566667061,0.0127,-0.0012,-3.0934,-0.5245,-0.1673,-2721.8938,0.0001,-0.0001,-3.4596,-2.8712,0.101,3686.1216,0.0,0.0,0.0015,3.0369,-0.0001,1.1966,0.8286,-0.0721,0.0001,0.04,0.0,-0.0035,0.04,0.0,0.0035
states,7,583333728,0.0127,-0.0012,-3.0934,-0.5245,-0.1673,-2721.8938,0.0001,-0.0001,-3.4596,-2.8712,0.101,3686.1216,0.0,0.0,0.0015,3.0369,-0.0001,1.1966,0.8286,-0.0721,0.0001,0.04,0.0,-0.0035,0.04,0.0,0.0035
states,7,600000396,0.0127,-0.0012,-3.0934,-0.5245,-0.1673,-2721.8938,0.0001,-0.0001,-3.4596,-2.8712,0.101,3686.1216,0.0,0.0,0.0015,3.0369,-0.0001,1.1966,0.8286,-0.0721,0.0001,0.04,0.0,-0.0035,0.04,0.0,0.0035
states,7,616667063,0.0127,-0.0012,-3.0934,-0.5245,-0.1673,-2721.8938,0.0001,-0.0001,-3.4596,-2.8712,0.101,3686.1216,0.0,0.0,0.0015,3.0369,-0.0001,1.1966,0.8286,-0.0721,0.0001,0.04,0.0,-0.0035,0.04,0.0,0.0035
states,7,633333731,0.0127,-0.0012,-3.0934,-0.5245,-0.1673,-2721.8938,0.0001,-0.0001,-3.4596,-2.8712,0.101,3686.1216,0.0,0.0,0.0015,3.0369,-0.0001,1.1966,0.8286,-0.0721,0.0001,0.04,0.0,-0.0035,0.04,0.0,0.0035
states,7,650000398,0.0127,-0.0012,-3.0934,-0.5245,-0.1673,-2721.8938,0.0001,-0.0001,-3.4596,-2.8712,0.101,3686.1216,0.0,0.0,0.0015,3.0369,-0.0001,1.1966,0.8286,-0.0721,0.0001,0.04,0.0,-0.0035,0.04,0.0,0.0035
states,7,666667066,0.0127,-0.0012,-3.0934,-0.5245,-0.1673,-2721.8938,0.0001,-0.0001,-3.4596,-2.8712,0.101,3686.1216,0.0,0.0,0.0015,3.0369,-0.0001,1.1966,0.8286,-0.0721,0.0001,0.04,0.0,-0.0035,0.04,0.0,0.0035
states,7,683333734,0.0127,-0.0012,-3.0934,-0.5245,-0.1673,-2721.8938,0.0001,-0.0001,-3.4596,-2.8712,0.101,3686.1216,0.0,0.0,0.0015,3.0369,-0.0001,1.1966,0.8286,-0.0721,0.0001,0.04,0.0,-0.0035,0.04,0.0,0.0035
states,7,700000401,0.0127,-0.0012,-3.0934,-0.5245,-0.1673,-2721.8938,0.0001,-0.0001,-3.4596,-2.8712,0.101,3686.1216,0.0,0.0,0.0015,3.0369,-0.0001,1.1966,0.8286,-0.0721,0.0001,0.04,0.0,-0.0035,0.04,0.0,0.0035
states,7,716667069,0.0127,-0.0012,-3.0934,-0.5245,-0.1673,-2721.8938,0.0001,-0.0001,-3.4596,-2.8712,0.101,3686.1216,0.0,0.0,0.0015,3.0369,-0.0001,1.1966,0.8286,-0.0721,0.0001,0.04,0.0,-0.0035,0.04,0.0,0.0035
states,7,733333736,0.0127,-0.0012,-3.0934,-0.5245,-0.1673,-2721.8938,0.0001,-0.0001,-3.4596,-2.8712,0.101,3686.1216,0.0,0.0,0.0015,3.0369,-0.0001,1.1966,0.8286,-0.0721,0.0001,0.04,0.0,-0.0035,0.04,0.0,0.0035
states,7,750000404,0.0127,-0.0012,-3.0934,-0.5245,-0.1673,-2721.8938,0.0001,-0.0001,-3.4596,-2.8712,0.101,3686.1216,0.0,0.0,0.0015,3.0369,-0.0001,1.1966,0.8286,-0.0721,0.0001,0.04,0.0,-0.0035,0.04,0.0,0.0035
states,7,766667071,0.0127,-0.0012,-3.0934,-0.5245,-0.1673,-2721.8938,0.0001,-0.0001,-3.4596,-2.8712,0.101,3686.1216,0.0,0.0,0.0015,3.0369,-0.0001,1.1966,0.8286,-0.0721,0.0001,0.04,0.0,-0.0035,0.04,0.0,0.0035
states,7,783333739,0.0127,-0.0012,-3.0934,-0.5245,-0.1673,-2721.8938,0.0001,-0.0001,-3.4596,-2.8712,0.101,3686.1216,0.0,0.0,0.0015,3.0369,-0.0001,1.1966,0.8286,-0.0721,0.0001,0.04,0.0,-0.0035,0.04,0.0,0.0035
states,7,800000406,0.0127,-0.0012,-3.0934,-0.5245,-0.1673,-2721.8938,0.0001,-0.0001,-3.4596,-2.8712,0.101,3686.1216,0.0,0.0,0.0015,3.0369,-0.0001,1.1966,0.8286,-0.0721,0.0001,0.04,0.0,-0.0035,0.04,0.0,0.0035
states,7,816667074,0.0127,-0.0012,-3.0934,-0.5245,-0.1673,-2721.8938,0.0001,-0.0001,-3.4596,-2.8712,0.101,3686.1216,0.0,0.0,0.0015,3.0369,-0.0001,1.1966,0.8286,-0.0721,0.0001,0.04,0.0,-0.0035,0.04,0.0,0.0035
states,7,833333741,0.0127,-0.0012,-3.0934,-0.5245,-0.1673,-2721.8938,0.0001,-0.0001,-3.4596,-2.8712,0.101,3686.1216,0.0,0.0,0.0015,3.0369,-0.0001,1.1966,0.8286,-0.0721,0.0001,0.04,0.0,-0.0035,0.04,0.0,0.0035
states,7,850000409,0.0127,-0.0012,-3.0934,-0.5245,-0.1673,-2721.8938,0.0001,-0.0001,-3.4596,-2.8712,0.101,3686.1216,0.0,0.0,0.0015,3.0369,-0.0001,1.1966,0.8286,-0.0721,0.0001,0.04,0.0,-0.0035,0.04,0.0,0.0035
states,7,866667076,0.0127,-0.0012,-3.0934,-0.5245,-0.1673,-2721.8938,0.0001,-0.0001,-3.4596,-2.8712,0.101,3686.1216,0.0,0.0,0.0015,3.0369,-0.0001,1.1966,0.8286,-0.0721,0.0001,0.04,0.0,-0.0035,0.04,0.0,0.0035
states,7,883333744,0.0127,-0.0012,-3.0934,-0.5245,-0.1673,-2721.8938,0.0001,-0.0001,-3.4596,-2.8712,0.101,3686.1216,0.0,0.0,0.0015,3.0369,-0.0001,1.1966,0.8286,-0.0721,0.0001,0.04,0.0,-0.0035,0.04,0.0,0.0035
states,7,900000412,0.0127,-0.0012,-3.0934,-0.5245,-0.1673,-2721.8938,0.0001,-0.0001,-3.4596,-2.8712,0.101,3686.1216,0.0,0.0,0.0015,3.0369,-0.0001,1.1966,0.8286,-0.0721,0.0001,0.04,0.0,-0.0035,0.04,0.0,0.0035
states,7,916667079,0.0127,-0.0012,-3.0934,-0.5245,-0.1673,-2721.8938,0.0001,-0.0001,-3.4596,-2.8712,0.101,3686.1216,0.0,0.0,0.0015,3.0369,-0.0001,1.1966,0.8286,-0.0721,0.0001,0.04,0.0,-0.0035,0.04,0.0,0.0035
states,7,933333747,0.0127,-0.0012,-3.0934,-0.5245,-0.1673,-2721.8938,0.0001,-0.0001,-3.4596,-2.8712,0.101,3686.1216,0.0,0.0,0.0015,3.0369,-0.0001,1.1966,0.8286,-0.0721,0.0001,0.04,0.0,-0.0035,0.04,0.0,0.0035
states,7,950000414,0.0127,-0.0012,-3.0934,-0.5245,-0.1673,-2721.8938,0.0001,-0.0001,-3.4596,-2.8712,0.101,3686.1216,0.0,0.0,0.0015,3.0369,-0.0001,1.1966,0.8286,-0.0721,0.0001,0.04,0.0,-0.0035,0.04,0.0,0.0035
states,7,966667082,0.0127,-0.0012,-3.0934,-0.5245,-0.1673,-2721.8938,0.0001,-0.0001,-3.4596,-2.8712,0.101,3686.1216,0.0,0.0,0.0015,3.0369,-0.0001,1.1966,0.8286,-0.0721,0.0001,0.04,0.0,-0.0035,0.04,0.0,0.0035
states,7,983333749,0.0127,-0.0012,-3.0934,-0.5245,-0.1673,-2721.8938,0.0001,-0.0001,-3.4596,-2.8712,0.101,3686.1216,0.0,0.0,0.0015,3.0369,-0.0001,1.1966,0.8286,-0.0721,0.0001,0.04,0.0,-0.0035,0.04,0.0,0.0035
states,8,417,0.0127,-0.0012,-3.0934,-0.5245,-0.1673,-2721.8938,0.0001,-0.0001,-3.4596,-2.8712,0.101,3686.1216,0.0,0.0,0.0015,3.0369,-0.0001,1.1966,0.8286,-0.0721,0.0001,0.04,0.0,-0.0035,0.04,0.0,0.0035
states,8,16667084,0.0127,-0.0012,-3.0934,-0.5245,-0.1673,-2721.8938,0.0001,-0.0001,-3.4596,-2.8712,0.101,3686.1216,0.0,0.0,0.0015,3.0369,-0.0001,1.1966,0.8286,-0.0721,0.0001,0.04,0.0,-0.0035,0.04,0.0,0.0035
states,8,33333752,0.0127,-0.0012,-3.0934,-0.5245,-0.1673,-2721.8938,0.0001,-0.0001,-3.4596,-2.8712,0.101,3686.1216,0.0,0.0,0.0015,3.0369,-0.0001,1.1966,0.8286,-0.0721,0.0001,0.04,0.0,-0.0035,0.04,0.0,0.0035
states,8,50000419,0.0127,-0.0012,-3.0934,-0.5245,-0.1673,-2721.8938,0.0001,-0.0001,-3.4596,-2.8712,0.101,3686.1216,0.0,0.0,0.0015,3.0369,-0.0001,1.1966,0.8286,-0.0721,0.0001,0.04,0.0,-0.0035,0.04,0.0,0.0035
states,8,66667087,0.0127,-0.0012,-3.0934,-0.5245,-0.1673,-2721.8938,0.0001,-0.0001,-3.4596,-2.8712,0.101,3686.1216,0.0,0.0,0.0015,3.0369,-0.0001,1.1966,0.8286,-0.0721,0.0001,0.04,0.0,-0.0035,0.04,0.0,0.0035
states,8,83333754,0.0127,-0.0012,-3.0934,-0.5245,-0.1673,-2721.8938,0.0001,-0.0001,-3.4596,-2.8712,0.101,3686.1216,0.0,0.0,0.0015,3.0369,-0.0001,1.1966,0.8286,-0.0721,0.0001,0.04,0.0,-0.0035,0.04,0.0,0.0035
states,8,100000422,0.0127,-0.0012,-3.0934,-0.5245,-0.1673,-2721.8938,0.0001,-0.0001,-3.4596,-2.8712,0.101,3686.1216,0.0,0.0,0.0015,3.0369,-0.0001,1.1966,0.8286,-0.0721,0.0001,0.04,0.0,-0.0035,0.04,0.0,0.0035
states,8,116667089,0.0127,-0.0012,-3.0934,-0.5245,-0.1673,-2721.8938,0.0001,-0.0001,-3.4596,-2.8712,0.101,3686.1216,0.0,0.0,0.0015,3.0369,-0.0001,1.1966,0.8286,-0.0721,0.0001,0.04,0.0,-0.0035,0.04,0.0,0.0035
states,8,133333757,0.0127,-0.0012,-3.0934,-0.5245,-0.1673,-2721.8938,0.0001,-0.0001,-3.4596,-2.8712,0.101,3686.1216,0.0,0.0,0.0015,3.0369,-0.0001,1.1966,0.8286,-0.0721,0.0001,0.04,0.0,-0.0035,0.04,0.0,0.0035
states,8,150000425,0.0127,-0.0012,-3.0934,-0.5245,-0.1673,-2721.8938,0.0001,-0.0001,-3.4596,-2.8712,0.101,3686.1216,0.0,0.0,0.0015,3.0369,-0.0001,1.1966,0.8286,-0.0721,0.0001,0.04,0.0,-0.0035,0.04,0.0,0.0035
states,8,166667092,0.0127,-0.0012,-3.0934,-0.5245,-0.1673,-2721.8938,0.0001,-0.0001,-3.4596,-2.8712,0.101,3686.1216,0.0,0.0,0.0015,3.0369,-0.0001,1.1966,0.8286,-0.0721,0.0001,0.04,0.0,-0.0035,0.04,0.0,0.0035
states,8,183333760,0.0127,-0.0012,-3.0934,-0.5245,-0.1673,-2721.8938,0.0001,-0.0001,-3.4596,-2.8712,0.101,3686.1216,0.0,0.0,0.0015,3.0369,-0.0001,1.1966,0.8286,-0.0721,0.0001,0.04,0.0,-0.0035,0.04,0.0,0.0035
states,8,200000427,0.0127,-0.0012,-3.0934,-0.5245,-0.1673,-2721.8938,0.0001,-0.0001,-3.4596,-2.8712,0.101,3686.1216,0.0,0.0,0.0015,3.0369,-0.0001,1.1966,0.8286,-0.0721,0.0001,0.04,0.0,-0.0035,0.04,0.0,0.0035
states,8,216667095,0.0127,-0.0012,-3.0934,-0.5245,-0.1673,-2721.8938,0.0001,-0.0001,-3.4596,-2.8712,0.101,3686.1216,0.0,0.0,0.0015,3.0369,-0.0001,1.1966,0.8286,-0.0721,0.0001,0.04,0.0,-0.0035,0.04,0.0,0.0035
states,8,233333762,0.0127,-0.0012,-3.0934,-0.5245,-0.1673,-2721.8938,0.0001,-0.0001,-3.4596,-2.8712,0.101,3686.1216,0.0,0.0,0.0015,3.0369,-0.0001,1.1966,0.8286,-0.0721,0.0001,0.04,0.0,-0.0035,0.04,0.0,0.0035
states,8,250000430,0.0127,-0.0012,-3.0934,-0.5245,-0.1673,-2721.8938,0.0001,-0.0001,-3.4596,-2.8712,0.101,3686.1216,0.0,0.0,0.0015,3.0369,-0.0001,1.1966,0.8286,-0.0721,0.0001,0.04,0.0,-0.0035,0.04,0.0,0.0035
states,8,266667097,0.0127,-0.0012,-3.0934,-0.5245,-0.1673,-2721.8938,0.0001,-0.0001,-3.4596,-2.8712,0.101,3686.1216,0.0,0.0,0.0015,3.0369,-0.0001,1.1966,0.8286,-0.0721,0.0001,0.04,0.0,-0.0035,0.04,0.0,0.0035
states,8,283333765,0.0127,-0.0012,-3.0934,-0.5245,-0.1673,-2721.8938,0.0001,-0.0001,-3.4596,-2.8712,0.101,3686.1216,0.0,0.0,0.0015,3.0369,-0.0001,1.1966,0.8286,-0.0721,0.0001,0.04,0.0,-0.0035,0.04,0.0,0.0035
states,8,300000432,0.0127,-0.0012,-3.0934,-0.5245,-0.1673,-2721.8938,0.0001,-0.0001,-3.4596,-2.8712,0.101,3686.1216,0.0,0.0,0.0015,3.0369,-0.0001,1.1966,0.8286,-0.0721,0.0001,0.04,0.0,-0.0035,0.04,0.0,0.0035
states,8,316667100,0.0127,-0.0012,-3.0934,-0.5245,-0.1673,-2721.8938,0.0001,-0.0001,-3.4596,-2.8712,0.101,3686.1216,0.0,0.0,0.0015,3.0369,-0.0001,1.1966,0.8286,-0.0721,0.0001,0.04,0.0,-0.0035,0.04,0.0,0.0035
states,8,333333767,0.0127,-0.0012,-3.0934,-0.5245,-0.1673,-2721.8938,0.0001,-0.0001,-3.4596,-2.8712,0.101,3686.1216,0.0,0.0,0.0015,3.0369,-0.0001,1.1966,0.8286,-0.0721,0.0001,0.04,0.0,-0.0035,0.04,0.0,0.0035
states,8,350000435,0.0127,-0.0012,-3.0934,-0.5245,-0.1673,-2721.8938,0.0001,-0.0001,-3.4596,-2.8712,0.101,3686.1216,0.0,0.0,0.0015,3.0369,-0.0001,1.1966,0.8286,-0.0721,0.0001,0.04,0.0,-0.0035,0.04,0.0,0.0035
states,8,366667103,0.0127,-0.0012,-3.0934,-0.5245,-0.1673,-2721.8938,0.0001,-0.0001,-3.4596,-2.8712,0.101,3686.1216,0.0,0.0,0.0015,3.0369,-0.0001,1.1966,0.8286,-0.0721,0.0001,0.04,0.0,-0.0035,0.04,0.0,0.0035
states,8,383333770,0.0127,-0.0012,-3.0934,-0.5245,-0.1673,-2721.8938,0.0001,-0.0001,-3.4596,-2.8712,0.101,3686.1216,0.0,0.0,0.0015,3.0369,-0.0001,1.1966,0.8286,-0.0721,0.0001,0.04,0.0,-0.0035,0.04,0.0,0.0035
states,8,400000438,0.0127,-0.0012,-3.0934,-0.5245,-0.1673,-2721.8938,0.0001,-0.0001,-3.4596,-2.8712,0.101,3686.1216,0.0,0.0,0.0015,3.0369,-0.0001,1.1966,0.8286,-0.0721,0.0001,0.04,0.0,-0.0035,0.04,0.0,0.0035
states,8,416667105,0.0127,-0.0012,-3.0934,-0.5245,-0.1673,-2721.8938,0.0001,-0.0001,-3.4596,-2.8712,0.101,3686.1216,0.0,0.0,0.0015,3.0369,-0.0001,1.1966,0.8286,-0.0721,0.0001,0.04,0.0,-0.0035,0.04,0.0,0.0035
states,8,433333773,0.0127,-0.0012,-3.0934,-0.5245,-0.1673,-2721.8938,0.0001,-0.0001,-3.4596,-2.8712,0.101,3686.1216,0.0,0.0,0.0015,3.0369,-0.0001,1.1966,0.8286,-0.0721,0.0001,0.04,0.0,-0.0035,0.04,0.0,0.0035
states,8,450000440,0.0127,-0.0012,-3.0934,-0.5245,-0.1673,-2721.8938,0.0001,-0.0001,-3.4596,-2.8712,0.101,3686.1216,0.0,0.0,0.0015,3.0369,-0.0001,1.1966,0.8286,-0.0721,0.0001,0.04,0.0,-0.0035,0.04,0.0,0.0035
states,8,466667108,0.0127,-0.0012,-3.0934,-0.5245,-0.1673,-2721.8938,0.0001,-0.0001,-3.4596,-2.8712,0.101,3686.1216,0.0,0.0,0.0015,3.0369,-0.0001,1.1966,0.8286,-0.0721,0.0001,0.04,0.0,-0.0035,0.04,0.0,0.0035
states,8,483333775,0.0127,-0.0012,-3.0934,-0.5245,-0.1673,-2721.8938,0.0001,-0.0001,-3.4596,-2.8712,0.101,3686.1216,0.0,0.0,0.0015,3.0369,-0.0001,1.1966,0.8286,-0.0721,0.0001,0.04,0.0,-0.0035,0.04,0.0,0.0035
states,8,500000443,0.0127,-0.0012,-3.0934,-0.5245,-0.1673,-2721.8938,0.0001,-0.0001,-3.4596,-2.8712,0.101,3686.1216,0.0,0.0,0.0015,3.0369,-0.0001,1.1966,0.8286,-0.0721,0.0001,0.04,0.0,-0.0035,0.04,0.0,0.0035
states,8,516667110,0.0127,-0.0012,-3.0934,-0.5245,-0.1673,-2721.8938,0.0001,-0.0001,-3.4596,-2.8712,0.101,3686.1216,0.0,0.0,0.0015,3.0369,-0.0001,1.1966,0.8286,-0.0721,0.0001,0.04,0.0,-0.0035,0.04,0.0,0.0035
states,8,533333778,0.0127,-0.0012,-3.0934,-0.5245,-0.1673,-2721.8938,0.0001,-0.0001,-3.4596,-2.8712,0.101,3686.1216,0.0,0.0,0.0015,3.0369,-0.0001,1.1966,0.8286,-0.0721,0.0001,0.04,0.0,-0.0035,0.04,0.0,0.0035
states,8,550000445,0.0127,-0.0012,-3.0934,-0.5245,-0.1673,-2721.8938,0.0001,-0.0001,-3.4596,-2.8712,0.101,3686.1216,0.0,0.0,0.0015,3.0369,-0.0001,1.1966,0.8286,-0.0721,0.0001,0.04,0.0,-0.0035,0.04,0.0,0.0035
states,8,566667113,0.0127,-0.0012,-3.0934,-0.5245,-0.1673,-2721.8938,0.0001,-0.0001,-3.4596,-2.8712,0.101,3686.1216,0.0,0.0,0.0015,3.0369,-0.0001,1.1966,0.8286,-0.0721,0.0001,0.04,0.0,-0.0035,0.04,0.0,0.0035
states,8,583333780,0.0127,-0.0012,-3.0934,-0.5245,-0.1673,-2721.8938,0.0001,-0.0001,-3.4596,-2.8712,0.101,3686.1216,0.0,0.0,0.0015,3.0369,-0.0001,1.1966,0.8286,-0.0721,0.0001,0.04,0.0,-0.0035,0.04,0.0,0.0035
states,8,600000448,0.0127,-0.0012,-3.0934,-0.5245,-0.1673,-2721.8938,0.0001,-0.0001,-3.4596,-2.8712,0.101,3686.1216,0.0,0.0,0.0015,3.0369,-0.0001,1.1966,0.8286,-0.0721,0.0001,0.04,0.0,-0.0035,0.04,0.0,0.0035
states,8,616667116,0.0127,-0.0012,-3.0934,-0.5245,-0.1673,-2721.8938,0.0001,-0.0001,-3.4596,-2.8712,0.101,3686.1216,0.0,0.0,0.0015,3.0369,-0.0001,1.1966,0.8286,-0.0721,0.0001,0.04,0.0,-0.0035,0.04,0.0,0.0035
states,8,633333783,0.0127,-0.0012,-3.0934,-0.5245,-0.1673,-2721.8938,0.0001,-0.0001,-3.4596,-2.8712,0.101,3686.1216,0.0,0.0,0.0015,3.0369,-0.0001,1.1966,0.8286,-0.0721,0.0001,0.04,0.0,-0.0035,0.04,0.0,0.0035
states,8,650000451,0.0127,-0.0012,-3.0934,-0.5245,-0.1673,-2721.8938,0.0001,-0.0001,-3.4596,-2.8712,0.101,3686.1216,0.0,0.0,0.0015,3.0369,-0.0001,1.1966,0.8286,-0.0721,0.0001,0.04,0.0,-0.0035,0.04,0.0,0.0035
states,8,666667118,0.0127,-0.0012,-3.0934,-0.5245,-0.1673,-2721.8938,0.0001,-0.0001,-3.4596,-2.8712,0.101,3686.1216,0.0,0.0,0.0015,3.0369,-0.0001,1.1966,0.8286,-0.0721,0.0001,0.04,0.0,-0.0035,0.04,0.0,0.0035
states,8,683333786,0.0127,-0.0012,-3.0934,-0.5245,-0.1673,-2721.8938,0.0001,-0.0001,-3.4596,-2.8712,0.101,3686.1216,0.0,0.0,0.0015,3.0369,-0.0001,1.1966,0.8286,-0.0721,0.0001,0.04,0.0,-0.0035,0.04,0.0,0.0035
states,8,700000453,0.0127,-0.0012,-3.0934,-0.5245,-0.1673,-2721.8938,0.0001,-0.0001,-3.4596,-2.8712,0.101,3686.1216,0.0,0.0,0.0015,3.0369,-0.0001,1.1966,0.8286,-0.0721,0.0001,0.04,0.0,-0.0035,0.04,0.0,0.0035
states,8,716667121,0.0127,-0.0012,-3.0934,-0.5245,-0.1673,-2721.8938,0.0001,-0.0001,-3.4596,-2.8712,0.101,3686.1216,0.0,0.0,0.0015,3.0369,-0.0001,1.1966,0.8286,-0.0721,0.0001,0.04,0.0,-0.0035,0.04,0.0,0.0035
states,8,733333788,0.0127,-0.0012,-3.0934,-0.5245,-0.1673,-2721.8938,0.0001,-0.0001,-3.4596,-2.8712,0.101,3686.1216,0.0,0.0,0.0015,3.0369,-0.0001,1.1966,0.8286,-0.0721,0.0001,0.04,0.0,-0.0035,0.04,0.0,0.0035
states,8,750000456,0.0127,-0.0012,-3.0934,-0.5245,-0.1673,-2721.8938,0.0001,-0.0001,-3.4596,-2.8712,0.101,3686.1216,0.0,0.0,0.0015,3.0369,-0.0001,1.1966,0.8286,-0.0721,0.0001,0.04,0.0,-0.0035,0.04,0.0,0.0035
states,8,766667123,0.0127,-0.0012,-3.0934,-0.5245,-0.1673,-2721.8938,0.0001,-0.0001,-3.4596,-2.8712,0.101,3686.1216,0.0,0.0,0.0015,3.0369,-0.0001,1.1966,0.8286,-0.0721,0.0001,0.04,0.0,-0.0035,0.04,0.0,0.0035
states,8,783333791,0.0127,-0.0012,-3.0934,-0.5245,-0.1673,-2721.8938,0.0001,-0.0001,-3.4596,-2.8712,0.101,3686.1216,0.0,0.0,0.0015,3.0369,-0.0001,1.1966,0.8286,-0.0721,0.0001,0.04,0.0,-0.0035,0.04,0.0,0.0035
states,8,800000458,0.0127,-0.0012,-3.0934,-0.5245,-0.1673,-2721.8938,0.0001,-0.0001,-3.4596,-2.8712,0.101,3686.1216,0.0,0.0,0.0015,3.0369,-0.0001,1.1966,0.8286,-0.0721,0.0001,0.04,0.0,-0.0035,0.04,0.0,0.0035
states,8,816667126,0.0127,-0.0012,-3.0934,-0.5245,-0.1673,-2721.8938,0.0001,-0.0001,-3.4596,-2.8712,0.101,3686.1216,0.0,0.0,0.0015,3.0369,-0.0001,1.1966,0.8286,-0.0721,0.0001,0.04,0.0,-0.0035,0.04,0.0,0.0035
states,8,833333794,0.0127,-0.0012,-3.0934,-0.5245,-0.1673,-2721.8938,0.0001,-0.0001,-3.4596,-2.8712,0.101,3686.1216,0.0,0.0,0.0015,3.0369,-0.0001,1.1966,0.8286,-0.0721,0.0001,0.04,0.0,-0.0035,0.04,0.0,0.0035
states,8,850000461,0.0127,-0.0012,-3.0934,-0.5245,-0.1673,-2721.8938,0.0001,-0.0001,-3.4596,-2.8712,0.101,3686.1216,0.0,0.0,0.0015,3.0369,-0.0001,1.1966,0.8286,-0.0721,0.0001,0.04,0.0,-0.0035,0.04,0.0,0.0035
states,8,866667129,0.0127,-0.0012,-3.0934,-0.5245,-0.1673,-2721.8938,0.0001,-0.0001,-3.4596,-2.8712,0.101,3686.1216,0.0,0.0,0.0015,3.0369,-0.0001,1.1966,0.8286,-0.0721,0.0001,0.04,0.0,-0.0035,0.04,0.0,0.0035
states,8,883333796,0.0127,-0.0012,-3.0934,-0.5245,-0.1673,-2721.8938,0.0001,-0.0001,-3.4596,-2.8712,0.101,3686.1216,0.0,0.0,0.0015,3.0369,-0.0001,1.1966,0.8286,-0.0721,0.0001,0.04,0.0,-0.0035,0.04,0.0,0.0035
states,8,900000464,0.0127,-0.0012,-3.0934,-0.5245,-0.1673,-2721.8938,0.0001,-0.0001,-3.4596,-2.8712,0.101,3686.1216,0.0,0.0,0.0015,3.0369,-0.0001,1.1966,0.8286,-0.0721,0.0001,0.04,0.0,-0.0035,0.04,0.0,0.0035
states,8,916667131,0.0127,-0.0012,-3.0934,-0.5245,-0.1673,-2721.8938,0.0001,-0.0001,-3.4596,-2.8712,0.101,3686.1216,0.0,0.0,0.0015,3.0369,-0.0001,1.1966,0.8286,-0.0721,0.0001,0.04,0.0,-0.0035,0.04,0.0,0.0035
states,8,933333799,0.0127,-0.0012,-3.0934,-0.5245,-0.1673,-2721.8938,0.0001,-0.0001,-3.4596,-2.8712,0.101,3686.1216,0.0,0.0,0.0015,3.0369,-0.0001,1.1966,0.8286,-0.0721,0.0001,0.04,0.0,-0.0035,0.04,0.0,0.0035
command,8,933333799,-0.25,,,-1.41,,,-0.25,,,-2.55,,,-0.25,,,1.35,,,0.8500000000000001,,,0.15000000000000002,,,0.15000000000000002,,
states,8,950000466,0.0127,-0.0012,-3.0934,-0.5245,-0.1673,-2721.8938,0.0001,-0.0001,-3.4596,-2.8712,0.101,3686.1216,0.0,0.0,0.0015,3.0369,-0.0001,1.1966,0.8286,-0.0721,0.0001,0.04,0.0,-0.0035,0.04,0.0,0.0035
states,8,966667134,0.0714,2.7039,-2269.7454,-0.5372,-0.7469,-5271.0112,-0.0589,-3.0252,-2232.2627,-2.8717,0.0267,5294.9937,-0.0323,-1.8182,0.0774,2.9022,-7.7613,-5.3953,0.8292,0.0374,0.0159,0.04,0.0,-0.0665,0.04,0.0,0.0684
states,8,983333801,0.1046,1.2854,-2246.603,-0.5605,-1.3764,-5238.2485,-0.1022,-2.1884,-2060.52,-2.8735,-0.0478,5292.3403,-0.0606,-1.5826,0.9097,2.7783,-7.1414,3.1442,0.8298,0.0356,0.13,0.0399,-0.0058,0.2454,0.04,0.0076,-0.2461
states,9,469,0.1168,0.1096,-2205.1853,-0.5937,-1.9575,-5224.8066,-0.1339,-1.5755,-1935.0657,-2.8763,-0.1112,5293.3418,-0.0851,-1.3774,0.7373,2.6642,-6.5711,2.9509,0.8304,0.0338,0.1069,0.04,-0.0022,0.2217,0.04,0.0024,-0.2232
states,9,16667136,0.1112,-0.893,-2136.9104,-0.6359,-2.5103,-5218.3608,-0.1575,-1.1376,-1801.6575,-2.8796,-0.1533,5294.3599,-0.1065,-1.1985,0.5702,2.5592,-6.0463,2.7628,0.8309,0.0319,0.0842,0.04,0.0014,0.192,0.04,-0.0011,-0.1916
states,9,33333804,0.0904,-1.7608,-1996.8175,-0.6869,-3.0376,-5215.7524,-0.1754,-0.8397,-1609.303,-2.8831,-0.1635,5291.1938,-0.1251,-1.0424,0.4159,2.4627,-5.5634,2.5743,0.8314,0.03,0.063,0.04,0.0044,0.1629,0.04,-0.0026,-0.1619
states,9,50000471,0.0564,-2.5046,-1741.2367,-0.7458,-3.5322,-5217.729,-0.19,-0.6561,-1304.6287,-2.8858,-0.1301,5278.9922,-0.1413,-0.9064,0.2788,2.3738,-5.119,2.3872,0.8319,0.0285,0.0435,0.04,0.0066,0.1314,0.04,-0.0022,-0.1312
states,9,66667139,0.0116,-3.109,-1337.7371,-0.8119,-3.9828,-5228.2681,-0.203,-0.5661,-835.936,-2.887,-0.0425,5253.167,-0.1554,-0.7884,0.1699,2.292,-4.7102,2.2077,0.8324,0.0279,0.0265,0.04,0.0081,0.0934,0.04,0.0002,-0.0952
states,9,83333807,-0.0413,-3.5372,-783.4982,-0.884,-4.3784,-5252.9331,-0.216,-0.5472,-164.0793,-2.8855,0.1075,5211.9663,-0.1676,-0.6866,0.1096,2.2168,-4.3341,2.0458,0.8328,0.0283,0.0138,0.04,0.0086,0.0448,0.04,0.0043,-0.0499
states,9,100000474,-0.0984,-3.7382,-123.6577,-0.9607,-4.7156,-5294.7197,-0.2302,-0.5703,723.5005,-2.8801,0.3234,5159.5625,-0.1783,-0.5991,0.1236,2.1476,-3.988,1.9144,0.8333,0.0292,0.0078,0.04,0.0079,-0.0164,0.04,0.0092,0.007
states,9,116667142,-0.155,-3.6623,539.8321,-1.0403,-5.0035,-5347.4741,-0.2462,-0.5956,1799.6202,-2.8694,0.6031,5106.8208,-0.1876,-0.5236,0.2314,2.0839,-3.6696,1.8277,0.8338,0.0299,0.0111,0.04,0.0057,-0.0889,0.04,0.014,0.0747
states,9,133333809,-0.2069,-3.1402,1143.0862,-1.1174,-5.0119,-4502.4517,-0.2632,-0.6885,2835.6116,-2.8508,1.0465,5078.3003,-0.1958,-0.4557,0.4413,2.0252,-3.3765,1.7727,0.8343,0.0286,0.0223,0.04,0.0023,-0.1725,0.04,0.0172,0.1546
states,9,150000477,-0.2532,-2.634,1680.9198,-1.185,-4.1122,-1770.5403,-0.2776,-0.5846,3363.9382,-2.8215,1.8369,5105.5835,-0.2028,-0.3978,0.4517,1.9713,-3.1069,1.7047,0.8348,0.0281,0.0256,0.04,-0.0014,-0.1532,0.04,0.0169,0.1353
states,9,166667144,-0.2863,-1.7625,1773.3215,-1.2373,-3.0855,-924.5146,-0.2902,-0.4777,3959.9954,-2.7804,2.6469,5132.7397,-0.209,-0.3467,0.6514,1.9217,-2.8588,1.7511,0.8352,0.0271,0.0293,0.04,-0.0024,-0.2035,0.04,0.0146,0.1883
states,9,183333812,-0.3039,-0.8708,1502.6984,-1.2773,-2.3236,-598.0347,-0.2993,-0.2736,4147.8975,-2.7311,3.1335,3412.8455,-0.2144,-0.3007,0.7486,1.876,-2.6306,1.1791,0.8357,0.0257,0.0277,0.04,-0.0029,-0.218,0.04,0.0101,0.2061
states,9,200000479,-0.3094,-0.3056,1127.8431,-1.3096,-1.9582,-166.9438,-0.3035,0.011,3752.9768,-2.6797,3.0594,-21.2454,-0.2191,-0.261,0.7195,1.834,-2.4202,-0.0486,0.8361,0.0243,0.0242,0.04,-0.0025,-0.1918,0.04,0.0056,0.185
states,9,216667147,-0.3093,-0.0714,911.1958,-1.3387,-1.7469,686.7826,-0.3026,0.2593,2954.1172,-2.6331,2.6723,-2091.0046,-0.2232,-0.2263,0.5897,1.7954,-2.2267,-0.7502,0.8365,0.0232,0.0172,0.04,-0.0016,-0.1437,0.04,0.0025,0.141
states,9,233333814,-0.3087,-0.0549,876.045,-1.3655,-1.5686,1684.4591,-0.2979,0.4151,2125.7683,-2.5948,2.1471,-3110.1045,-0.2267,-0.1963,0.4394,1.7598,-2.0488,-1.0194,0.8369,0.0223,0.0104,0.04,-0.0007,-0.0999,0.04,0.001,0.0991
states,9,250000482,-0.3098,-0.1213,963.7552,-1.3901,-1.3756,2655.1917,-0.2914,0.4726,1464.5548,-2.5662,1.602,-3377.051,-0.2297,-0.1705,0.3215,1.7271,-1.8852,-0.9608,0.8372,0.0215,0.006,0.04,-0.0003,-0.0711,0.04,0.0005,0.0708
states,9,266667149,-0.3128,-0.1678,1089.6521,-1.412,-1.154,3470.0996,-0.2846,0.4564,1016.8089,-2.5466,1.108,-3155.1455,-0.2324,-0.1483,0.2535,1.697,-1.7347,-0.6968,0.8376,0.0209,0.0036,0.04,-0.0001,-0.0573,0.04,0.0003,0.0572
states,9,283333817,-0.3167,-0.1457,1185.3264,-1.4304,-0.9037,4032.2383,-0.2783,0.3996,746.5778,-2.535,0.6976,-2649.9702,-0.2347,-0.129,0.2227,1.6693,-1.5963,-0.3435,0.8379,0.0203,0.0015,0.04,0.0,-0.0528,0.04,0.0002,0.0526
states,9,300000485,-0.3198,-0.0521,1214.5879,-1.4448,-0.6328,4288.2031,-0.2731,0.3286,599.5627,-2.5297,0.3763,-2001.8885,-0.2367,-0.1123,0.2075,1.6438,-1.4689,0.0129,0.8383,0.0197,-0.0009,0.04,0.0001,-0.0511,0.04,0.0001,0.0509
states,9,316667152,-0.3212,0.0914,1168.7306,-1.4548,-0.3556,4232.5376,-0.2691,0.2577,535.4818,-2.5292,0.1345,-1294.298,-0.2384,-0.0976,0.1923,1.6203,-1.3517,0.3238,0.8386,0.0191,-0.0035,0.04,0.0001,-0.0486,0.04,0.0001,0.0484
states,9,333333820,-0.3201,0.2562,1055.8969,-1.4604,-0.0892,3899.9402,-0.2662,0.1926,533.0134,-2.5323,-0.0426,-570.4648,-0.2399,-0.0848,0.1714,1.5987,-1.2438,0.5712,0.8389,0.0186,-0.0057,0.04,-0.0001,-0.0441,0.04,0.0002,0.044
states,9,350000487,-0.3163,0.4162,892.7562,-1.4618,0.1496,3351.7461,-0.2643,0.1345,582.2095,-2.5379,-0.1697,149.4542,-0.2412,-0.0737,0.1451,1.5789,-1.1445,0.7566,0.8392,0.018,-0.0069,0.04,-0.0003,-0.0379,0.04,0.0005,0.0379
states,9,366667155,-0.3101,0.5518,699.108,-1.4595,0.3482,2661.0918,-0.2634,0.0837,675.2136,-2.5452,-0.2583,855.8663,-0.2424,-0.064,0.116,1.5606,-1.0532,0.8915,0.8395,0.0175,-0.007,0.04,-0.0005,-0.0308,0.04,0.0008,0.0307
states,9,383333822,-0.3019,0.6503,494.7157,-1.4542,0.4988,1901.5211,-0.2633,0.0415,800.0546,-2.5537,-0.3165,1541.9696,-0.2434,-0.0556,0.0867,1.5438,-0.9691,0.9899,0.8398,0.017,-0.006,0.04,-0.0007,-0.0236,0.04,0.0012,0.0234
states,9,400000490,-0.2924,0.7061,296.8048,-1.4468,0.599,1138.4396,-0.2638,0.0099,939.0641,-2.5629,-0.3493,2199.4971,-0.2442,-0.0482,0.0588,1.5283,-0.8917,1.0647,0.8401,0.0166,-0.0044,0.04,-0.0009,-0.0166,0.04,0.0015,0.0162
states,9,416667157,-0.2824,0.7202,118.4768,-1.438,0.6507,424.4627,-0.2648,-0.0093,1071.3762,-2.5725,-0.3594,2817.5322,-0.245,-0.0419,0.0331,1.514,-0.8205,1.1253,0.8403,0.0161,-0.0025,0.04,-0.001,-0.0102,0.04,0.0017,0.0097
states,9,433333825,-0.2725,0.6981,-32.0808,-1.4286,0.6593,-202.7181,-0.266,-0.0155,1177.66,-2.5819,-0.3489,3382.6589,-0.2456,-0.0364,0.0096,1.5009,-0.755,1.1776,0.8406,0.0157,-0.0007,0.04,-0.001,-0.0046,0.04,0.0017,0.004
command,9,433333825,-0.25,,,-1.41,,,-0.25,,,-2.55,,,-0.25,,,1.35,,,0.8500000000000001,,,0.15000000000000002,,,0.15000000000000002,,
states,9,450000492,-0.2633,0.6481,-151.2927,-1.4194,0.6323,-720.0323,-0.2671,-0.0101,1244.676,-2.5911,-0.3191,3880.2686,-0.2462,-0.0316,-0.0118,1.4889,-0.6947,1.2235,0.8409,0.0152,0.0009,0.04,-0.0009,0.0003,0.04,0.0016,-0.0009
states,9,466667160,-0.2551,0.5793,-239.1579,-1.4109,0.578,-1117.3892,-0.268,0.0041,1267.7316,-2.5996,-0.2722,4296.5391,-0.2467,-0.0274,-0.0312,1.4778,-0.6393,1.2625,0.8411,0.0148,0.0021,0.04,-0.0008,0.0044,0.04,0.0014,-0.005
states,9,483333827,-0.2481,0.5,-297.9656,-1.4034,0.5053,-1395.3628,-0.2686,0.023,1250.463,-2.6072,-0.2106,4620.5972,-0.2471,-0.0238,-0.0486,1.4676,-0.5882,1.2929,0.8413,0.0144,0.003,0.04,-0.0006,0.0077,0.04,0.0011,-0.0083
states,9,500000495,-0.2426,0.417,-331.1267,-1.3972,0.4225,-1562.4414,-0.2689,0.0427,1202.5696,-2.6137,-0.1379,4846.1294,-0.2475,-0.0207,-0.0632,1.4582,-0.5413,1.3124,0.8416,0.014,0.0034,0.04,-0.0005,0.0102,0.04,0.0009,-0.0107
states,9,516667162,-0.2384,0.3352,-342.4183,-1.3924,0.3369,-1632.3529,-0.2688,0.0597,1136.6781,-2.6189,-0.0582,4972.7012,-0.2478,-0.018,-0.0743,1.4495,-0.498,1.3195,0.8418,0.0137,0.0036,0.04,-0.0003,0.0119,0.04,0.0006,-0.0123
states,9,533333830,-0.2355,0.2583,-335.6076,-1.389,0.2543,-1621.6648,-0.2684,0.0719,1065.3916,-2.6228,0.024,5005.7021,-0.248,-0.0157,-0.0808,1.4416,-0.4583,1.3138,0.842,0.0133,0.0034,0.04,-0.0002,0.0127,0.04,0.0004,-0.0129
states,9,550000498,-0.2338,0.1887,-314.3102,-1.3869,0.179,-1547.7524,-0.2678,0.0784,999.2117,-2.6254,0.1042,4955.875,-0.2483,-0.0137,-0.0821,1.4343,-0.4216,1.2963,0.8423,0.0129,0.0031,0.04,-0.0001,0.0126,0.04,0.0002,-0.0127
states,9,566667165,-0.2332,0.128,-281.9807,-1.386,0.1138,-1427.3746,-0.2672,0.0793,945.4229,-2.6266,0.1782,4838.0693,-0.2485,-0.012,-0.078,1.4275,-0.388,1.269,0.8425,0.0126,0.0027,0.04,-0.0001,0.0116,0.04,0.0001,-0.0117
states,9,583333833,-0.2334,0.0773,-241.8836,-1.3861,0.0602,-1275.6875,-0.2666,0.0756,907.9426,-2.6268,0.2429,4669.5991,-0.2487,-0.0105,-0.0688,1.4213,-0.357,1.2349,0.8427,0.0122,0.0022,0.04,0.0,0.0099,0.04,0.0,-0.0099
states,9,600000500,-0.2345,0.0371,-197.0835,-1.387,0.0184,-1105.8593,-0.2661,0.0687,887.636,-2.6259,0.2959,4468.3853,-0.2488,-0.0092,-0.0554,1.4156,-0.3285,1.197,0.8429,0.0119,0.0017,0.04,0.0,0.0076,0.04,0.0,-0.0076
states,9,616667168,-0.236,0.0073,-150.3671,-1.3885,-0.0118,-928.9045,-0.2657,0.0601,883.0384,-2.6242,0.3359,4251.7231,-0.249,-0.0081,-0.0391,1.4104,-0.3022,1.1586,0.8431,0.0115,0.0012,0.04,0.0,0.0049,0.04,0.0,-0.0049
states,9,633333835,-0.238,-0.0122,-104.1946,-1.3904,-0.0315,-753.9194,-0.2655,0.0512,891.2339,-2.622,0.3628,4034.7744,-0.2491,-0.0071,-0.0212,1.4055,-0.2781,1.1222,0.8433,0.0112,0.0008,0.04,0.0,0.002,0.04,0.0,-0.002
states,9,650000503,-0.2402,-0.0222,-60.6237,-1.3926,-0.0416,-588.1559,-0.2654,0.043,908.5928,-2.6195,0.3772,3830.031,-0.2492,-0.0063,-0.003,1.4011,-0.2559,1.09,0.8434,0.0109,0.0004,0.04,0.0,-0.0008,0.04,0.0,0.0008
states,9,666667170,-0.2425,-0.0239,-21.2748,-1.3949,-0.0436,-437.2458,-0.2654,0.0363,931.4138,-2.6168,0.3806,3646.6206,-0.2493,-0.0055,0.0142,1.397,-0.2354,1.0631,0.8436,0.0106,0.0001,0.04,0.0,-0.0035,0.04,0.0,0.0035
states,9,683333838,-0.2448,-0.0184,12.6618,-1.3971,-0.0388,-305.4097,-0.2656,0.0314,956.3649,-2.6142,0.3748,3490.7378,-0.2494,-0.0049,0.0296,1.3933,-0.2166,1.0422,0.8438,0.0103,-0.0001,0.04,0.0,-0.0059,0.04,0.0,0.0058
states,9,700000505,-0.2469,-0.0072,40.4237,-1.3993,-0.0285,-195.5213,-0.2658,0.0285,980.7725,-2.6117,0.3619,3365.6155,-0.2495,-0.0043,0.0424,1.3898,-0.1993,1.027,0.844,0.01,-0.0004,0.04,0.0,-0.0078,0.04,0.0,0.0078
states,9,716667173,-0.2488,0.0083,61.6584,-1.4012,-0.0141,-109.1339,-0.2661,0.0274,1002.6719,-2.6094,0.3438,3272.0215,-0.2495,-0.0038,0.0523,1.3866,-0.1834,1.0172,0.8441,0.0097,-0.0005,0.04,0.0,-0.0093,0.04,0.0,0.0093
states,9,733333840,-0.2505,0.0266,76.3659,-1.4029,0.0031,-46.6294,-0.2663,0.0278,1020.8744,-2.6076,0.3227,3208.8499,-0.2496,-0.0033,0.0592,1.3837,-0.1687,1.0118,0.8443,0.0095,-0.0006,0.04,0.0,-0.0104,0.04,0.0,0.0103
states,9,750000508,-0.2518,0.0465,84.8595,-1.4043,0.022,-7.2729,-0.2666,0.0294,1034.7839,-2.606,0.3001,3173.6775,-0.2496,-0.0029,0.0632,1.381,-0.1553,1.01,0.8444,0.0092,-0.0007,0.04,0.0,-0.011,0.04,0.0,0.011
states,9,766667176,-0.2528,0.0667,87.7099,-1.4054,0.0415,10.6351,-0.2668,0.0318,1044.3617,-2.6049,0.2776,3163.0574,-0.2497,-0.0026,0.0646,1.3785,-0.1429,1.0109,0.8446,0.009,-0.0008,0.04,0.0,-0.0112,0.04,0.0,0.0112
states,9,783333843,-0.2535,0.0861,85.6818,-1.4062,0.0604,9.5987,-0.267,0.0345,1049.899,-2.6041,0.2562,3172.9702,-0.2497,-0.0023,0.0637,1.3762,-0.1314,1.0136,0.8447,0.0087,-0.0007,0.04,0.0,-0.0111,0.04,0.0,0.0111
states,9,800000511,-0.2538,0.1039,79.667,-1.4067,0.0781,-7.3293,-0.2671,0.0374,1051.9343,-2.6037,0.2368,3199.2964,-0.2498,-0.002,0.0611,1.3741,-0.1209,1.0174,0.8449,0.0085,-0.0007,0.04,0.0,-0.0107,0.04,0.0,0.0107
states,9,816667178,-0.2539,0.1195,70.6263,-1.4069,0.0938,-36.7269,-0.2672,0.0401,1051.1232,-2.6036,0.22,3237.8599,-0.2498,-0.0017,0.0571,1.3722,-0.1113,1.0219,0.845,0.0082,-0.0006,0.04,0.0,-0.0101,0.04,0.0,0.01
states,9,833333846,-0.2538,0.1324,59.5165,-1.4069,0.1071,-75.0987,-0.2672,0.0425,1048.1477,-2.6037,0.2061,3284.7136,-0.2498,-0.0015,0.0523,1.3704,-0.1024,1.0266,0.8452,0.008,-0.0005,0.04,0.0,-0.0093,0.04,0.0,0.0093
states,9,850000513,-0.2535,0.1424,47.264,-1.4066,0.1177,-118.9646,-0.2673,0.0445,1043.6407,-2.6041,0.1953,3336.2449,-0.2498,-0.0013,0.0469,1.3688,-0.0942,1.0312,0.8453,0.0078,-0.0004,0.04,0.0,-0.0085,0.04,0.0,0.0085
states,9,866667181,-0.253,0.1496,34.6773,-1.4063,0.1255,-165.2311,-0.2672,0.0461,1038.1769,-2.6046,0.1875,3389.291,-0.2499,-0.0011,0.0415,1.3673,-0.0867,1.0354,0.8454,0.0076,-0.0003,0.04,0.0,-0.0077,0.04,0.0,0.0076
states,9,883333848,-0.2525,0.1539,22.4705,-1.4058,0.1306,-211.0803,-0.2672,0.0472,1032.2499,-2.6052,0.1827,3440.9968,-0.2499,-0.001,0.0363,1.3659,-0.0798,1.0392,0.8456,0.0074,-0.0002,0.04,0.0,-0.0068,0.04,0.0,0.0068
states,9,900000516,-0.2519,0.1557,11.2043,-1.4052,0.1332,-254.2516,-0.2671,0.0479,1026.2563,-2.6058,0.1804,3489.1338,-0.2499,-0.0009,0.0314,1.3646,-0.0734,1.0424,0.8457,0.0072,-0.0001,0.04,0.0,-0.0061,0.04,0.0,0.0061
states,9,916667183,-0.2513,0.1553,1.2949,-1.4046,0.1335,-292.9872,-0.267,0.0482,1020.5129,-2.6065,0.1805,3531.9651,-0.2499,-0.0008,0.0272,1.3634,-0.0675,1.0449,0.8458,0.007,0.0,0.04,0.0,-0.0054,0.04,0.0,0.0054
states,9,933333851,-0.2507,0.1531,-6.9833,-1.404,0.1319,-326.0758,-0.267,0.0482,1015.2521,-2.6071,0.1825,3568.3704,-0.2499,-0.0007,0.0236,1.3624,-0.0621,1.0467,0.8459,0.0068,0.0,0.04,0.0,-0.0048,0.04,0.0,0.0048
states,9,950000518,-0.2502,0.1495,-13.4891,-1.4035,0.1289,-352.803,-0.2669,0.048,1010.648,-2.6077,0.186,3597.5664,-0.2499,-0.0006,0.0208,1.3614,-0.0572,1.0478,0.846,0.0066,0.0001,0.04,0.0,-0.0044,0.04,0.0,0.0044
command,9,950000518,-0.25,,,-1.41,,,-0.25,,,-2.55,,,-0.25,,,1.35,,,0.8500000000000001,,,0.15000000000000002,,,0.15000000000000002,,
states,9,966667186,-0.2497,0.145,-18.2051,-1.403,0.1248,-372.945,-0.2668,0.0476,1006.8117,-2.6083,0.1906,3619.3804,-0.2499,-0.0005,0.0188,1.3605,-0.0526,1.0483,0.8461,0.0064,0.0001,0.04,0.0,-0.0041,0.04,0.0,0.0041
states,9,983333854,-0.2493,0.1399,-21.1971,-1.4026,0.12,-386.5973,-0.2668,0.047,1003.8004,-2.6087,0.196,3633.8887,-0.2499,-0.0005,0.0175,1.3596,-0.0484,1.048,0.8462,0.0063,0.0001,0.04,0.0,-0.0039,0.04,0.0,0.0038
states,10,521,-0.249,0.1345,-22.616,-1.4022,0.1149,-394.2056,-0.2667,0.0463,1001.6172,-2.6091,0.2016,3641.5388,-0.2499,-0.0004,0.017,1.3588,-0.0445,1.0472,0.8463,0.0061,0.0002,0.04,0.0,-0.0037,0.04,0.0,0.0037
states,10,16667189,-0.2488,0.1293,-22.6609,-1.402,0.1098,-396.4352,-0.2667,0.0456,1000.2355,-2.6094,0.2072,3643.167,-0.2499,-0.0004,0.017,1.3581,-0.041,1.0459,0.8464,0.0059,0.0002,0.04,0.0,-0.0037,0.04,0.0,0.0037
states,10,33333856,-0.2486,0.1244,-21.5623,-1.4018,0.105,-394.0845,-0.2666,0.045,999.5869,-2.6095,0.2125,3639.7146,-0.2499,-0.0003,0.0174,1.3575,-0.0377,1.0443,0.8465,0.0058,0.0001,0.04,0.0,-0.0038,0.04,0.0,0.0038
states,10,50000524,-0.2486,0.1201,-19.585,-1.4017,0.1006,-388.1167,-0.2666,0.0443,999.5864,-2.6096,0.2174,3632.137,-0.2499,-0.0003,0.0183,1.3569,-0.0347,1.0424,0.8466,0.0056,0.0001,0.04,0.0,-0.0039,0.04,0.0,0.0039
states,10,66667191,-0.2486,0.1164,-16.9654,-1.4017,0.0968,-379.3913,-0.2666,0.0437,1000.1253,-2.6096,0.2215,3621.5081,-0.2499,-0.0003,0.0195,1.3563,-0.0319,1.0403,0.8467,0.0054,0.0001,0.04,0.0,-0.004,0.04,0.0,0.004
states,10,83333859,-0.2486,0.1134,-13.9458,-1.4017,0.0937,-368.8245,-0.2666,0.0432,1001.072,-2.6096,0.2249,3608.877,-0.2499,-0.0003,0.0208,1.3558,-0.0294,1.0382,0.8468,0.0053,0.0001,0.04,0.0,-0.0042,0.04,0.0,0.0042
states,10,100000526,-0.2487,0.1112,-10.7429,-1.4018,0.0913,-357.2484,-0.2666,0.0428,1002.3163,-2.6095,0.2275,3595.2842,-0.25,-0.0003,0.0222,1.3553,-0.027,1.0361,0.8469,0.0051,0.0001,0.04,0.0,-0.0044,0.04,0.0,0.0044
states,10,116667194,-0.2489,0.1098,-7.5523,-1.4019,0.0896,-345.4275,-0.2666,0.0425,1003.7338,-2.6093,0.2293,3581.5054,-0.25,-0.0003,0.0236,1.3549,-0.0248,1.0341,0.847,0.005,0.0,0.04,0.0,-0.0046,0.04,0.0,0.0046
states,10,133333861,-0.249,0.1089,-4.5237,-1.402,0.0886,-333.9604,-0.2666,0.0423,1005.2267,-2.6092,0.2304,3568.2646,-0.25,-0.0002,0.025,1.3545,-0.0229,1.0323,0.8471,0.0049,0.0,0.04,0.0,-0.0048,0.04,0.0,0.0048
states,10,150000529,-0.2492,0.1087,-1.7834,-1.4022,0.0881,-323.3737,-0.2666,0.0422,1006.6942,-2.609,0.2308,3556.167,-0.25,-0.0002,0.0262,1.3541,-0.021,1.0308,0.8471,0.0047,0.0,0.04,0.0,-0.005,0.04,0.0,0.005
states,10,166667196,-0.2493,0.1091,0.5865,-1.4023,0.0883,-314.018,-0.2667,0.0422,1008.0682,-2.6088,0.2305,3545.6125,-0.25,-0.0002,0.0272,1.3538,-0.0194,1.0295,0.8472,0.0046,0.0,0.04,0.0,-0.0052,0.04,0.0,0.0052
states,10,183333864,-0.2495,0.1098,2.5301,-1.4025,0.0888,-306.1572,-0.2667,0.0422,1009.2919,-2.6087,0.2299,3536.9082,-0.25,-0.0002,0.028,1.3535,-0.0178,1.0284,0.8473,0.0045,0.0,0.04,0.0,-0.0053,0.04,0.0,0.0053
states,10,200000531,-0.2496,0.1108,4.0204,-1.4026,0.0897,-299.9336,-0.2667,0.0423,1010.3341,-2.6085,0.2288,3530.1182,-0.25,-0.0002,0.0287,1.3532,-0.0164,1.0276,0.8474,0.0044,0.0,0.04,0.0,-0.0054,0.04,0.0,0.0054
states,10,216667199,-0.2497,0.112,5.062,-1.4027,0.0908,-295.3755,-0.2667,0.0425,1011.1697,-2.6084,0.2276,3525.2202,-0.25,-0.0002,0.0291,1.353,-0.0151,1.0271,0.8474,0.0042,-0.0001,0.04,0.0,-0.0055,0.04,0.0,0.0054
states,10,233333867,-0.2498,0.1134,5.6822,-1.4028,0.0921,-292.4123,-0.2667,0.0426,1011.7907,-2.6083,0.2261,3522.1865,-0.25,-0.0002,0.0294,1.3527,-0.0139,1.0267,0.8475,0.0041,-0.0001,0.04,0.0,-0.0055,0.04,0.0,0.0055
states,10,250000534,-0.2499,0.1147,5.9157,-1.4029,0.0934,-290.9482,-0.2667,0.0428,1012.2057,-2.6082,0.2247,3520.8621,-0.25,-0.0002,0.0295,1.3525,-0.0128,1.0265,0.8476,0.004,-0.0001,0.04,0.0,-0.0055,0.04,0.0,0.0055
states,10,266667202,-0.2499,0.116,5.8193,-1.403,0.0946,-290.7858,-0.2668,0.043,1012.4322,-2.6081,0.2232,3521.0002,-0.25,-0.0002,0.0294,1.3523,-0.0117,1.0265,0.8476,0.0039,-0.0001,0.04,0.0,-0.0055,0.04,0.0,0.0055
states,10,283333869,-0.25,0.1172,5.4502,-1.403,0.0958,-291.7386,-0.2668,0.0431,1012.4945,-2.6081,0.2219,3522.3589,-0.25,-0.0002,0.0293,1.3521,-0.0108,1.0266,0.8477,0.0038,-0.0001,0.04,0.0,-0.0055,0.04,0.0,0.0055
states,10,300000537,-0.25,0.1183,4.8797,-1.403,0.0969,-293.529,-0.2668,0.0433,1012.4176,-2.6081,0.2207,3524.6414,-0.25,-0.0002,0.029,1.3519,-0.0099,1.0267,0.8478,0.0037,0.0,0.04,0.0,-0.0054,0.04,0.0,0.0054
states,10,316667204,-0.25,0.1192,4.1664,-1.403,0.0978,-295.9548,-0.2668,0.0434,1012.2192,-2.6081,0.2197,3527.6006,-0.25,-0.0002,0.0287,1.3518,-0.0091,1.0269,0.8478,0.0036,0.0,0.04,0.0,-0.0054,0.04,0.0,0.0054
states,10,333333872,-0.2499,0.1199,3.3716,-1.403,0.0986,-298.7729,-0.2668,0.0435,1011.9501,-2.6081,0.219,3530.9717,-0.25,-0.0001,0.0284,1.3516,-0.0084,1.0272,0.8479,0.0035,0.0,0.04,0.0,-0.0054,0.04,0.0,0.0053
states,10,350000539,-0.2499,0.1204,2.5396,-1.403,0.0991,-301.8222,-0.2668,0.0436,1011.6232,-2.6081,0.2184,3534.5266,-0.25,-0.0001,0.028,1.3515,-0.0077,1.0274,0.8479,0.0034,0.0,0.04,0.0,-0.0053,0.04,0.0,0.0053
states,10,366667207,-0.2499,0.1207,1.7306,-1.403,0.0995,-304.8471,-0.2668,0.0437,1011.2652,-2.6082,0.218,3537.981,-0.25,-0.0001,0.0277,1.3514,-0.0071,1.0276,0.848,0.0033,0.0,0.04,0.0,-0.0052,0.04,0.0,0.0052
states,10,383333874,-0.2498,0.1208,0.9779,-1.4029,0.0997,-307.724,-0.2668,0.0437,1010.9009,-2.6082,0.2178,3541.2698,-0.25,-0.0001,0.0273,1.3512,-0.0065,1.0278,0.8481,0.0032,0.0,0.04,0.0,-0.0052,0.04,0.0,0.0052
states,10,400000542,-0.2498,0.1208,0.3087,-1.4029,0.0998,-310.3352,-0.2668,0.0437,1010.545,-2.6083,0.2177,3544.2219,-0.25,-0.0001,0.0271,1.3511,-0.006,1.028,0.8481,0.0031,0.0,0.04,0.0,-0.0052,0.04,0.0,0.0051
states,10,416667209,-0.2498,0.1207,-0.2598,-1.4029,0.0997,-312.6042,-0.2667,0.0437,1010.2198,-2.6083,0.2178,3546.7246,-0.25,-0.0001,0.0268,1.351,-0.0055,1.0281,0.8482,0.003,0.0,0.04,0.0,-0.0051,0.04,0.0,0.0051
states,10,433333877,-0.2497,0.1205,-0.7149,-1.4028,0.0995,-314.4659,-0.2667,0.0437,1009.9294,-2.6083,0.218,3548.7744,-0.25,-0.0001,0.0266,1.351,-0.0051,1.0281,0.8482,0.0029,0.0,0.04,0.0,-0.0051,0.04,0.0,0.0051
states,10,450000545,-0.2497,0.1202,-1.0518,-1.4028,0.0993,-315.896,-0.2667,0.0437,1009.6907,-2.6084,0.2183,3550.3406,-0.25,-0.0001,0.0265,1.3509,-0.0047,1.0282,0.8483,0.0029,0.0,0.04,0.0,-0.0051,0.04,0.0,0.0051
states,10,466667212,-0.2497,0.1199,-1.2765,-1.4028,0.099,-316.907,-0.2667,0.0436,1009.5006,-2.6084,0.2187,3551.4358,-0.25,-0.0001,0.0264,1.3508,-0.0043,1.0281,0.8483,0.0028,0.0,0.04,0.0,-0.005,0.04,0.0,0.005
command,10,466667212,-0.25,,,-1.41,,,-0.25,,,-2.55,,,-0.25,,,1.35,,,0.8500000000000001,,,0.15000000000000002,,,0.15000000000000002,,
states,10,483333880,-0.2496,0.1195,-1.3952,-1.4027,0.0986,-317.51,-0.2667,0.0436,1009.362,-2.6084,0.2191,3552.0784,-0.25,-0.0001,0.0263,1.3507,-0.004,1.0281,0.8484,0.0027,0.0,0.04,0.0,-0.005,0.04,0.0,0.005
states,10,500000547,-0.2496,0.1192,-1.4243,-1.4027,0.0983,-317.7646,-0.2667,0.0436,1009.2734,-2.6085,0.2194,3552.2549,-0.25,-0.0001,0.0263,1.3507,-0.0036,1.028,0.8484,0.0026,0.0,0.04,0.0,-0.005,0.04,0.0,0.005
states,10,516667215,-0.2496,0.1189,-1.3733,-1.4027,0.098,-317.6968,-0.2667,0.0435,1009.2266,-2.6085,0.2198,3552.0823,-0.25,-0.0001,0.0264,1.3506,-0.0033,1.0278,0.8484,0.0026,0.0,0.04,0.0,-0.005,0.04,0.0,0.005
states,10,533333882,-0.2496,0.1186,-1.2554,-1.4027,0.0977,-317.3584,-0.2667,0.0435,1009.2304,-2.6085,0.2201,3551.6604,-0.25,-0.0001,0.0264,1.3506,-0.0031,1.0277,0.8485,0.0025,0.0,0.04,0.0,-0.005,0.04,0.0,0.005
states,10,550000550,-0.2496,0.1183,-1.0995,-1.4027,0.0974,-316.856,-0.2667,0.0434,1009.2532,-2.6085,0.2204,3551.0171,-0.25,-0.0001,0.0265,1.3505,-0.0028,1.0276,0.8485,0.0024,0.0,0.04,0.0,-0.0051,0.04,0.0,0.005
states,10,566667217,-0.2496,0.1181,-0.9073,-1.4027,0.0972,-316.192,-0.2667,0.0434,1009.3113,-2.6085,0.2206,3550.2371,-0.25,-0.0001,0.0266,1.3505,-0.0026,1.0274,0.8486,0.0024,0.0,0.04,0.0,-0.0051,0.04,0.0,0.0051
states,10,583333885,-0.2496,0.1179,-0.6985,-1.4027,0.097,-315.4401,-0.2667,0.0434,1009.3872,-2.6085,0.2208,3549.3435,-0.25,-0.0001,0.0267,1.3504,-0.0024,1.0273,0.8486,0.0023,0.0,0.04,0.0,-0.0051,0.04,0.0,0.0051
states,10,600000552,-0.2496,0.1178,-0.4902,-1.4027,0.0969,-314.6722,-0.2667,0.0434,1009.4745,-2.6085,0.221,3548.4622,-0.25,-0.0001,0.0268,1.3504,-0.0022,1.0271,0.8486,0.0022,0.0,0.04,0.0,-0.0051,0.04,0.0,0.0051
states,10,616667220,-0.2496,0.1178,-0.2874,-1.4027,0.0968,-313.9071,-0.2667,0.0433,1009.5673,-2.6085,0.221,3547.5654,-0.25,-0.0001,0.0268,1.3503,-0.002,1.027,0.8487,0.0022,0.0,0.04,0.0,-0.0051,0.04,0.0,0.0051
states,10,633333887,-0.2496,0.1177,-0.0983,-1.4027,0.0968,-313.1779,-0.2667,0.0433,1009.6549,-2.6084,0.2211,3546.7302,-0.25,-0.0001,0.0269,1.3503,-0.0019,1.0269,0.8487,0.0021,0.0,0.04,0.0,-0.0051,0.04,0.0,0.0051
states,10,650000555,-0.2497,0.1178,0.0631,-1.4027,0.0968,-312.5445,-0.2667,0.0433,1009.746,-2.6084,0.2211,3545.9954,-0.25,-0.0001,0.027,1.3503,-0.0017,1.0268,0.8488,0.0021,0.0,0.04,0.0,-0.0051,0.04,0.0,0.0051
states,10,666667222,-0.2497,0.1178,0.1959,-1.4027,0.0968,-312.0087,-0.2667,0.0433,1009.8263,-2.6084,0.221,3545.4036,-0.25,-0.0001,0.0271,1.3503,-0.0016,1.0267,0.8488,0.002,0.0,0.04,0.0,-0.0051,0.04,0.0,0.0051
states,10,683333890,-0.2497,0.1179,0.3019,-1.4027,0.0969,-311.5679,-0.2667,0.0433,1009.8931,-2.6084,0.221,3544.9155,-0.25,-0.0001,0.0271,1.3502,-0.0014,1.0266,0.8488,0.0019,0.0,0.04,0.0,-0.0051,0.04,0.0,0.0051
states,10,700000558,-0.2497,0.1179,0.3827,-1.4028,0.0969,-311.2227,-0.2667,0.0434,1009.9468,-2.6084,0.2209,3544.5613,-0.25,-0.0001,0.0271,1.3502,-0.0013,1.0266,0.8488,0.0019,0.0,0.04,0.0,-0.0052,0.04,0.0,0.0051
states,10,716667225,-0.2497,0.118,0.4321,-1.4028,0.097,-310.9941,-0.2667,0.0434,1009.9913,-2.6084,0.2208,3544.343,-0.25,-0.0001,0.0272,1.3502,-0.0012,1.0266,0.8489,0.0018,0.0,0.04,0.0,-0.0052,0.04,0.0,0.0052
states,10,733333893,-0.2497,0.1181,0.4534,-1.4028,0.0971,-310.8731,-0.2667,0.0434,1010.0221,-2.6084,0.2207,3544.2256,-0.25,-0.0001,0.0272,1.3502,-0.0011,1.0265,0.8489,0.0018,0.0,0.04,0.0,-0.0052,0.04,0.0,0.0052
states,10,750000560,-0.2497,0.1182,0.4529,-1.4028,0.0972,-310.8381,-0.2667,0.0434,1010.0356,-2.6084,0.2206,3544.1899,-0.25,-0.0001,0.0272,1.3501,-0.001,1.0265,0.8489,0.0017,0.0,0.04,0.0,-0.0052,0.04,0.0,0.0052
states,10,766667228,-0.2497,0.1183,0.4338,-1.4028,0.0973,-310.878,-0.2667,0.0434,1010.0423,-2.6084,0.2205,3544.281,-0.25,-0.0001,0.0272,1.3501,-0.0009,1.0265,0.849,0.0017,0.0,0.04,0.0,-0.0052,0.04,0.0,0.0052
states,10,783333895,-0.2497,0.1184,0.3953,-1.4028,0.0973,-311.002,-0.2667,0.0434,1010.0452,-2.6084,0.2204,3544.394,-0.25,-0.0001,0.0271,1.3501,-0.0009,1.0265,0.849,0.0016,0.0,0.04,0.0,-0.0052,0.04,0.0,0.0052
states,10,800000563,-0.2497,0.1184,0.3546,-1.4028,0.0974,-311.1358,-0.2667,0.0434,1010.0356,-2.6084,0.2204,3544.5747,-0.25,-0.0001,0.0271,1.3501,-0.0008,1.0265,0.849,0.0016,0.0,0.04,0.0,-0.0052,0.04,0.0,0.0051
states,10,816667230,-0.2497,0.1185,0.3049,-1.4028,0.0975,-311.3125,-0.2667,0.0434,1010.0252,-2.6084,0.2203,3544.804,-0.25,-0.0001,0.0271,1.3501,-0.0007,1.0266,0.8491,0.0016,0.0,0.04,0.0,-0.0052,0.04,0.0,0.0051
states,10,833333898,-0.2497,0.1185,0.248,-1.4028,0.0975,-311.5199,-0.2667,0.0434,1010.0023,-2.6084,0.2203,3545.0557,-0.25,-0.0001,0.0271,1.3501,-0.0007,1.0266,0.8491,0.0015,0.0,0.04,0.0,-0.0051,0.04,0.0,0.0051
states,10,850000565,-0.2497,0.1185,0.1911,-1.4028,0.0975,-311.7314,-0.2667,0.0434,1009.9791,-2.6084,0.2202,3545.2598,-0.25,-0.0001,0.0271,1.3501,-0.0006,1.0266,0.8491,0.0015,0.0,0.04,0.0,-0.0051,0.04,0.0,0.0051
states,10,866667233,-0.2497,0.1185,0.1418,-1.4028,0.0975,-311.9163,-0.2667,0.0434,1009.9516,-2.6084,0.2202,3545.4739,-0.25,-0.0001,0.027,1.35,-0.0006,1.0266,0.8491,0.0014,0.0,0.04,0.0,-0.0051,0.04,0.0,0.0051
states,10,883333900,-0.2497,0.1185,0.0982,-1.4028,0.0975,-312.0856,-0.2667,0.0434,1009.9255,-2.6084,0.2202,3545.6621,-0.25,-0.0001,0.027,1.35,-0.0005,1.0266,0.8491,0.0014,0.0,0.04,0.0,-0.0051,0.04,0.0,0.0051
states,10,900000568,-0.2497,0.1185,0.0619,-1.4028,0.0975,-312.2275,-0.2667,0.0434,1009.9044,-2.6084,0.2202,3545.8398,-0.25,-0.0001,0.027,1.35,-0.0005,1.0266,0.8492,0.0013,0.0,0.04,0.0,-0.0051,0.04,0.0,0.0051
states,10,916667236,-0.2497,0.1185,0.031,-1.4028,0.0975,-312.3513,-0.2667,0.0434,1009.8839,-2.6084,0.2202,3545.9822,-0.25,-0.0001,0.027,1.35,-0.0004,1.0266,0.8492,0.0013,0.0,0.04,0.0,-0.0051,0.04,0.0,0.0051
states,10,933333903,-0.2497,0.1185,0.008,-1.4028,0.0975,-312.4494,-0.2667,0.0434,1009.8706,-2.6084,0.2203,3546.0874,-0.25,-0.0001,0.027,1.35,-0.0004,1.0266,0.8492,0.0013,0.0,0.04,0.0,-0.0051,0.04,0.0,0.0051
states,10,950000571,-0.2497,0.1185,-0.0103,-1.4028,0.0975,-312.5292,-0.2667,0.0434,1009.8574,-2.6084,0.2203,3546.1646,-0.25,-0.0001,0.027,1.35,-0.0004,1.0266,0.8492,0.0012,0.0,0.04,0.0,-0.0051,0.04,0.0,0.0051
states,10,966667238,-0.2497,0.1185,-0.0215,-1.4028,0.0975,-312.5848,-0.2667,0.0434,1009.8486,-2.6084,0.2203,3546.2314,-0.25,-0.0001,0.027,1.35,-0.0003,1.0266,0.8493,0.0012,0.0,0.04,0.0,-0.0051,0.04,0.0,0.0051
states,10,983333906,-0.2497,0.1184,-0.0283,-1.4028,0.0975,-312.6201,-0.2667,0.0434,1009.8409,-2.6084,0.2203,3546.2476,-0.25,-0.0001,0.027,1.35,-0.0003,1.0266,0.8493,0.0012,0.0,0.04,0.0,-0.0051,0.04,0.0,0.0051
command,10,983333906,-0.25,,,-1.41,,,-0.25,,,-2.55,,,-0.25,,,1.35,,,0.8500000000000001,,,0.15000000000000002,,,0.15000000000000002,,
states,11,573,-0.2497,0.1184,-0.0271,-1.4028,0.0974,-312.6253,-0.2667,0.0434,1009.8391,-2.6084,0.2203,3546.2542,-0.25,-0.0001,0.027,1.35,-0.0003,1.0266,0.8493,0.0011,0.0,0.04,0.0,-0.0051,0.04,0.0,0.0051
states,11,16667241,-0.2497,0.1184,-0.0197,-1.4028,0.0974,-312.6078,-0.2667,0.0434,1009.8431,-2.6084,0.2204,3546.2517,-0.25,-0.0001,0.027,1.35,-0.0002,1.0266,0.8493,0.0011,0.0,0.04,0.0,-0.0051,0.04,0.0,0.0051
states,11,33333908,-0.2497,0.1184,-0.0134,-1.4028,0.0974,-312.5909,-0.2667,0.0434,1009.8452,-2.6084,0.2204,3546.248,-0.25,-0.0001,0.027,1.35,-0.0002,1.0266,0.8493,0.0011,0.0,0.04,0.0,-0.0051,0.04,0.0,0.0051
states,11,50000576,-0.2497,0.1184,-0.0049,-1.4028,0.0974,-312.5658,-0.2667,0.0434,1009.8524,-2.6084,0.2204,3546.2168,-0.25,-0.0001,0.027,1.35,-0.0002,1.0266,0.8494,0.001,0.0,0.04,0.0,-0.0051,0.04,0.0,0.0051
states,11,66667243,-0.2497,0.1184,0.0067,-1.4028,0.0974,-312.5277,-0.2667,0.0434,1009.8599,-2.6084,0.2204,3546.1321,-0.25,-0.0001,0.027,1.35,-0.0002,1.0265,0.8494,0.001,0.0,0.04,0.0,-0.0051,0.04,0.0,0.0051
states,11,83333911,-0.2497,0.1183,0.021,-1.4028,0.0974,-312.4744,-0.2667,0.0434,1009.8643,-2.6084,0.2204,3546.0703,-0.25,-0.0001,0.027,1.35,-0.0002,1.0265,0.8494,0.001,0.0,0.04,0.0,-0.0051,0.04,0.0,0.0051
states,11,100000578,-0.2497,0.1183,0.0362,-1.4028,0.0974,-312.4147,-0.2667,0.0434,1009.8663,-2.6084,0.2205,3546.0051,-0.25,-0.0001,0.027,1.35,-0.0001,1.0265,0.8494,0.001,0.0,0.04,0.0,-0.0051,0.04,0.0,0.0051
states,11,116667246,-0.2497,0.1183,0.0521,-1.4028,0.0974,-312.3542,-0.2667,0.0434,1009.8709,-2.6084,0.2205,3545.937,-0.25,-0.0001,0.027,1.35,-0.0001,1.0265,0.8494,0.0009,0.0,0.04,0.0,-0.0051,0.04,0.0,0.0051
states,11,133333913,-0.2497,0.1183,0.065,-1.4028,0.0974,-312.3036,-0.2667,0.0434,1009.8742,-2.6084,0.2205,3545.8708,-0.25,-0.0001,0.027,1.35,-0.0001,1.0265,0.8494,0.0009,0.0,0.04,0.0,-0.0051,0.04,0.0,0.0051
states,11,150000581,-0.2497,0.1183,0.0784,-1.4028,0.0974,-312.2493,-0.2667,0.0434,1009.8762,-2.6084,0.2205,3545.8198,-0.25,-0.0001,0.027,1.35,-0.0001,1.0265,0.8495,0.0009,0.0,0.04,0.0,-0.0051,0.04,0.0,0.0051
states,11,166667249,-0.2497,0.1183,0.0875,-1.4028,0.0974,-312.2098,-0.2667,0.0434,1009.8815,-2.6084,0.2205,3545.7734,-0.25,-0.0001,0.027,1.35,-0.0001,1.0265,0.8495,0.0009,0.0,0.04,0.0,-0.0051,0.04,0.0,0.0051
states,11,183333916,-0.2497,0.1183,0.0943,-1.4028,0.0974,-312.1785,-0.2667,0.0434,1009.8843,-2.6084,0.2204,3545.7356,-0.25,-0.0001,0.027,1.35,-0.0001,1.0265,0.8495,0.0008,0.0,0.04,0.0,-0.0051,0.04,0.0,0.0051
states,11,200000584,-0.2497,0.1183,0.0999,-1.4028,0.0974,-312.1574,-0.2667,0.0434,1009.8852,-2.6084,0.2204,3545.718,-0.25,-0.0001,0.027,1.35,-0.0001,1.0265,0.8495,0.0008,0.0,0.04,0.0,-0.0051,0.04,0.0,0.0051
states,11,216667251,-0.2497,0.1184,0.1017,-1.4028,0.0974,-312.1437,-0.2667,0.0434,1009.8849,-2.6084,0.2204,3545.7136,-0.25,-0.0001,0.027,1.35,-0.0001,1.0265,0.8495,0.0008,0.0,0.04,0.0,-0.0051,0.04,0.0,0.0051
states,11,233333919,-0.2497,0.1184,0.1036,-1.4028,0.0974,-312.1337,-0.2667,0.0434,1009.886,-2.6084,0.2204,3545.7097,-0.25,-0.0001,0.027,1.3499,-0.0001,1.0265,0.8495,0.0008,0.0,0.04,0.0,-0.0051,0.04,0.0,0.0051
states,11,250000586,-0.2497,0.1184,0.0993,-1.4028,0.0974,-312.149,-0.2667,0.0434,1009.8881,-2.6084,0.2204,3545.7019,-0.25,-0.0001,0.027,1.3499,-0.0001,1.0265,0.8495,0.0007,0.0,0.04,0.0,-0.0051,0.04,0.0,0.0051
states,11,266667254,-0.2497,0.1184,0.0948,-1.4028,0.0974,-312.1643,-0.2667,0.0434,1009.8894,-2.6084,0.2204,3545.7048,-0.25,-0.0001,0.027,1.3499,0.0,1.0265,0.8495,0.0007,0.0,0.04,0.0,-0.0051,0.04,0.0,0.0051
states,11,283333921,-0.2497,0.1184,0.0911,-1.4028,0.0974,-312.1782,-0.2667,0.0434,1009.89,-2.6084,0.2204,3545.7356,-0.25,-0.0001,0.027,1.3499,0.0,1.0265,0.8496,0.0007,0.0,0.04,0.0,-0.0051,0.04,0.0,0.0051
states,11,300000589,-0.2497,0.1184,0.0851,-1.4028,0.0974,-312.2006,-0.2667,0.0434,1009.8903,-2.6084,0.2204,3545.7578,-0.25,-0.0001,0.027,1.3499,0.0,1.0265,0.8496,0.0007,0.0,0.04,0.0,-0.0051,0.04,0.0,0.0051
states,11,316667256,-0.2497,0.1184,0.0796,-1.4028,0.0974,-312.2204,-0.2667,0.0434,1009.8893,-2.6084,0.2204,3545.7874,-0.25,-0.0001,0.027,1.3499,0.0,1.0265,0.8496,0.0007,0.0,0.04,0.0,-0.0051,0.04,0.0,0.0051
states,11,333333924,-0.2497,0.1184,0.0758,-1.4028,0.0974,-312.2361,-0.2667,0.0434,1009.8882,-2.6084,0.2204,3545.812,-0.25,-0.0001,0.027,1.3499,0.0,1.0265,0.8496,0.0007,0.0,0.04,0.0,-0.0051,0.04,0.0,0.0051
states,11,350000591,-0.2497,0.1184,0.0724,-1.4028,0.0974,-312.2506,-0.2667,0.0434,1009.8857,-2.6084,0.2204,3545.8289,-0.25,-0.0001,0.027,1.3499,0.0,1.0265,0.8496,0.0006,0.0,0.04,0.0,-0.0051,0.04,0.0,0.0051
states,11,366667259,-0.2497,0.1184,0.0679,-1.4028,0.0974,-312.2691,-0.2667,0.0434,1009.8873,-2.6084,0.2204,3545.8562,-0.25,-0.0001,0.027,1.3499,0.0,1.0265,0.8496,0.0006,0.0,0.04,0.0,-0.0051,0.04,0.0,0.0051
states,11,383333927,-0.2497,0.1184,0.0652,-1.4028,0.0974,-312.2803,-0.2667,0.0434,1009.8856,-2.6084,0.2204,3545.8645,-0.25,-0.0001,0.027,1.3499,0.0,1.0265,0.8496,0.0006,0.0,0.04,0.0,-0.0051,0.04,0.0,0.0051
states,11,400000594,-0.2497,0.1184,0.0636,-1.4028,0.0974,-312.2876,-0.2667,0.0434,1009.8829,-2.6084,0.2204,3545.8711,-0.25,-0.0001,0.027,1.3499,0.0,1.0265,0.8496,0.0006,0.0,0.04,0.0,-0.0051,0.04,0.0,0.0051
states,11,416667262,-0.2497,0.1184,0.0613,-1.4028,0.0974,-312.2971,-0.2667,0.0434,1009.881,-2.6084,0.2204,3545.8762,-0.25,-0.0001,0.027,1.3499,0.0,1.0265,0.8496,0.0006,0.0,0.04,0.0,-0.0051,0.04,0.0,0.0051
states,11,433333929,-0.2497,0.1184,0.0605,-1.4028,0.0974,-312.3004,-0.2667,0.0434,1009.8819,-2.6084,0.2204,3545.8828,-0.25,-0.0001,0.027,1.3499,0.0,1.0265,0.8497,0.0005,0.0,0.04,0.0,-0.0051,0.04,0.0,0.0051
states,11,450000597,-0.2497,0.1184,0.0602,-1.4028,0.0974,-312.3049,-0.2667,0.0434,1009.8808,-2.6084,0.2204,3545.8884,-0.25,-0.0001,0.027,1.3499,0.0,1.0265,0.8497,0.0005,0.0,0.04,0.0,-0.0051,0.04,0.0,0.0051
states,11,466667264,-0.2497,0.1184,0.0605,-1.4028,0.0974,-312.3027,-0.2667,0.0434,1009.8779,-2.6084,0.2204,3545.8794,-0.25,-0.0001,0.027,1.3499,0.0,1.0265,0.8497,0.0005,0.0,0.04,0.0,-0.0051,0.04,0.0,0.0051
states,11,483333932,-0.2497,0.1184,0.0621,-1.4028,0.0974,-312.2973,-0.2667,0.0434,1009.8765,-2.6084,0.2204,3545.8733,-0.25,-0.0001,0.027,1.3499,0.0,1.0265,0.8497,0.0005,0.0,0.04,0.0,-0.0051,0.04,0.0,0.0051
states,11,500000599,-0.2497,0.1184,0.0647,-1.4028,0.0974,-312.287,-0.2667,0.0434,1009.877,-2.6084,0.2204,3545.8689,-0.25,-0.0001,0.027,1.3499,0.0,1.0265,0.8497,0.0005,0.0,0.04,0.0,-0.0051,0.04,0.0,0.0051
command,11,500000599,-0.25,,,-1.41,,,-0.25,,,-2.55,,,-0.25,,,1.35,,,0.8500000000000001,,,0.15000000000000002,,,0.15000000000000002,,
states,11,516667267,-0.2497,0.1184,0.0667,-1.4028,0.0974,-312.2776,-0.2667,0.0434,1009.8766,-2.6084,0.2204,3545.8621,-0.25,-0.0001,0.027,1.3499,0.0,1.0265,0.8497,0.0005,0.0,0.04,0.0,-0.0051,0.04,0.0,0.0051
states,11,533333934,-0.2497,0.1184,0.0685,-1.4028,0.0974,-312.2713,-0.2667,0.0434,1009.8777,-2.6084,0.2204,3545.8574,-0.25,-0.0001,0.027,1.3499,0.0,1.0265,0.8497,0.0005,0.0,0.04,0.0,-0.0051,0.04,0.0,0.0051
states,11,550000602,-0.2497,0.1184,0.0699,-1.4028,0.0974,-312.2663,-0.2667,0.0434,1009.8777,-2.6084,0.2204,3545.8528,-0.25,-0.0001,0.027,1.3499,0.0,1.0265,0.8497,0.0005,0.0,0.04,0.0,-0.0051,0.04,0.0,0.0051
states,11,566667269,-0.2497,0.1184,0.0709,-1.4028,0.0974,-312.2628,-0.2667,0.0434,1009.879,-2.6084,0.2204,3545.8484,-0.25,-0.0001,0.027,1.3499,0.0,1.0265,0.8497,0.0004,0.0,0.04,0.0,-0.0051,0.04,0.0,0.0051
states,11,583333937,-0.2497,0.1184,0.0707,-1.4028,0.0974,-312.2636,-0.2667,0.0434,1009.8782,-2.6084,0.2204,3545.8457,-0.25,-0.0001,0.027,1.3499,0.0,1.0265,0.8497,0.0004,0.0,0.04,0.0,-0.0051,0.04,0.0,0.0051
states,11,600000604,-0.2497,0.1184,0.0712,-1.4028,0.0974,-312.2608,-0.2667,0.0434,1009.8802,-2.6084,0.2204,3545.8315,-0.25,-0.0001,0.027,1.3499,0.0,1.0265,0.8497,0.0004,0.0,0.04,0.0,-0.0051,0.04,0.0,0.0051
states,11,616667272,-0.2497,0.1184,0.0728,-1.4028,0.0974,-312.2549,-0.2667,0.0434,1009.8803,-2.6084,0.2204,3545.8347,-0.25,-0.0001,0.027,1.3499,0.0,1.0265,0.8497,0.0004,0.0,0.04,0.0,-0.0051,0.04,0.0,0.0051
states,11,633333940,-0.2497,0.1184,0.0723,-1.4028,0.0974,-312.2567,-0.2667,0.0434,1009.8807,-2.6084,0.2204,3545.8345,-0.25,-0.0001,0.027,1.3499,0.0,1.0265,0.8497,0.0004,0.0,0.04,0.0,-0.0051,0.04,0.0,0.0051
states,11,650000607,-0.2497,0.1184,0.0721,-1.4028,0.0974,-312.2579,-0.2667,0.0434,1009.8812,-2.6084,0.2204,3545.8367,-0.25,-0.0001,0.027,1.3499,0.0,1.0265,0.8498,0.0004,0.0,0.04,0.0,-0.0051,0.04,0.0,0.0051
states,11,666667275,-0.2497,0.1184,0.072,-1.4028,0.0974,-312.2587,-0.2667,0.0434,1009.8814,-2.6084,0.2204,3545.8369,-0.25,-0.0001,0.027,1.3499,0.0,1.0265,0.8498,0.0004,0.0,0.04,0.0,-0.0051,0.04,0.0,0.0051
states,11,683333942,-0.2497,0.1184,0.0716,-1.4028,0.0974,-312.2601,-0.2667,0.0434,1009.8807,-2.6084,0.2204,3545.8372,-0.25,-0.0001,0.027,1.3499,0.0,1.0265,0.8498,0.0004,0.0,0.04,0.0,-0.0051,0.04,0.0,0.0051
states,11,700000610,-0.2497,0.1184,0.0712,-1.4028,0.0974,-312.2609,-0.2667,0.0434,1009.8811,-2.6084,0.2204,3545.8379,-0.25,-0.0001,0.027,1.3499,0.0,1.0265,0.8498,0.0003,0.0,0.04,0.0,-0.0051,0.04,0.0,0.0051
states,11,716667277,-0.2497,0.1184,0.0711,-1.4028,0.0974,-312.2617,-0.2667,0.0434,1009.8811,-2.6084,0.2204,3545.8389,-0.25,-0.0001,0.027,1.3499,0.0,1.0265,0.8498,0.0003,0.0,0.04,0.0,-0.0051,0.04,0.0,0.0051
states,11,733333945,-0.2497,0.1184,0.0709,-1.4028,0.0974,-312.262,-0.2667,0.0434,1009.8809,-2.6084,0.2204,3545.8394,-0.25,-0.0001,0.027,1.3499,0.0,1.0265,0.8498,0.0003,0.0,0.04,0.0,-0.0051,0.04,0.0,0.0051
states,11,750000612,-0.2497,0.1184,0.0709,-1.4028,0.0974,-312.2625,-0.2667,0.0434,1009.8815,-2.6084,0.2204,3545.8401,-0.25,-0.0001,0.027,1.3499,0.0,1.0265,0.8498,0.0003,0.0,0.04,0.0,-0.0051,0.04,0.0,0.0051
states,11,766667280,-0.2497,0.1184,0.0707,-1.4028,0.0974,-312.2629,-0.2667,0.0434,1009.8807,-2.6084,0.2204,3545.8403,-0.25,-0.0001,0.027,1.3499,0.0,1.0265,0.8498,0.0003,0.0,0.04,0.0,-0.0051,0.04,0.0,0.0051
states,11,783333947,-0.2497,0.1184,0.0708,-1.4028,0.0974,-312.2628,-0.2667,0.0434,1009.8806,-2.6084,0.2204,3545.8411,-0.25,-0.0001,0.027,1.3499,0.0,1.0265,0.8498,0.0003,0.0,0.04,0.0,-0.0051,0.04,0.0,0.0051
states,11,800000615,-0.2497,0.1184,0.0707,-1.4028,0.0974,-312.2632,-0.2667,0.0434,1009.88,-2.6084,0.2204,3545.8413,-0.25,-0.0001,0.027,1.3499,0.0,1.0265,0.8498,0.0003,0.0,0.04,0.0,-0.0051,0.04,0.0,0.0051
states,11,816667282,-0.2497,0.1184,0.0707,-1.4028,0.0974,-312.2628,-0.2667,0.0434,1009.8807,-2.6084,0.2204,3545.8413,-0.25,-0.0001,0.027,1.3499,0.0,1.0265,0.8498,0.0003,0.0,0.04,0.0,-0.0051,0.04,0.0,0.0051
states,11,833333950,-0.2497,0.1184,0.0705,-1.4028,0.0974,-312.2637,-0.2667,0.0434,1009.8807,-2.6084,0.2204,3545.8413,-0.25,-0.0001,0.027,1.3499,0.0,1.0265,0.8498,0.0003,0.0,0.04,0.0,-0.0051,0.04,0.0,0.0051
states,11,850000618,-0.2497,0.1184,0.0706,-1.4028,0.0974,-312.2635,-0.2667,0.0434,1009.8801,-2.6084,0.2204,3545.8413,-0.25,-0.0001,0.027,1.3499,0.0,1.0265,0.8498,0.0003,0.0,0.04,0.0,-0.0051,0.04,0.0,0.0051
states,11,866667285,-0.2497,0.1184,0.0706,-1.4028,0.0974,-312.2633,-0.2667,0.0434,1009.8804,-2.6084,0.2204,3545.8418,-0.25,-0.0001,0.027,1.3499,0.0,1.0265,0.8498,0.0003,0.0,0.04,0.0,-0.0051,0.04,0.0,0.0051
states,11,883333953,-0.2497,0.1184,0.0706,-1.4028,0.0974,-312.2635,-0.2667,0.0434,1009.8801,-2.6084,0.2204,3545.8416,-0.25,-0.0001,0.027,1.3499,0.0,1.0265,0.8498,0.0003,0.0,0.04,0.0,-0.0051,0.04,0.0,0.0051
states,11,900000620,-0.2497,0.1184,0.0705,-1.4028,0.0974,-312.2633,-0.2667,0.0434,1009.8799,-2.6084,0.2204,3545.8416,-0.25,-0.0001,0.027,1.3499,0.0,1.0265,0.8498,0.0002,0.0,0.04,0.0,-0.0051,0.04,0.0,0.0051
states,11,916667288,-0.2497,0.1184,0.0702,-1.4028,0.0974,-312.2649,-0.2667,0.0434,1009.8804,-2.6084,0.2204,3545.8411,-0.25,-0.0001,0.027,1.3499,0.0,1.0265,0.8498,0.0002,0.0,0.04,0.0,-0.0051,0.04,0.0,0.0051
states,11,933333955,-0.2497,0.1184,0.0704,-1.4028,0.0974,-312.2642,-0.2667,0.0434,1009.8803,-2.6084,0.2204,3545.8416,-0.25,-0.0001,0.027,1.3499,0.0,1.0265,0.8498,0.0002,0.0,0.04,0.0,-0.0051,0.04,0.0,0.0051
states,11,950000623,-0.2497,0.1184,0.0705,-1.4028,0.0974,-312.2638,-0.2667,0.0434,1009.8803,-2.6084,0.2204,3545.8413,-0.25,-0.0001,0.027,1.3499,0.0,1.0265,0.8498,0.0002,0.0,0.04,0.0,-0.0051,0.04,0.0,0.0051
states,11,966667290,-0.2497,0.1184,0.0706,-1.4028,0.0974,-312.2635,-0.2667,0.0434,1009.8803,-2.6084,0.2204,3545.8416,-0.25,-0.0001,0.027,1.3499,0.0,1.0265,0.8498,0.0002,0.0,0.04,0.0,-0.0051,0.04,0.0,0.0051
states,11,983333958,-0.2497,0.1184,0.0705,-1.4028,0.0974,-312.2638,-0.2667,0.0434,1009.8802,-2.6084,0.2204,3545.8416,-0.25,-0.0001,0.027,1.3499,0.0,1.0265,0.8499,0.0002,0.0,0.04,0.0,-0.0051,0.04,0.0,0.0051
states,12,625,-0.2497,0.1184,0.0707,-1.4028,0.0974,-312.2632,-0.2667,0.0434,1009.8802,-2.6084,0.2204,3545.8408,-0.25,-0.0001,0.027,1.3499,0.0,1.0265,0.8499,0.0002,0.0,0.04,0.0,-0.0051,0.04,0.0,0.0051
states,12,16667293,-0.2497,0.1184,0.0706,-1.4028,0.0974,-312.2637,-0.2667,0.0434,1009.8803,-2.6084,0.2204,3545.8416,-0.25,-0.0001,0.027,1.3499,0.0,1.0265,0.8499,0.0002,0.0,0.04,0.0,-0.0051,0.04,0.0,0.0051
states,12,33333960,-0.2497,0.1184,0.0705,-1.4028,0.0974,-312.2641,-0.2667,0.0434,1009.88,-2.6084,0.2204,3545.8408,-0.25,-0.0001,0.027,1.3499,0.0,1.0265,0.8499,0.0002,0.0,0.04,0.0,-0.0051,0.04,0.0,0.0051
command,12,33333960,0.25,,,-0.9099999999999999,,,0.25,,,-2.05,,,0.25,,,1.85,,,1.35,,,0.65,,,0.65,,
states,12,50000628,-0.2497,0.1184,0.0705,-1.4028,0.0974,-312.2636,-0.2667,0.0434,1009.8803,-2.6084,0.2204,3545.8408,-0.25,-0.0001,0.027,1.3499,0.0,1.0265,0.8499,0.0002,0.0,0.04,0.0,-0.0051,0.04,0.0,0.0051
states,12,66667295,-0.1392,7.8146,2107.1663,-1.4102,-0.6456,5732.6646,-0.2682,-0.1463,5730.1685,-2.5919,1.0867,4827.5732,-0.1857,3.6381,7.1785,1.3898,2.3015,7.5902,0.8635,0.8122,-0.1483,0.04,0.0,-1.375,0.04,0.0,1.4567
states,12,83333963,-0.0571,6.1676,1698.6851,-1.3887,1.0978,5613.1816,-0.259,0.5088,5683.7964,-2.5611,1.9627,5004.6494,-0.1292,3.1667,-0.731,1.4266,2.1177,2.0194,0.8768,0.7896,0.0398,0.04,0.0762,0.1019,0.04,0.0357,-0.1164
states,12,100000631,0.0019,4.9811,1658.5966,-1.3395,2.752,5506.2207,-0.2437,0.8625,5638.123,-2.5153,2.8961,5136.9731,-0.0801,2.7566,-0.3505,1.4604,1.9486,2.419,0.8898,0.7677,0.0108,0.04,0.0422,-0.0095,0.04,0.0225,-0.0911
states,12,116667298,0.043,4.156,1670.2892,-1.2665,4.2336,5419.6206,-0.2252,1.0047,5586.8872,-2.4534,3.9284,5228.4966,-0.0374,2.3998,-0.0121,1.4915,1.7931,2.7634,0.9024,0.7465,0.0007,0.04,0.0222,-0.0422,0.04,0.0137,-0.0154
states,12,133333966,0.077,3.3617,1323.609,-1.1788,5.274,3552.7622,-0.2058,1.0376,5553.48,-2.3769,4.8967,5259.0405,-0.0002,2.0848,0.1551,1.5201,1.6496,2.6232,0.9146,0.7256,0.0065,0.04,0.0121,-0.0574,0.04,0.0085,0.0253
states,12,150000633,0.1178,3.7052,500.7296,-1.0918,4.8576,-1512.7468,-0.188,0.9187,5506.2085,-2.2947,4.9114,2290.1646,0.0321,1.8171,1.1201,1.5464,1.5184,0.4216,0.9265,0.7058,0.0082,0.04,0.007,-0.2148,0.04,0.0045,0.1985
states,12,166667301,0.1519,3.4179,254.4413,-1.0162,3.8812,-4350.8237,-0.1689,0.9457,5387.9512,-2.2215,4.0078,-815.9586,0.0602,1.5838,0.8643,1.5707,1.3976,-1.769,0.9381,0.6865,0.0342,0.04,0.0095,-0.1204,0.04,0.0058,0.1107
states,12,183333968,0.1714,1.6819,417.7549,-0.9568,3.0581,-5104.1147,-0.1444,1.4286,5327.7856,-2.1674,2.8258,-1153.271,0.0848,1.4175,0.0046,1.593,1.2882,-2.2438,0.9494,0.6674,0.0428,0.04,0.0091,0.0751,0.04,0.0049,-0.0909
states,12,200000636,0.1765,1.4928,755.6682,-0.9134,2.1292,-5190.061,-0.112,1.7108,5289.5435,-2.1334,1.7366,-137.3226,0.1061,1.2098,0.7677,1.6135,1.1833,-1.8766,0.9604,0.6491,0.0027,0.04,0.0037,-0.1005,0.04,0.0033,0.0902
states,12,216667303,0.1702,1.6213,1059.7689,-0.8827,1.4129,-5256.3281,-0.0714,1.9451,5249.0664,-2.1156,0.8989,1299.825,0.1247,1.0562,0.8797,1.6324,1.0887,-1.2704,0.9711,0.631,-0.0143,0.04,0.0035,-0.1363,0.04,0.0034,0.1316
states,12,233333971,0.1543,1.9345,1360.0745,-0.8616,0.9449,-5309.2612,-0.0226,2.1371,5203.604,-2.1091,0.3557,2656.196,0.1408,0.9189,0.9158,1.6498,1.0014,-0.6528,0.9814,0.6137,-0.0252,0.04,0.004,-0.1588,0.04,0.0044,0.1537
states,12,250000638,0.135,-0.3501,1456.7002,-0.8471,0.7585,-5315.8398,0.0323,3.1736,4701.5127,-2.1091,0.0737,3659.8513,0.155,0.7846,-0.4167,1.6658,0.92,0.0293,0.9915,0.5981,0.0214,0.04,0.0051,0.1541,0.04,0.0067,-0.1607
states,12,266667306,0.1389,1.0672,926.4421,-0.8374,0.5538,-5211.4312,0.0836,2.8496,2247.1875,-2.1119,-0.0268,4182.3076,0.1672,0.685,1.0018,1.6805,0.8466,0.3148,1.0014,0.5816,-0.0377,0.04,0.0024,-0.2316,0.04,0.0022,0.2237
states,12,283333973,0.1593,2.0636,372.6562,-0.8288,0.5487,-5223.3906,0.1303,2.4988,172.7677,-2.1156,-0.0338,4502.1953,0.1779,0.5984,0.5112,1.694,0.779,0.4816,1.0109,0.5655,-0.0217,0.04,0.0046,-0.1242,0.04,0.0055,0.1221
states,12,300000641,0.19,2.6994,-124.7409,-0.8197,0.6242,-5286.3745,0.1724,2.1438,-1605.9722,-2.1192,-0.008,4711.8428,0.1872,0.5225,0.1174,1.7065,0.7169,0.5935,1.0202,0.5499,-0.0075,0.04,0.0066,-0.0371,0.04,0.0089,0.0294
states,12,316667309,0.226,3.0413,-555.5175,-0.8099,0.6978,-5357.9312,0.2096,1.7881,-3089.406,-2.1226,0.0166,4888.3662,0.1954,0.4561,-0.1934,1.7179,0.6597,0.7053,1.0292,0.5347,0.0045,0.04,0.0075,0.0345,0.04,0.0112,-0.0476
states,12,333333976,0.2635,3.152,-912.5795,-0.8001,0.7184,-5413.5381,0.242,1.4344,-4272.2104,-2.1258,0.0257,5077.5752,0.2025,0.3978,-0.4307,1.7285,0.607,0.8431,1.038,0.5199,0.0132,0.04,0.0076,0.0911,0.04,0.0117,-0.1079
states,12,350000644,0.2979,0.1972,-1192.2218,-0.7917,0.1465,-5427.6221,0.2699,2.2427,-5058.0186,-2.1291,0.0111,5242.5571,0.2088,0.5801,-1.7209,1.7382,0.5804,1.3323,1.0465,0.4678,0.0682,0.04,0.0067,0.425,0.04,-0.0064,-0.4632
states,12,366667311,0.3191,-2.4378,-1125.6738,-0.7884,-0.6174,-5350.4155,0.2973,2.9736,-5120.7085,-2.1325,-0.0586,5214.8726,0.2143,0.2048,-1.7757,1.7471,0.5058,1.4309,1.0548,0.5078,0.0514,0.04,0.0021,0.4539,0.04,0.0138,-0.448
states,12,383333979,0.3376,-3.5862,-1232.7329,-0.7903,-1.1799,-4307.1689,0.3194,3.0783,-5135.292,-2.1359,-0.0383,5212.1421,0.2191,0.2547,-1.0056,1.7553,0.4733,1.6695,1.0629,0.4791,0.0202,0.04,0.0021,0.2296,0.04,0.0061,-0.2415
states,12,400000646,0.3561,-3.4984,-1398.1625,-0.7964,-1.4178,-3150.845,0.3345,2.6277,-5137.9863,-2.1382,0.0988,5217.5762,0.2232,0.2206,-0.5248,1.7629,0.4355,1.7894,1.0707,0.466,0.0003,0.04,0.0023,0.0924,0.04,0.0093,-0.0962
states,12,416667314,0.3737,-3.4483,-1554.9962,-0.8049,-1.5137,-2208.3655,0.3433,2.1793,-5143.9873,-2.1379,0.3343,5223.4702,0.2267,0.1929,-0.5074,1.7698,0.4005,1.9678,1.0784,0.453,-0.0037,0.04,0.0013,0.079,0.04,0.0109,-0.0848
states,12,433333981,0.3894,-3.3502,-1667.167,-0.8144,-1.549,-1484.6698,0.3462,1.6952,-5158.9785,-2.1344,0.5148,4598.2681,0.2298,0.1876,-0.4788,1.7762,0.3704,1.7889,1.0858,0.4367,-0.007,0.04,0.0003,0.0751,0.04,0.0126,-0.0805
states,12,450000649,0.4029,0.527,-1686.6371,-0.8244,-0.5599,-853.9976,0.3436,-0.2173,-5157.0898,-2.1285,0.6152,3890.0598,0.2323,0.1519,1.1234,1.7821,0.3394,0.9591,1.093,0.4275,-0.0178,0.04,-0.0007,-0.3418,0.04,0.0077,0.3333
states,12,466667316,0.4085,0.0813,-1637.5491,-0.835,-0.5866,-450.5339,0.3397,-0.2881,-4777.5215,-2.1216,0.6498,3296.1423,0.2347,0.1318,-0.6105,1.7875,0.3123,1.3446,1.1001,0.4159,-0.0085,0.04,0.0004,0.1262,0.04,0.0004,-0.1321
states,12,483333984,0.4072,-0.296,-1479.4208,-0.8459,-0.5997,-79.8758,0.3345,-0.3642,-4289.3018,-2.1145,0.6402,2842.4612,0.2367,0.1142,-0.5325,1.7925,0.2874,1.1882,1.1069,0.4046,-0.0068,0.04,-0.0002,0.1101,0.04,0.001,-0.1106
states,12,500000651,0.4003,-0.6037,-1290.74,-0.8569,-0.5886,216.2741,0.328,-0.4352,-3715.5081,-2.1079,0.6045,2506.2212,0.2385,0.0988,-0.4432,1.7971,0.2644,1.0623,1.1136,0.3936,-0.0046,0.04,-0.0006,0.091,0.04,0.0018,-0.0913
states,12,516667319,0.3888,-0.8404,-1083.0588,-0.8675,-0.5497,421.4999,0.3204,-0.4936,-3090.6162,-2.1021,0.5537,2270.8762,0.24,0.0854,-0.3459,1.8013,0.2432,0.9589,1.12,0.3829,-0.0022,0.04,-0.0007,0.0686,0.04,0.0026,-0.0692
states,12,533333986,0.3742,-1.0066,-868.2946,-0.8773,-0.4848,530.9947,0.3118,-0.5337,-2450.4707,-2.0972,0.4948,2124.8467,0.2413,0.0738,-0.246,1.8052,0.2238,0.8753,1.1263,0.3726,-0.0001,0.04,-0.0006,0.0445,0.04,0.0032,-0.0458
states,12,550000654,0.3576,-1.1063,-657.2758,-0.8857,-0.3994,549.0654,0.3028,-0.552,-1829.7861,-2.0934,0.4321,2059.2488,0.2425,0.0637,-0.1493,1.8088,0.2058,0.8118,1.1324,0.3625,0.0014,0.04,-0.0004,0.0204,0.04,0.0037,-0.0224
command,12,550000654,0.25,,,-0.9099999999999999,,,0.25,,,-2.05,,,0.25,,,1.85,,,1.35,,,0.65,,,0.65,,
states,12,566667322,0.3399,-1.1467,-458.8889,-0.8926,-0.3008,486.1531,0.2936,-0.5469,-1259.7595,-2.0907,0.3687,2065.6392,0.2435,0.055,-0.0607,1.8121,0.1894,0.77,1.1384,0.3527,0.0022,0.04,-0.0001,-0.0024,0.04,0.0038,-0.0003
states,12,583333989,0.3222,-1.1378,-279.4026,-0.8978,-0.1968,355.849,0.2847,-0.5194,-764.8354,-2.0891,0.3073,2134.9202,0.2443,0.0475,0.0161,1.8151,0.1742,0.7507,1.1442,0.3431,0.0022,0.04,0.0002,-0.0228,0.04,0.0037,0.0196
states,12,600000657,0.3051,-1.0902,-122.4874,-0.9014,-0.0945,172.5423,0.2764,-0.4725,-360.8581,-2.0885,0.2502,2256.6235,0.245,0.0411,0.0787,1.8179,0.1602,0.7529,1.1498,0.3338,0.0016,0.04,0.0004,-0.04,0.04,0.0034,0.0366
states,12,616667324,0.2891,-1.0144,10.2663,-0.9033,0.0007,-49.8752,0.2691,-0.4109,-54.9272,-2.0888,0.1993,2419.2363,0.2457,0.0356,0.1266,1.8204,0.1474,0.7743,1.1553,0.3248,0.0006,0.04,0.0006,-0.0537,0.04,0.0029,0.0503
states,12,633333992,0.2747,-0.9198,118.8236,-0.9038,0.0849,-298.6606,0.2628,-0.3396,153.8264,-2.0899,0.1561,2611.0303,0.2462,0.0309,0.1601,1.8228,0.1356,0.8111,1.1607,0.3159,-0.0005,0.04,0.0007,-0.0638,0.04,0.0024,0.0607
states,12,650000659,0.2619,-0.8141,204.173,-0.903,0.1557,-562.315,0.2578,-0.2642,272.5316,-2.0917,0.1216,2820.5088,0.2467,0.0269,0.1806,1.825,0.1247,0.8591,1.1658,0.3073,-0.0017,0.04,0.0007,-0.0707,0.04,0.0019,0.0678
states,12,666667327,0.2509,-0.7037,267.9615,-0.9013,0.2123,-830.4725,0.2541,-0.1894,312.6536,-2.094,0.0959,3037.0784,0.2471,0.0234,0.19,1.8269,0.1147,0.9141,1.1709,0.2989,-0.0026,0.04,0.0007,-0.0745,0.04,0.0014,0.0721
states,12,683333994,0.2418,-0.5933,312.211,-0.8987,0.2546,-1093.7704,0.2515,-0.1191,288.0322,-2.0967,0.079,3251.6587,0.2475,0.0205,0.1903,1.8288,0.1056,0.9723,1.1758,0.2907,-0.0033,0.04,0.0006,-0.0758,0.04,0.001,0.0739
states,12,700000662,0.2345,-0.4867,339.1483,-0.8956,0.2831,-1343.8761,0.25,-0.0564,213.2417,-2.0996,0.0704,3456.5645,0.2478,0.018,0.1835,1.8305,0.0971,1.0306,1.1806,0.2827,-0.0037,0.04,0.0005,-0.0752,0.04,0.0007,0.0737
states,12,716667329,0.2288,-0.3865,351.1432,-0.8921,0.2989,-1573.6843,0.2495,-0.0029,102.4747,-2.1025,0.0693,3645.6765,0.248,0.0158,0.1715,1.832,0.0894,1.0863,1.1852,0.275,-0.0039,0.04,0.0004,-0.073,0.04,0.0004,0.0718
states,12,733333997,0.2247,-0.2948,350.5547,-0.8884,0.3033,-1777.3547,0.2498,0.0404,-31.4195,-2.1054,0.0747,3814.3359,0.2483,0.014,0.156,1.8334,0.0822,1.1378,1.1898,0.2674,-0.0038,0.04,0.0003,-0.0697,0.04,0.0003,0.0689
states,12,750000664,0.2221,-0.2129,339.6838,-0.8847,0.2979,-1950.5145,0.2508,0.0735,-177.3869,-2.1082,0.0856,3959.084,0.2485,0.0123,0.1385,1.8347,0.0757,1.1835,1.1942,0.2601,-0.0036,0.04,0.0002,-0.0658,0.04,0.0001,0.0652
states,12,766667332,0.2207,-0.1413,320.724,-0.8812,0.2844,-2090.3604,0.2522,0.0968,-326.3564,-2.1108,0.1009,4077.7512,0.2487,0.0109,0.1201,1.836,0.0696,1.2227,1.1984,0.2529,-0.0032,0.04,0.0002,-0.0616,0.04,0.0001,0.0612
states,12,783334000,0.2204,-0.0804,295.6746,-0.878,0.2643,-2195.572,0.2539,0.1115,-471.3088,-2.113,0.1194,4169.3242,0.2489,0.0097,0.1018,1.8371,0.0641,1.2547,1.2026,0.246,-0.0028,0.04,0.0001,-0.0573,0.04,0.0,0.057
states,12,800000667,0.221,-0.03,266.3155,-0.8751,0.2395,-2266.239,0.2557,0.1186,-607.1517,-2.1149,0.1403,4233.7109,0.249,0.0086,0.0842,1.8381,0.059,1.2795,1.2066,0.2392,-0.0024,0.04,0.0001,-0.0531,0.04,0.0,0.053
states,12,816667335,0.2223,0.0102,234.221,-0.8727,0.2113,-2303.7192,0.2577,0.1195,-730.3865,-2.1165,0.1624,4271.7505,0.2491,0.0076,0.0678,1.839,0.0543,1.297,1.2106,0.2326,-0.002,0.04,0.0,-0.0492,0.04,0.0,0.0491
