lz3450/rt_ws/weekly/0506/normal.csv
topic,timestamp,timestamp_ns,panda_joint1_position,panda_joint1_velocity,panda_joint1_effort,panda_joint2_position,panda_joint2_velocity,panda_joint2_effort,panda_joint3_position,panda_joint3_velocity,panda_joint3_effort,panda_joint4_position,panda_joint4_velocity,panda_joint4_effort,panda_joint5_position,panda_joint5_velocity,panda_joint5_effort,panda_joint6_position,panda_joint6_velocity,panda_joint6_effort,panda_joint7_position,panda_joint7_velocity,panda_joint7_effort,panda_finger_joint1_position,panda_finger_joint1_velocity,panda_finger_joint1_effort,panda_finger_joint2_position,panda_finger_joint2_velocity,panda_finger_joint2_effort
states,52049,336047917,0.012,0.0,0.0,-0.5697,-0.0071,-6.908,0.0,0.0,0.0,-2.8104,0.0076,19.1588,0.0,0.0,0.0,3.0367,0.0016,1.1856,0.7514,0.0567,0.0,0.04,0.0,0.0034,0.04,0.0,-0.0034
states,52049,352714585,0.012,0.0,0.0,-0.5697,-0.0071,-6.908,0.0,0.0,0.0,-2.8104,0.0076,19.1588,0.0,0.0,0.0,3.0367,0.0016,1.1856,0.7514,0.0567,0.0,0.04,0.0,0.0034,0.04,0.0,-0.0034
states,52049,369381252,0.012,0.0,0.0,-0.5697,-0.0071,-6.908,0.0,0.0,0.0,-2.8104,0.0076,19.1588,0.0,0.0,0.0,3.0367,0.0016,1.1856,0.7514,0.0567,0.0,0.04,0.0,0.0034,0.04,0.0,-0.0034
states,52049,386047920,0.012,0.0,0.0,-0.5697,-0.0071,-6.908,0.0,0.0,0.0,-2.8104,0.0076,19.1588,0.0,0.0,0.0,3.0367,0.0016,1.1856,0.7514,0.0567,0.0,0.04,0.0,0.0034,0.04,0.0,-0.0034
states,52049,402714587,0.012,0.0,0.0,-0.5697,-0.0071,-6.908,0.0,0.0,0.0,-2.8104,0.0076,19.1588,0.0,0.0,0.0,3.0367,0.0016,1.1856,0.7514,0.0567,0.0,0.04,0.0,0.0034,0.04,0.0,-0.0034
states,52049,419381255,0.012,0.0,0.0,-0.5697,-0.0071,-6.908,0.0,0.0,0.0,-2.8104,0.0076,19.1588,0.0,0.0,0.0,3.0367,0.0016,1.1856,0.7514,0.0567,0.0,0.04,0.0,0.0034,0.04,0.0,-0.0034
states,52049,436047922,0.012,0.0,0.0,-0.5697,-0.0071,-6.908,0.0,0.0,0.0,-2.8104,0.0076,19.1588,0.0,0.0,0.0,3.0367,0.0016,1.1856,0.7514,0.0567,0.0,0.04,0.0,0.0034,0.04,0.0,-0.0034
states,52049,452714590,0.012,0.0,0.0,-0.5697,-0.0071,-6.908,0.0,0.0,0.0,-2.8104,0.0076,19.1588,0.0,0.0,0.0,3.0367,0.0016,1.1856,0.7514,0.0567,0.0,0.04,0.0,0.0034,0.04,0.0,-0.0034
states,52049,469381257,0.012,0.0,0.0,-0.5697,-0.0071,-6.908,0.0,0.0,0.0,-2.8104,0.0076,19.1588,0.0,0.0,0.0,3.0367,0.0016,1.1856,0.7514,0.0567,0.0,0.04,0.0,0.0034,0.04,0.0,-0.0034
states,52049,486047925,0.012,0.0,0.0,-0.5697,-0.0071,-6.908,0.0,0.0,0.0,-2.8104,0.0076,19.1588,0.0,0.0,0.0,3.0367,0.0016,1.1856,0.7514,0.0567,0.0,0.04,0.0,0.0034,0.04,0.0,-0.0034
states,52049,502714592,0.012,0.0,0.0,-0.5697,-0.0071,-6.908,0.0,0.0,0.0,-2.8104,0.0076,19.1588,0.0,0.0,0.0,3.0367,0.0016,1.1856,0.7514,0.0567,0.0,0.04,0.0,0.0034,0.04,0.0,-0.0034
states,52049,519381260,0.012,0.0,0.0,-0.5697,-0.0071,-6.908,0.0,0.0,0.0,-2.8104,0.0076,19.1588,0.0,0.0,0.0,3.0367,0.0016,1.1856,0.7514,0.0567,0.0,0.04,0.0,0.0034,0.04,0.0,-0.0034
states,52049,536047928,0.012,0.0,0.0,-0.5697,-0.0071,-6.908,0.0,0.0,0.0,-2.8104,0.0076,19.1588,0.0,0.0,0.0,3.0367,0.0016,1.1856,0.7514,0.0567,0.0,0.04,0.0,0.0034,0.04,0.0,-0.0034
states,52049,552714595,0.012,0.0,0.0,-0.5697,-0.0071,-6.908,0.0,0.0,0.0,-2.8104,0.0076,19.1588,0.0,0.0,0.0,3.0367,0.0016,1.1856,0.7514,0.0567,0.0,0.04,0.0,0.0034,0.04,0.0,-0.0034
states,52049,569381263,0.012,0.0,0.0,-0.5697,-0.0071,-6.908,0.0,0.0,0.0,-2.8104,0.0076,19.1588,0.0,0.0,0.0,3.0367,0.0016,1.1856,0.7514,0.0567,0.0,0.04,0.0,0.0034,0.04,0.0,-0.0034
states,52049,586047930,0.012,0.0,0.0,-0.5697,-0.0071,-6.908,0.0,0.0,0.0,-2.8104,0.0076,19.1588,0.0,0.0,0.0,3.0367,0.0016,1.1856,0.7514,0.0567,0.0,0.04,0.0,0.0034,0.04,0.0,-0.0034
states,52049,602714598,0.012,0.0,0.0,-0.5697,-0.0071,-6.908,0.0,0.0,0.0,-2.8104,0.0076,19.1588,0.0,0.0,0.0,3.0367,0.0016,1.1856,0.7514,0.0567,0.0,0.04,0.0,0.0034,0.04,0.0,-0.0034
states,52049,619381265,0.012,0.0,0.0,-0.5697,-0.0071,-6.908,0.0,0.0,0.0,-2.8104,0.0076,19.1588,0.0,0.0,0.0,3.0367,0.0016,1.1856,0.7514,0.0567,0.0,0.04,0.0,0.0034,0.04,0.0,-0.0034
states,52049,636047933,0.012,0.0,0.0,-0.5697,-0.0071,-6.908,0.0,0.0,0.0,-2.8104,0.0076,19.1588,0.0,0.0,0.0,3.0367,0.0016,1.1856,0.7514,0.0567,0.0,0.04,0.0,0.0034,0.04,0.0,-0.0034
states,52049,652714600,0.012,0.0,0.0,-0.5697,-0.0071,-6.908,0.0,0.0,0.0,-2.8104,0.0076,19.1588,0.0,0.0,0.0,3.0367,0.0016,1.1856,0.7514,0.0567,0.0,0.04,0.0,0.0034,0.04,0.0,-0.0034
states,52049,669381268,0.012,0.0,0.0,-0.5697,-0.0071,-6.908,0.0,0.0,0.0,-2.8104,0.0076,19.1588,0.0,0.0,0.0,3.0367,0.0016,1.1856,0.7514,0.0567,0.0,0.04,0.0,0.0034,0.04,0.0,-0.0034
states,52049,686047935,0.012,0.0,0.0,-0.5697,-0.0071,-6.908,0.0,0.0,0.0,-2.8104,0.0076,19.1588,0.0,0.0,0.0,3.0367,0.0016,1.1856,0.7514,0.0567,0.0,0.04,0.0,0.0034,0.04,0.0,-0.0034
states,52049,702714603,0.012,0.0,0.0,-0.5697,-0.0071,-6.908,0.0,0.0,0.0,-2.8104,0.0076,19.1588,0.0,0.0,0.0,3.0367,0.0016,1.1856,0.7514,0.0567,0.0,0.04,0.0,0.0034,0.04,0.0,-0.0034
states,52049,719381270,0.012,0.0,0.0,-0.5697,-0.0071,-6.908,0.0,0.0,0.0,-2.8104,0.0076,19.1588,0.0,0.0,0.0,3.0367,0.0016,1.1856,0.7514,0.0567,0.0,0.04,0.0,0.0034,0.04,0.0,-0.0034
states,52049,736047938,0.012,0.0,0.0,-0.5697,-0.0071,-6.908,0.0,0.0,0.0,-2.8104,0.0076,19.1588,0.0,0.0,0.0,3.0367,0.0016,1.1856,0.7514,0.0567,0.0,0.04,0.0,0.0034,0.04,0.0,-0.0034
states,52049,752714606,0.012,0.0,0.0,-0.5697,-0.0071,-6.908,0.0,0.0,0.0,-2.8104,0.0076,19.1588,0.0,0.0,0.0,3.0367,0.0016,1.1856,0.7514,0.0567,0.0,0.04,0.0,0.0034,0.04,0.0,-0.0034
states,52049,769381273,0.012,0.0,0.0,-0.5697,-0.0071,-6.908,0.0,0.0,0.0,-2.8104,0.0076,19.1588,0.0,0.0,0.0,3.0367,0.0016,1.1856,0.7514,0.0567,0.0,0.04,0.0,0.0034,0.04,0.0,-0.0034
states,52049,786047941,0.012,0.0,0.0,-0.5697,-0.0071,-6.908,0.0,0.0,0.0,-2.8104,0.0076,19.1588,0.0,0.0,0.0,3.0367,0.0016,1.1856,0.7514,0.0567,0.0,0.04,0.0,0.0034,0.04,0.0,-0.0034
states,52049,802714608,0.012,0.0,0.0,-0.5697,-0.0071,-6.908,0.0,0.0,0.0,-2.8104,0.0076,19.1588,0.0,0.0,0.0,3.0367,0.0016,1.1856,0.7514,0.0567,0.0,0.04,0.0,0.0034,0.04,0.0,-0.0034
states,52049,819381276,0.012,0.0,0.0,-0.5697,-0.0071,-6.908,0.0,0.0,0.0,-2.8104,0.0076,19.1588,0.0,0.0,0.0,3.0367,0.0016,1.1856,0.7514,0.0567,0.0,0.04,0.0,0.0034,0.04,0.0,-0.0034
states,52049,836047943,0.012,0.0,0.0,-0.5697,-0.0071,-6.908,0.0,0.0,0.0,-2.8104,0.0076,19.1588,0.0,0.0,0.0,3.0367,0.0016,1.1856,0.7514,0.0567,0.0,0.04,0.0,0.0034,0.04,0.0,-0.0034
states,52049,852714611,0.012,0.0,0.0,-0.5697,-0.0071,-6.908,0.0,0.0,0.0,-2.8104,0.0076,19.1588,0.0,0.0,0.0,3.0367,0.0016,1.1856,0.7514,0.0567,0.0,0.04,0.0,0.0034,0.04,0.0,-0.0034
states,52049,869381278,0.012,0.0,0.0,-0.5697,-0.0071,-6.908,0.0,0.0,0.0,-2.8104,0.0076,19.1588,0.0,0.0,0.0,3.0367,0.0016,1.1856,0.7514,0.0567,0.0,0.04,0.0,0.0034,0.04,0.0,-0.0034
states,52049,886047946,0.012,0.0,0.0,-0.5697,-0.0071,-6.908,0.0,0.0,0.0,-2.8104,0.0076,19.1588,0.0,0.0,0.0,3.0367,0.0016,1.1856,0.7514,0.0567,0.0,0.04,0.0,0.0034,0.04,0.0,-0.0034
states,52049,902714613,0.012,0.0,0.0,-0.5697,-0.0071,-6.908,0.0,0.0,0.0,-2.8104,0.0076,19.1588,0.0,0.0,0.0,3.0367,0.0016,1.1856,0.7514,0.0567,0.0,0.04,0.0,0.0034,0.04,0.0,-0.0034
states,52049,919381281,0.012,0.0,0.0,-0.5697,-0.0071,-6.908,0.0,0.0,0.0,-2.8104,0.0076,19.1588,0.0,0.0,0.0,3.0367,0.0016,1.1856,0.7514,0.0567,0.0,0.04,0.0,0.0034,0.04,0.0,-0.0034
states,52049,936047948,0.012,0.0,0.0,-0.5697,-0.0071,-6.908,0.0,0.0,0.0,-2.8104,0.0076,19.1588,0.0,0.0,0.0,3.0367,0.0016,1.1856,0.7514,0.0567,0.0,0.04,0.0,0.0034,0.04,0.0,-0.0034
states,52049,952714616,0.012,0.0,0.0,-0.5697,-0.0071,-6.908,0.0,0.0,0.0,-2.8104,0.0076,19.1588,0.0,0.0,0.0,3.0367,0.0016,1.1856,0.7514,0.0567,0.0,0.04,0.0,0.0034,0.04,0.0,-0.0034
states,52049,969381283,0.012,0.0,0.0,-0.5697,-0.0071,-6.908,0.0,0.0,0.0,-2.8104,0.0076,19.1588,0.0,0.0,0.0,3.0367,0.0016,1.1856,0.7514,0.0567,0.0,0.04,0.0,0.0034,0.04,0.0,-0.0034
states,52049,986047951,0.012,0.0,0.0,-0.5697,-0.0071,-6.908,0.0,0.0,0.0,-2.8104,0.0076,19.1588,0.0,0.0,0.0,3.0367,0.0016,1.1856,0.7514,0.0567,0.0,0.04,0.0,0.0034,0.04,0.0,-0.0034
states,52050,2714619,0.012,0.0,0.0,-0.5697,-0.0071,-6.908,0.0,0.0,0.0,-2.8104,0.0076,19.1588,0.0,0.0,0.0,3.0367,0.0016,1.1856,0.7514,0.0567,0.0,0.04,0.0,0.0034,0.04,0.0,-0.0034
states,52050,19381286,0.012,0.0,0.0,-0.5697,-0.0071,-6.908,0.0,0.0,0.0,-2.8104,0.0076,19.1588,0.0,0.0,0.0,3.0367,0.0016,1.1856,0.7514,0.0567,0.0,0.04,0.0,0.0034,0.04,0.0,-0.0034
states,52050,36047954,0.012,0.0,0.0,-0.5697,-0.0071,-6.908,0.0,0.0,0.0,-2.8104,0.0076,19.1588,0.0,0.0,0.0,3.0367,0.0016,1.1856,0.7514,0.0567,0.0,0.04,0.0,0.0034,0.04,0.0,-0.0034
states,52050,52714621,0.012,0.0,0.0,-0.5697,-0.0071,-6.908,0.0,0.0,0.0,-2.8104,0.0076,19.1588,0.0,0.0,0.0,3.0367,0.0016,1.1856,0.7514,0.0567,0.0,0.04,0.0,0.0034,0.04,0.0,-0.0034
states,52050,69381289,0.012,0.0,0.0,-0.5697,-0.0071,-6.908,0.0,0.0,0.0,-2.8104,0.0076,19.1588,0.0,0.0,0.0,3.0367,0.0016,1.1856,0.7514,0.0567,0.0,0.04,0.0,0.0034,0.04,0.0,-0.0034
states,52050,86047956,0.012,0.0,0.0,-0.5697,-0.0071,-6.908,0.0,0.0,0.0,-2.8104,0.0076,19.1588,0.0,0.0,0.0,3.0367,0.0016,1.1856,0.7514,0.0567,0.0,0.04,0.0,0.0034,0.04,0.0,-0.0034
states,52050,102714624,0.012,0.0,0.0,-0.5697,-0.0071,-6.908,0.0,0.0,0.0,-2.8104,0.0076,19.1588,0.0,0.0,0.0,3.0367,0.0016,1.1856,0.7514,0.0567,0.0,0.04,0.0,0.0034,0.04,0.0,-0.0034
states,52050,119381291,0.012,0.0,0.0,-0.5697,-0.0071,-6.908,0.0,0.0,0.0,-2.8104,0.0076,19.1588,0.0,0.0,0.0,3.0367,0.0016,1.1856,0.7514,0.0567,0.0,0.04,0.0,0.0034,0.04,0.0,-0.0034
states,52050,136047959,0.012,0.0,0.0,-0.5697,-0.0071,-6.908,0.0,0.0,0.0,-2.8104,0.0076,19.1588,0.0,0.0,0.0,3.0367,0.0016,1.1856,0.7514,0.0567,0.0,0.04,0.0,0.0034,0.04,0.0,-0.0034
states,52050,152714626,0.012,0.0,0.0,-0.5697,-0.0071,-6.908,0.0,0.0,0.0,-2.8104,0.0076,19.1588,0.0,0.0,0.0,3.0367,0.0016,1.1856,0.7514,0.0567,0.0,0.04,0.0,0.0034,0.04,0.0,-0.0034
states,52050,169381294,0.012,0.0,0.0,-0.5697,-0.0071,-6.908,0.0,0.0,0.0,-2.8104,0.0076,19.1588,0.0,0.0,0.0,3.0367,0.0016,1.1856,0.7514,0.0567,0.0,0.04,0.0,0.0034,0.04,0.0,-0.0034
states,52050,186047961,0.012,0.0,0.0,-0.5697,-0.0071,-6.908,0.0,0.0,0.0,-2.8104,0.0076,19.1588,0.0,0.0,0.0,3.0367,0.0016,1.1856,0.7514,0.0567,0.0,0.04,0.0,0.0034,0.04,0.0,-0.0034
states,52050,202714629,0.012,0.0,0.0,-0.5697,-0.0071,-6.908,0.0,0.0,0.0,-2.8104,0.0076,19.1588,0.0,0.0,0.0,3.0367,0.0016,1.1856,0.7514,0.0567,0.0,0.04,0.0,0.0034,0.04,0.0,-0.0034
states,52050,219381297,0.012,0.0,0.0,-0.5697,-0.0071,-6.908,0.0,0.0,0.0,-2.8104,0.0076,19.1588,0.0,0.0,0.0,3.0367,0.0016,1.1856,0.7514,0.0567,0.0,0.04,0.0,0.0034,0.04,0.0,-0.0034
states,52050,236047964,0.012,0.0,0.0,-0.5697,-0.0071,-6.908,0.0,0.0,0.0,-2.8104,0.0076,19.1588,0.0,0.0,0.0,3.0367,0.0016,1.1856,0.7514,0.0567,0.0,0.04,0.0,0.0034,0.04,0.0,-0.0034
states,52050,252714632,0.012,0.0,0.0,-0.5697,-0.0071,-6.908,0.0,0.0,0.0,-2.8104,0.0076,19.1588,0.0,0.0,0.0,3.0367,0.0016,1.1856,0.7514,0.0567,0.0,0.04,0.0,0.0034,0.04,0.0,-0.0034
states,52050,269381299,0.012,0.0,0.0,-0.5697,-0.0071,-6.908,0.0,0.0,0.0,-2.8104,0.0076,19.1588,0.0,0.0,0.0,3.0367,0.0016,1.1856,0.7514,0.0567,0.0,0.04,0.0,0.0034,0.04,0.0,-0.0034
states,52050,286047967,0.012,0.0,0.0,-0.5697,-0.0071,-6.908,0.0,0.0,0.0,-2.8104,0.0076,19.1588,0.0,0.0,0.0,3.0367,0.0016,1.1856,0.7514,0.0567,0.0,0.04,0.0,0.0034,0.04,0.0,-0.0034
states,52050,302714634,0.012,0.0,0.0,-0.5697,-0.0071,-6.908,0.0,0.0,0.0,-2.8104,0.0076,19.1588,0.0,0.0,0.0,3.0367,0.0016,1.1856,0.7514,0.0567,0.0,0.04,0.0,0.0034,0.04,0.0,-0.0034
states,52050,319381302,0.012,0.0,0.0,-0.5697,-0.0071,-6.908,0.0,0.0,0.0,-2.8104,0.0076,19.1588,0.0,0.0,0.0,3.0367,0.0016,1.1856,0.7514,0.0567,0.0,0.04,0.0,0.0034,0.04,0.0,-0.0034
states,52050,336047969,0.012,0.0,0.0,-0.5697,-0.0071,-6.908,0.0,0.0,0.0,-2.8104,0.0076,19.1588,0.0,0.0,0.0,3.0367,0.0016,1.1856,0.7514,0.0567,0.0,0.04,0.0,0.0034,0.04,0.0,-0.0034
states,52050,352714637,0.012,0.0,0.0,-0.5697,-0.0071,-6.908,0.0,0.0,0.0,-2.8104,0.0076,19.1588,0.0,0.0,0.0,3.0367,0.0016,1.1856,0.7514,0.0567,0.0,0.04,0.0,0.0034,0.04,0.0,-0.0034
states,52050,369381304,0.012,0.0,0.0,-0.5697,-0.0071,-6.908,0.0,0.0,0.0,-2.8104,0.0076,19.1588,0.0,0.0,0.0,3.0367,0.0016,1.1856,0.7514,0.0567,0.0,0.04,0.0,0.0034,0.04,0.0,-0.0034
states,52050,386047972,0.012,0.0,0.0,-0.5697,-0.0071,-6.908,0.0,0.0,0.0,-2.8104,0.0076,19.1588,0.0,0.0,0.0,3.0367,0.0016,1.1856,0.7514,0.0567,0.0,0.04,0.0,0.0034,0.04,0.0,-0.0034
states,52050,402714639,0.012,0.0,0.0,-0.5697,-0.0071,-6.908,0.0,0.0,0.0,-2.8104,0.0076,19.1588,0.0,0.0,0.0,3.0367,0.0016,1.1856,0.7514,0.0567,0.0,0.04,0.0,0.0034,0.04,0.0,-0.0034
states,52050,419381307,0.012,0.0,0.0,-0.5697,-0.0071,-6.908,0.0,0.0,0.0,-2.8104,0.0076,19.1588,0.0,0.0,0.0,3.0367,0.0016,1.1856,0.7514,0.0567,0.0,0.04,0.0,0.0034,0.04,0.0,-0.0034
states,52050,436047974,0.012,0.0,0.0,-0.5697,-0.0071,-6.908,0.0,0.0,0.0,-2.8104,0.0076,19.1588,0.0,0.0,0.0,3.0367,0.0016,1.1856,0.7514,0.0567,0.0,0.04,0.0,0.0034,0.04,0.0,-0.0034
states,52050,452714642,0.012,0.0,0.0,-0.5697,-0.0071,-6.908,0.0,0.0,0.0,-2.8104,0.0076,19.1588,0.0,0.0,0.0,3.0367,0.0016,1.1856,0.7514,0.0567,0.0,0.04,0.0,0.0034,0.04,0.0,-0.0034
states,52050,469381310,0.012,0.0,0.0,-0.5697,-0.0071,-6.908,0.0,0.0,0.0,-2.8104,0.0076,19.1588,0.0,0.0,0.0,3.0367,0.0016,1.1856,0.7514,0.0567,0.0,0.04,0.0,0.0034,0.04,0.0,-0.0034
states,52050,486047977,0.012,0.0,0.0,-0.5697,-0.0071,-6.908,0.0,0.0,0.0,-2.8104,0.0076,19.1588,0.0,0.0,0.0,3.0367,0.0016,1.1856,0.7514,0.0567,0.0,0.04,0.0,0.0034,0.04,0.0,-0.0034
states,52050,502714645,0.012,0.0,0.0,-0.5697,-0.0071,-6.908,0.0,0.0,0.0,-2.8104,0.0076,19.1588,0.0,0.0,0.0,3.0367,0.0016,1.1856,0.7514,0.0567,0.0,0.04,0.0,0.0034,0.04,0.0,-0.0034
states,52050,519381312,0.012,0.0,0.0,-0.5697,-0.0071,-6.908,0.0,0.0,0.0,-2.8104,0.0076,19.1588,0.0,0.0,0.0,3.0367,0.0016,1.1856,0.7514,0.0567,0.0,0.04,0.0,0.0034,0.04,0.0,-0.0034
states,52050,536047980,0.012,0.0,0.0,-0.5697,-0.0071,-6.908,0.0,0.0,0.0,-2.8104,0.0076,19.1588,0.0,0.0,0.0,3.0367,0.0016,1.1856,0.7514,0.0567,0.0,0.04,0.0,0.0034,0.04,0.0,-0.0034
states,52050,552714647,0.012,0.0,0.0,-0.5697,-0.0071,-6.908,0.0,0.0,0.0,-2.8104,0.0076,19.1588,0.0,0.0,0.0,3.0367,0.0016,1.1856,0.7514,0.0567,0.0,0.04,0.0,0.0034,0.04,0.0,-0.0034
states,52050,569381315,0.012,0.0,0.0,-0.5697,-0.0071,-6.908,0.0,0.0,0.0,-2.8104,0.0076,19.1588,0.0,0.0,0.0,3.0367,0.0016,1.1856,0.7514,0.0567,0.0,0.04,0.0,0.0034,0.04,0.0,-0.0034
states,52050,586047982,0.012,0.0,0.0,-0.5697,-0.0071,-6.908,0.0,0.0,0.0,-2.8104,0.0076,19.1588,0.0,0.0,0.0,3.0367,0.0016,1.1856,0.7514,0.0567,0.0,0.04,0.0,0.0034,0.04,0.0,-0.0034
states,52050,602714650,0.012,0.0,0.0,-0.5697,-0.0071,-6.908,0.0,0.0,0.0,-2.8104,0.0076,19.1588,0.0,0.0,0.0,3.0367,0.0016,1.1856,0.7514,0.0567,0.0,0.04,0.0,0.0034,0.04,0.0,-0.0034
states,52050,619381317,0.012,0.0,0.0,-0.5697,-0.0071,-6.908,0.0,0.0,0.0,-2.8104,0.0076,19.1588,0.0,0.0,0.0,3.0367,0.0016,1.1856,0.7514,0.0567,0.0,0.04,0.0,0.0034,0.04,0.0,-0.0034
states,52050,636047985,0.012,0.0,0.0,-0.5697,-0.0071,-6.908,0.0,0.0,0.0,-2.8104,0.0076,19.1588,0.0,0.0,0.0,3.0367,0.0016,1.1856,0.7514,0.0567,0.0,0.04,0.0,0.0034,0.04,0.0,-0.0034
states,52050,652714652,0.012,0.0,0.0,-0.5697,-0.0071,-6.908,0.0,0.0,0.0,-2.8104,0.0076,19.1588,0.0,0.0,0.0,3.0367,0.0016,1.1856,0.7514,0.0567,0.0,0.04,0.0,0.0034,0.04,0.0,-0.0034
states,52050,669381320,0.012,0.0,0.0,-0.5697,-0.0071,-6.908,0.0,0.0,0.0,-2.8104,0.0076,19.1588,0.0,0.0,0.0,3.0367,0.0016,1.1856,0.7514,0.0567,0.0,0.04,0.0,0.0034,0.04,0.0,-0.0034
states,52050,686047988,0.012,0.0,0.0,-0.5697,-0.0071,-6.908,0.0,0.0,0.0,-2.8104,0.0076,19.1588,0.0,0.0,0.0,3.0367,0.0016,1.1856,0.7514,0.0567,0.0,0.04,0.0,0.0034,0.04,0.0,-0.0034
states,52050,702714655,0.012,0.0,0.0,-0.5697,-0.0071,-6.908,0.0,0.0,0.0,-2.8104,0.0076,19.1588,0.0,0.0,0.0,3.0367,0.0016,1.1856,0.7514,0.0567,0.0,0.04,0.0,0.0034,0.04,0.0,-0.0034
states,52050,719381323,0.012,0.0,0.0,-0.5697,-0.0071,-6.908,0.0,0.0,0.0,-2.8104,0.0076,19.1588,0.0,0.0,0.0,3.0367,0.0016,1.1856,0.7514,0.0567,0.0,0.04,0.0,0.0034,0.04,0.0,-0.0034
states,52050,736047990,0.012,0.0,0.0,-0.5697,-0.0071,-6.908,0.0,0.0,0.0,-2.8104,0.0076,19.1588,0.0,0.0,0.0,3.0367,0.0016,1.1856,0.7514,0.0567,0.0,0.04,0.0,0.0034,0.04,0.0,-0.0034
states,52050,752714658,0.012,0.0,0.0,-0.5697,-0.0071,-6.908,0.0,0.0,0.0,-2.8104,0.0076,19.1588,0.0,0.0,0.0,3.0367,0.0016,1.1856,0.7514,0.0567,0.0,0.04,0.0,0.0034,0.04,0.0,-0.0034
states,52050,769381325,0.012,0.0,0.0,-0.5697,-0.0071,-6.908,0.0,0.0,0.0,-2.8104,0.0076,19.1588,0.0,0.0,0.0,3.0367,0.0016,1.1856,0.7514,0.0567,0.0,0.04,0.0,0.0034,0.04,0.0,-0.0034
states,52050,786047993,0.012,0.0,0.0,-0.5697,-0.0071,-6.908,0.0,0.0,0.0,-2.8104,0.0076,19.1588,0.0,0.0,0.0,3.0367,0.0016,1.1856,0.7514,0.0567,0.0,0.04,0.0,0.0034,0.04,0.0,-0.0034
states,52050,802714660,0.012,0.0,0.0,-0.5697,-0.0071,-6.908,0.0,0.0,0.0,-2.8104,0.0076,19.1588,0.0,0.0,0.0,3.0367,0.0016,1.1856,0.7514,0.0567,0.0,0.04,0.0,0.0034,0.04,0.0,-0.0034
states,52050,819381328,0.012,0.0,0.0,-0.5697,-0.0071,-6.908,0.0,0.0,0.0,-2.8104,0.0076,19.1588,0.0,0.0,0.0,3.0367,0.0016,1.1856,0.7514,0.0567,0.0,0.04,0.0,0.0034,0.04,0.0,-0.0034
states,52050,836047995,0.012,0.0,0.0,-0.5697,-0.0071,-6.908,0.0,0.0,0.0,-2.8104,0.0076,19.1588,0.0,0.0,0.0,3.0367,0.0016,1.1856,0.7514,0.0567,0.0,0.04,0.0,0.0034,0.04,0.0,-0.0034
states,52050,852714663,0.012,0.0,0.0,-0.5697,-0.0071,-6.908,0.0,0.0,0.0,-2.8104,0.0076,19.1588,0.0,0.0,0.0,3.0367,0.0016,1.1856,0.7514,0.0567,0.0,0.04,0.0,0.0034,0.04,0.0,-0.0034
states,52050,869381330,0.012,0.0,0.0,-0.5697,-0.0071,-6.908,0.0,0.0,0.0,-2.8104,0.0076,19.1588,0.0,0.0,0.0,3.0367,0.0016,1.1856,0.7514,0.0567,0.0,0.04,0.0,0.0034,0.04,0.0,-0.0034
states,52050,886047998,0.012,0.0,0.0,-0.5697,-0.0071,-6.908,0.0,0.0,0.0,-2.8104,0.0076,19.1588,0.0,0.0,0.0,3.0367,0.0016,1.1856,0.7514,0.0567,0.0,0.04,0.0,0.0034,0.04,0.0,-0.0034
states,52050,902714665,0.012,0.0,0.0,-0.5697,-0.0071,-6.908,0.0,0.0,0.0,-2.8104,0.0076,19.1588,0.0,0.0,0.0,3.0367,0.0016,1.1856,0.7514,0.0567,0.0,0.04,0.0,0.0034,0.04,0.0,-0.0034
states,52050,919381333,0.012,0.0,0.0,-0.5697,-0.0071,-6.908,0.0,0.0,0.0,-2.8104,0.0076,19.1588,0.0,0.0,0.0,3.0367,0.0016,1.1856,0.7514,0.0567,0.0,0.04,0.0,0.0034,0.04,0.0,-0.0034
states,52050,936048001,0.012,0.0,0.0,-0.5697,-0.0071,-6.908,0.0,0.0,0.0,-2.8104,0.0076,19.1588,0.0,0.0,0.0,3.0367,0.0016,1.1856,0.7514,0.0567,0.0,0.04,0.0,0.0034,0.04,0.0,-0.0034
states,52050,952714668,0.012,0.0,0.0,-0.5697,-0.0071,-6.908,0.0,0.0,0.0,-2.8104,0.0076,19.1588,0.0,0.0,0.0,3.0367,0.0016,1.1856,0.7514,0.0567,0.0,0.04,0.0,0.0034,0.04,0.0,-0.0034
states,52050,969381336,0.012,0.0,0.0,-0.5697,-0.0071,-6.908,0.0,0.0,0.0,-2.8104,0.0076,19.1588,0.0,0.0,0.0,3.0367,0.0016,1.1856,0.7514,0.0567,0.0,0.04,0.0,0.0034,0.04,0.0,-0.0034
states,52050,986048003,0.012,0.0,0.0,-0.5697,-0.0071,-6.908,0.0,0.0,0.0,-2.8104,0.0076,19.1588,0.0,0.0,0.0,3.0367,0.0016,1.1856,0.7514,0.0567,0.0,0.04,0.0,0.0034,0.04,0.0,-0.0034
states,52051,2714671,0.012,0.0,0.0,-0.5697,-0.0071,-6.908,0.0,0.0,0.0,-2.8104,0.0076,19.1588,0.0,0.0,0.0,3.0367,0.0016,1.1856,0.7514,0.0567,0.0,0.04,0.0,0.0034,0.04,0.0,-0.0034
states,52051,19381338,0.012,0.0,0.0,-0.5697,-0.0071,-6.908,0.0,0.0,0.0,-2.8104,0.0076,19.1588,0.0,0.0,0.0,3.0367,0.0016,1.1856,0.7514,0.0567,0.0,0.04,0.0,0.0034,0.04,0.0,-0.0034
states,52051,36048006,0.012,0.0,0.0,-0.5697,-0.0071,-6.908,0.0,0.0,0.0,-2.8104,0.0076,19.1588,0.0,0.0,0.0,3.0367,0.0016,1.1856,0.7514,0.0567,0.0,0.04,0.0,0.0034,0.04,0.0,-0.0034
states,52051,52714673,0.012,0.0,0.0,-0.5697,-0.0071,-6.908,0.0,0.0,0.0,-2.8104,0.0076,19.1588,0.0,0.0,0.0,3.0367,0.0016,1.1856,0.7514,0.0567,0.0,0.04,0.0,0.0034,0.04,0.0,-0.0034
states,52051,69381341,0.012,0.0,0.0,-0.5697,-0.0071,-6.908,0.0,0.0,0.0,-2.8104,0.0076,19.1588,0.0,0.0,0.0,3.0367,0.0016,1.1856,0.7514,0.0567,0.0,0.04,0.0,0.0034,0.04,0.0,-0.0034
states,52051,86048008,0.012,0.0,0.0,-0.5697,-0.0071,-6.908,0.0,0.0,0.0,-2.8104,0.0076,19.1588,0.0,0.0,0.0,3.0367,0.0016,1.1856,0.7514,0.0567,0.0,0.04,0.0,0.0034,0.04,0.0,-0.0034
states,52051,102714676,0.012,0.0,0.0,-0.5697,-0.0071,-6.908,0.0,0.0,0.0,-2.8104,0.0076,19.1588,0.0,0.0,0.0,3.0367,0.0016,1.1856,0.7514,0.0567,0.0,0.04,0.0,0.0034,0.04,0.0,-0.0034
states,52051,119381343,0.012,0.0,0.0,-0.5697,-0.0071,-6.908,0.0,0.0,0.0,-2.8104,0.0076,19.1588,0.0,0.0,0.0,3.0367,0.0016,1.1856,0.7514,0.0567,0.0,0.04,0.0,0.0034,0.04,0.0,-0.0034
states,52051,136048011,0.012,0.0,0.0,-0.5697,-0.0071,-6.908,0.0,0.0,0.0,-2.8104,0.0076,19.1588,0.0,0.0,0.0,3.0367,0.0016,1.1856,0.7514,0.0567,0.0,0.04,0.0,0.0034,0.04,0.0,-0.0034
states,52051,152714679,0.012,0.0,0.0,-0.5697,-0.0071,-6.908,0.0,0.0,0.0,-2.8104,0.0076,19.1588,0.0,0.0,0.0,3.0367,0.0016,1.1856,0.7514,0.0567,0.0,0.04,0.0,0.0034,0.04,0.0,-0.0034
states,52051,169381346,0.012,0.0,0.0,-0.5697,-0.0071,-6.908,0.0,0.0,0.0,-2.8104,0.0076,19.1588,0.0,0.0,0.0,3.0367,0.0016,1.1856,0.7514,0.0567,0.0,0.04,0.0,0.0034,0.04,0.0,-0.0034
states,52051,186048014,0.012,0.0,0.0,-0.5697,-0.0071,-6.908,0.0,0.0,0.0,-2.8104,0.0076,19.1588,0.0,0.0,0.0,3.0367,0.0016,1.1856,0.7514,0.0567,0.0,0.04,0.0,0.0034,0.04,0.0,-0.0034
states,52051,202714681,0.012,0.0,0.0,-0.5697,-0.0071,-6.908,0.0,0.0,0.0,-2.8104,0.0076,19.1588,0.0,0.0,0.0,3.0367,0.0016,1.1856,0.7514,0.0567,0.0,0.04,0.0,0.0034,0.04,0.0,-0.0034
states,52051,219381349,0.012,0.0,0.0,-0.5697,-0.0071,-6.908,0.0,0.0,0.0,-2.8104,0.0076,19.1588,0.0,0.0,0.0,3.0367,0.0016,1.1856,0.7514,0.0567,0.0,0.04,0.0,0.0034,0.04,0.0,-0.0034
states,52051,236048016,0.012,0.0,0.0,-0.5697,-0.0071,-6.908,0.0,0.0,0.0,-2.8104,0.0076,19.1588,0.0,0.0,0.0,3.0367,0.0016,1.1856,0.7514,0.0567,0.0,0.04,0.0,0.0034,0.04,0.0,-0.0034
states,52051,252714684,0.012,0.0,0.0,-0.5697,-0.0071,-6.908,0.0,0.0,0.0,-2.8104,0.0076,19.1588,0.0,0.0,0.0,3.0367,0.0016,1.1856,0.7514,0.0567,0.0,0.04,0.0,0.0034,0.04,0.0,-0.0034
states,52051,269381351,0.012,0.0,0.0,-0.5697,-0.0071,-6.908,0.0,0.0,0.0,-2.8104,0.0076,19.1588,0.0,0.0,0.0,3.0367,0.0016,1.1856,0.7514,0.0567,0.0,0.04,0.0,0.0034,0.04,0.0,-0.0034
states,52051,286048019,0.012,0.0,0.0,-0.5697,-0.0071,-6.908,0.0,0.0,0.0,-2.8104,0.0076,19.1588,0.0,0.0,0.0,3.0367,0.0016,1.1856,0.7514,0.0567,0.0,0.04,0.0,0.0034,0.04,0.0,-0.0034
states,52051,302714686,0.012,0.0,0.0,-0.5697,-0.0071,-6.908,0.0,0.0,0.0,-2.8104,0.0076,19.1588,0.0,0.0,0.0,3.0367,0.0016,1.1856,0.7514,0.0567,0.0,0.04,0.0,0.0034,0.04,0.0,-0.0034
states,52051,319381354,0.012,0.0,0.0,-0.5697,-0.0071,-6.908,0.0,0.0,0.0,-2.8104,0.0076,19.1588,0.0,0.0,0.0,3.0367,0.0016,1.1856,0.7514,0.0567,0.0,0.04,0.0,0.0034,0.04,0.0,-0.0034
states,52051,336048021,0.012,0.0,0.0,-0.5697,-0.0071,-6.908,0.0,0.0,0.0,-2.8104,0.0076,19.1588,0.0,0.0,0.0,3.0367,0.0016,1.1856,0.7514,0.0567,0.0,0.04,0.0,0.0034,0.04,0.0,-0.0034
states,52051,352714689,0.012,0.0,0.0,-0.5697,-0.0071,-6.908,0.0,0.0,0.0,-2.8104,0.0076,19.1588,0.0,0.0,0.0,3.0367,0.0016,1.1856,0.7514,0.0567,0.0,0.04,0.0,0.0034,0.04,0.0,-0.0034
states,52051,369381356,0.012,0.0,0.0,-0.5697,-0.0071,-6.908,0.0,0.0,0.0,-2.8104,0.0076,19.1588,0.0,0.0,0.0,3.0367,0.0016,1.1856,0.7514,0.0567,0.0,0.04,0.0,0.0034,0.04,0.0,-0.0034
states,52051,386048024,0.012,0.0,0.0,-0.5697,-0.0071,-6.908,0.0,0.0,0.0,-2.8104,0.0076,19.1588,0.0,0.0,0.0,3.0367,0.0016,1.1856,0.7514,0.0567,0.0,0.04,0.0,0.0034,0.04,0.0,-0.0034
states,52051,402714692,0.012,0.0,0.0,-0.5697,-0.0071,-6.908,0.0,0.0,0.0,-2.8104,0.0076,19.1588,0.0,0.0,0.0,3.0367,0.0016,1.1856,0.7514,0.0567,0.0,0.04,0.0,0.0034,0.04,0.0,-0.0034
states,52051,419381359,0.012,0.0,0.0,-0.5697,-0.0071,-6.908,0.0,0.0,0.0,-2.8104,0.0076,19.1588,0.0,0.0,0.0,3.0367,0.0016,1.1856,0.7514,0.0567,0.0,0.04,0.0,0.0034,0.04,0.0,-0.0034
states,52051,436048027,0.012,0.0,0.0,-0.5697,-0.0071,-6.908,0.0,0.0,0.0,-2.8104,0.0076,19.1588,0.0,0.0,0.0,3.0367,0.0016,1.1856,0.7514,0.0567,0.0,0.04,0.0,0.0034,0.04,0.0,-0.0034
states,52051,452714694,0.012,0.0,0.0,-0.5697,-0.0071,-6.908,0.0,0.0,0.0,-2.8104,0.0076,19.1588,0.0,0.0,0.0,3.0367,0.0016,1.1856,0.7514,0.0567,0.0,0.04,0.0,0.0034,0.04,0.0,-0.0034
states,52051,469381362,0.012,0.0,0.0,-0.5697,-0.0071,-6.908,0.0,0.0,0.0,-2.8104,0.0076,19.1588,0.0,0.0,0.0,3.0367,0.0016,1.1856,0.7514,0.0567,0.0,0.04,0.0,0.0034,0.04,0.0,-0.0034
states,52051,486048029,0.012,0.0,0.0,-0.5697,-0.0071,-6.908,0.0,0.0,0.0,-2.8104,0.0076,19.1588,0.0,0.0,0.0,3.0367,0.0016,1.1856,0.7514,0.0567,0.0,0.04,0.0,0.0034,0.04,0.0,-0.0034
states,52051,502714697,0.012,0.0,0.0,-0.5697,-0.0071,-6.908,0.0,0.0,0.0,-2.8104,0.0076,19.1588,0.0,0.0,0.0,3.0367,0.0016,1.1856,0.7514,0.0567,0.0,0.04,0.0,0.0034,0.04,0.0,-0.0034
states,52051,519381364,0.012,0.0,0.0,-0.5697,-0.0071,-6.908,0.0,0.0,0.0,-2.8104,0.0076,19.1588,0.0,0.0,0.0,3.0367,0.0016,1.1856,0.7514,0.0567,0.0,0.04,0.0,0.0034,0.04,0.0,-0.0034
states,52051,536048032,0.012,0.0,0.0,-0.5697,-0.0071,-6.908,0.0,0.0,0.0,-2.8104,0.0076,19.1588,0.0,0.0,0.0,3.0367,0.0016,1.1856,0.7514,0.0567,0.0,0.04,0.0,0.0034,0.04,0.0,-0.0034
states,52051,552714699,0.012,0.0,0.0,-0.5697,-0.0071,-6.908,0.0,0.0,0.0,-2.8104,0.0076,19.1588,0.0,0.0,0.0,3.0367,0.0016,1.1856,0.7514,0.0567,0.0,0.04,0.0,0.0034,0.04,0.0,-0.0034
states,52051,569381367,0.012,0.0,0.0,-0.5697,-0.0071,-6.908,0.0,0.0,0.0,-2.8104,0.0076,19.1588,0.0,0.0,0.0,3.0367,0.0016,1.1856,0.7514,0.0567,0.0,0.04,0.0,0.0034,0.04,0.0,-0.0034
states,52051,586048034,0.012,0.0,0.0,-0.5697,-0.0071,-6.908,0.0,0.0,0.0,-2.8104,0.0076,19.1588,0.0,0.0,0.0,3.0367,0.0016,1.1856,0.7514,0.0567,0.0,0.04,0.0,0.0034,0.04,0.0,-0.0034
states,52051,602714702,0.012,0.0,0.0,-0.5697,-0.0071,-6.908,0.0,0.0,0.0,-2.8104,0.0076,19.1588,0.0,0.0,0.0,3.0367,0.0016,1.1856,0.7514,0.0567,0.0,0.04,0.0,0.0034,0.04,0.0,-0.0034
states,52051,619381370,0.012,0.0,0.0,-0.5697,-0.0071,-6.908,0.0,0.0,0.0,-2.8104,0.0076,19.1588,0.0,0.0,0.0,3.0367,0.0016,1.1856,0.7514,0.0567,0.0,0.04,0.0,0.0034,0.04,0.0,-0.0034
states,52051,636048037,0.012,0.0,0.0,-0.5697,-0.0071,-6.908,0.0,0.0,0.0,-2.8104,0.0076,19.1588,0.0,0.0,0.0,3.0367,0.0016,1.1856,0.7514,0.0567,0.0,0.04,0.0,0.0034,0.04,0.0,-0.0034
states,52051,652714705,0.012,0.0,0.0,-0.5697,-0.0071,-6.908,0.0,0.0,0.0,-2.8104,0.0076,19.1588,0.0,0.0,0.0,3.0367,0.0016,1.1856,0.7514,0.0567,0.0,0.04,0.0,0.0034,0.04,0.0,-0.0034
states,52051,669381372,0.012,0.0,0.0,-0.5697,-0.0071,-6.908,0.0,0.0,0.0,-2.8104,0.0076,19.1588,0.0,0.0,0.0,3.0367,0.0016,1.1856,0.7514,0.0567,0.0,0.04,0.0,0.0034,0.04,0.0,-0.0034
states,52051,686048040,0.012,0.0,0.0,-0.5697,-0.0071,-6.908,0.0,0.0,0.0,-2.8104,0.0076,19.1588,0.0,0.0,0.0,3.0367,0.0016,1.1856,0.7514,0.0567,0.0,0.04,0.0,0.0034,0.04,0.0,-0.0034
states,52051,702714707,0.012,0.0,0.0,-0.5697,-0.0071,-6.908,0.0,0.0,0.0,-2.8104,0.0076,19.1588,0.0,0.0,0.0,3.0367,0.0016,1.1856,0.7514,0.0567,0.0,0.04,0.0,0.0034,0.04,0.0,-0.0034
states,52051,719381375,0.012,0.0,0.0,-0.5697,-0.0071,-6.908,0.0,0.0,0.0,-2.8104,0.0076,19.1588,0.0,0.0,0.0,3.0367,0.0016,1.1856,0.7514,0.0567,0.0,0.04,0.0,0.0034,0.04,0.0,-0.0034
states,52051,736048042,0.012,0.0,0.0,-0.5697,-0.0071,-6.908,0.0,0.0,0.0,-2.8104,0.0076,19.1588,0.0,0.0,0.0,3.0367,0.0016,1.1856,0.7514,0.0567,0.0,0.04,0.0,0.0034,0.04,0.0,-0.0034
states,52051,752714710,0.012,0.0,0.0,-0.5697,-0.0071,-6.908,0.0,0.0,0.0,-2.8104,0.0076,19.1588,0.0,0.0,0.0,3.0367,0.0016,1.1856,0.7514,0.0567,0.0,0.04,0.0,0.0034,0.04,0.0,-0.0034
states,52051,769381377,0.012,0.0,0.0,-0.5697,-0.0071,-6.908,0.0,0.0,0.0,-2.8104,0.0076,19.1588,0.0,0.0,0.0,3.0367,0.0016,1.1856,0.7514,0.0567,0.0,0.04,0.0,0.0034,0.04,0.0,-0.0034
states,52051,786048045,0.012,0.0,0.0,-0.5697,-0.0071,-6.908,0.0,0.0,0.0,-2.8104,0.0076,19.1588,0.0,0.0,0.0,3.0367,0.0016,1.1856,0.7514,0.0567,0.0,0.04,0.0,0.0034,0.04,0.0,-0.0034
states,52051,802714712,0.012,0.0,0.0,-0.5697,-0.0071,-6.908,0.0,0.0,0.0,-2.8104,0.0076,19.1588,0.0,0.0,0.0,3.0367,0.0016,1.1856,0.7514,0.0567,0.0,0.04,0.0,0.0034,0.04,0.0,-0.0034
states,52051,819381380,0.012,0.0,0.0,-0.5697,-0.0071,-6.908,0.0,0.0,0.0,-2.8104,0.0076,19.1588,0.0,0.0,0.0,3.0367,0.0016,1.1856,0.7514,0.0567,0.0,0.04,0.0,0.0034,0.04,0.0,-0.0034
states,52051,836048047,0.012,0.0,0.0,-0.5697,-0.0071,-6.908,0.0,0.0,0.0,-2.8104,0.0076,19.1588,0.0,0.0,0.0,3.0367,0.0016,1.1856,0.7514,0.0567,0.0,0.04,0.0,0.0034,0.04,0.0,-0.0034
states,52051,852714715,0.012,0.0,0.0,-0.5697,-0.0071,-6.908,0.0,0.0,0.0,-2.8104,0.0076,19.1588,0.0,0.0,0.0,3.0367,0.0016,1.1856,0.7514,0.0567,0.0,0.04,0.0,0.0034,0.04,0.0,-0.0034
states,52051,869381383,0.012,0.0,0.0,-0.5697,-0.0071,-6.908,0.0,0.0,0.0,-2.8104,0.0076,19.1588,0.0,0.0,0.0,3.0367,0.0016,1.1856,0.7514,0.0567,0.0,0.04,0.0,0.0034,0.04,0.0,-0.0034
states,52051,886048050,0.012,0.0,0.0,-0.5697,-0.0071,-6.908,0.0,0.0,0.0,-2.8104,0.0076,19.1588,0.0,0.0,0.0,3.0367,0.0016,1.1856,0.7514,0.0567,0.0,0.04,0.0,0.0034,0.04,0.0,-0.0034
states,52051,902714718,0.012,0.0,0.0,-0.5697,-0.0071,-6.908,0.0,0.0,0.0,-2.8104,0.0076,19.1588,0.0,0.0,0.0,3.0367,0.0016,1.1856,0.7514,0.0567,0.0,0.04,0.0,0.0034,0.04,0.0,-0.0034
states,52051,919381385,0.012,0.0,0.0,-0.5697,-0.0071,-6.908,0.0,0.0,0.0,-2.8104,0.0076,19.1588,0.0,0.0,0.0,3.0367,0.0016,1.1856,0.7514,0.0567,0.0,0.04,0.0,0.0034,0.04,0.0,-0.0034
states,52051,936048053,0.012,0.0,0.0,-0.5697,-0.0071,-6.908,0.0,0.0,0.0,-2.8104,0.0076,19.1588,0.0,0.0,0.0,3.0367,0.0016,1.1856,0.7514,0.0567,0.0,0.04,0.0,0.0034,0.04,0.0,-0.0034
states,52051,952714720,0.012,0.0,0.0,-0.5697,-0.0071,-6.908,0.0,0.0,0.0,-2.8104,0.0076,19.1588,0.0,0.0,0.0,3.0367,0.0016,1.1856,0.7514,0.0567,0.0,0.04,0.0,0.0034,0.04,0.0,-0.0034
states,52051,969381388,0.012,0.0,0.0,-0.5697,-0.0071,-6.908,0.0,0.0,0.0,-2.8104,0.0076,19.1588,0.0,0.0,0.0,3.0367,0.0016,1.1856,0.7514,0.0567,0.0,0.04,0.0,0.0034,0.04,0.0,-0.0034
states,52051,986048055,0.012,0.0,0.0,-0.5697,-0.0071,-6.908,0.0,0.0,0.0,-2.8104,0.0076,19.1588,0.0,0.0,0.0,3.0367,0.0016,1.1856,0.7514,0.0567,0.0,0.04,0.0,0.0034,0.04,0.0,-0.0034
states,52052,2714723,0.012,0.0,0.0,-0.5697,-0.0071,-6.908,0.0,0.0,0.0,-2.8104,0.0076,19.1588,0.0,0.0,0.0,3.0367,0.0016,1.1856,0.7514,0.0567,0.0,0.04,0.0,0.0034,0.04,0.0,-0.0034
states,52052,19381390,0.012,0.0,0.0,-0.5697,-0.0071,-6.908,0.0,0.0,0.0,-2.8104,0.0076,19.1588,0.0,0.0,0.0,3.0367,0.0016,1.1856,0.7514,0.0567,0.0,0.04,0.0,0.0034,0.04,0.0,-0.0034
states,52052,36048058,0.012,0.0,0.0,-0.5697,-0.0071,-6.908,0.0,0.0,0.0,-2.8104,0.0076,19.1588,0.0,0.0,0.0,3.0367,0.0016,1.1856,0.7514,0.0567,0.0,0.04,0.0,0.0034,0.04,0.0,-0.0034
states,52052,52714725,0.012,0.0,0.0,-0.5697,-0.0071,-6.908,0.0,0.0,0.0,-2.8104,0.0076,19.1588,0.0,0.0,0.0,3.0367,0.0016,1.1856,0.7514,0.0567,0.0,0.04,0.0,0.0034,0.04,0.0,-0.0034
states,52052,69381393,0.012,0.0,0.0,-0.5697,-0.0071,-6.908,0.0,0.0,0.0,-2.8104,0.0076,19.1588,0.0,0.0,0.0,3.0367,0.0016,1.1856,0.7514,0.0567,0.0,0.04,0.0,0.0034,0.04,0.0,-0.0034
states,52052,86048061,0.012,0.0,0.0,-0.5697,-0.0071,-6.908,0.0,0.0,0.0,-2.8104,0.0076,19.1588,0.0,0.0,0.0,3.0367,0.0016,1.1856,0.7514,0.0567,0.0,0.04,0.0,0.0034,0.04,0.0,-0.0034
states,52052,102714728,0.012,0.0,0.0,-0.5697,-0.0071,-6.908,0.0,0.0,0.0,-2.8104,0.0076,19.1588,0.0,0.0,0.0,3.0367,0.0016,1.1856,0.7514,0.0567,0.0,0.04,0.0,0.0034,0.04,0.0,-0.0034
states,52052,119381396,0.012,0.0,0.0,-0.5697,-0.0071,-6.908,0.0,0.0,0.0,-2.8104,0.0076,19.1588,0.0,0.0,0.0,3.0367,0.0016,1.1856,0.7514,0.0567,0.0,0.04,0.0,0.0034,0.04,0.0,-0.0034
states,52052,136048063,0.012,0.0,0.0,-0.5697,-0.0071,-6.908,0.0,0.0,0.0,-2.8104,0.0076,19.1588,0.0,0.0,0.0,3.0367,0.0016,1.1856,0.7514,0.0567,0.0,0.04,0.0,0.0034,0.04,0.0,-0.0034
states,52052,152714731,0.012,0.0,0.0,-0.5697,-0.0071,-6.908,0.0,0.0,0.0,-2.8104,0.0076,19.1588,0.0,0.0,0.0,3.0367,0.0016,1.1856,0.7514,0.0567,0.0,0.04,0.0,0.0034,0.04,0.0,-0.0034
states,52052,169381398,0.012,0.0,0.0,-0.5697,-0.0071,-6.908,0.0,0.0,0.0,-2.8104,0.0076,19.1588,0.0,0.0,0.0,3.0367,0.0016,1.1856,0.7514,0.0567,0.0,0.04,0.0,0.0034,0.04,0.0,-0.0034
states,52052,186048066,0.012,0.0,0.0,-0.5697,-0.0071,-6.908,0.0,0.0,0.0,-2.8104,0.0076,19.1588,0.0,0.0,0.0,3.0367,0.0016,1.1856,0.7514,0.0567,0.0,0.04,0.0,0.0034,0.04,0.0,-0.0034
states,52052,202714733,0.012,0.0,0.0,-0.5697,-0.0071,-6.908,0.0,0.0,0.0,-2.8104,0.0076,19.1588,0.0,0.0,0.0,3.0367,0.0016,1.1856,0.7514,0.0567,0.0,0.04,0.0,0.0034,0.04,0.0,-0.0034
states,52052,219381401,0.012,0.0,0.0,-0.5697,-0.0071,-6.908,0.0,0.0,0.0,-2.8104,0.0076,19.1588,0.0,0.0,0.0,3.0367,0.0016,1.1856,0.7514,0.0567,0.0,0.04,0.0,0.0034,0.04,0.0,-0.0034
states,52052,236048068,0.012,0.0,0.0,-0.5697,-0.0071,-6.908,0.0,0.0,0.0,-2.8104,0.0076,19.1588,0.0,0.0,0.0,3.0367,0.0016,1.1856,0.7514,0.0567,0.0,0.04,0.0,0.0034,0.04,0.0,-0.0034
states,52052,252714736,0.012,0.0,0.0,-0.5697,-0.0071,-6.908,0.0,0.0,0.0,-2.8104,0.0076,19.1588,0.0,0.0,0.0,3.0367,0.0016,1.1856,0.7514,0.0567,0.0,0.04,0.0,0.0034,0.04,0.0,-0.0034
states,52052,269381403,0.012,0.0,0.0,-0.5697,-0.0071,-6.908,0.0,0.0,0.0,-2.8104,0.0076,19.1588,0.0,0.0,0.0,3.0367,0.0016,1.1856,0.7514,0.0567,0.0,0.04,0.0,0.0034,0.04,0.0,-0.0034
states,52052,286048071,0.012,0.0,0.0,-0.5697,-0.0071,-6.908,0.0,0.0,0.0,-2.8104,0.0076,19.1588,0.0,0.0,0.0,3.0367,0.0016,1.1856,0.7514,0.0567,0.0,0.04,0.0,0.0034,0.04,0.0,-0.0034
states,52052,302714738,0.012,0.0,0.0,-0.5697,-0.0071,-6.908,0.0,0.0,0.0,-2.8104,0.0076,19.1588,0.0,0.0,0.0,3.0367,0.0016,1.1856,0.7514,0.0567,0.0,0.04,0.0,0.0034,0.04,0.0,-0.0034
states,52052,319381406,0.012,0.0,0.0,-0.5697,-0.0071,-6.908,0.0,0.0,0.0,-2.8104,0.0076,19.1588,0.0,0.0,0.0,3.0367,0.0016,1.1856,0.7514,0.0567,0.0,0.04,0.0,0.0034,0.04,0.0,-0.0034
states,52052,336048074,0.012,0.0,0.0,-0.5697,-0.0071,-6.908,0.0,0.0,0.0,-2.8104,0.0076,19.1588,0.0,0.0,0.0,3.0367,0.0016,1.1856,0.7514,0.0567,0.0,0.04,0.0,0.0034,0.04,0.0,-0.0034
states,52052,352714741,0.012,0.0,0.0,-0.5697,-0.0071,-6.908,0.0,0.0,0.0,-2.8104,0.0076,19.1588,0.0,0.0,0.0,3.0367,0.0016,1.1856,0.7514,0.0567,0.0,0.04,0.0,0.0034,0.04,0.0,-0.0034
states,52052,369381409,0.012,0.0,0.0,-0.5697,-0.0071,-6.908,0.0,0.0,0.0,-2.8104,0.0076,19.1588,0.0,0.0,0.0,3.0367,0.0016,1.1856,0.7514,0.0567,0.0,0.04,0.0,0.0034,0.04,0.0,-0.0034
states,52052,386048076,0.012,0.0,0.0,-0.5697,-0.0071,-6.908,0.0,0.0,0.0,-2.8104,0.0076,19.1588,0.0,0.0,0.0,3.0367,0.0016,1.1856,0.7514,0.0567,0.0,0.04,0.0,0.0034,0.04,0.0,-0.0034
states,52052,402714744,0.012,0.0,0.0,-0.5697,-0.0071,-6.908,0.0,0.0,0.0,-2.8104,0.0076,19.1588,0.0,0.0,0.0,3.0367,0.0016,1.1856,0.7514,0.0567,0.0,0.04,0.0,0.0034,0.04,0.0,-0.0034
states,52052,419381411,0.012,0.0,0.0,-0.5697,-0.0071,-6.908,0.0,0.0,0.0,-2.8104,0.0076,19.1588,0.0,0.0,0.0,3.0367,0.0016,1.1856,0.7514,0.0567,0.0,0.04,0.0,0.0034,0.04,0.0,-0.0034
states,52052,436048079,0.012,0.0,0.0,-0.5697,-0.0071,-6.908,0.0,0.0,0.0,-2.8104,0.0076,19.1588,0.0,0.0,0.0,3.0367,0.0016,1.1856,0.7514,0.0567,0.0,0.04,0.0,0.0034,0.04,0.0,-0.0034
states,52052,452714746,0.012,0.0,0.0,-0.5697,-0.0071,-6.908,0.0,0.0,0.0,-2.8104,0.0076,19.1588,0.0,0.0,0.0,3.0367,0.0016,1.1856,0.7514,0.0567,0.0,0.04,0.0,0.0034,0.04,0.0,-0.0034
states,52052,469381414,0.012,0.0,0.0,-0.5697,-0.0071,-6.908,0.0,0.0,0.0,-2.8104,0.0076,19.1588,0.0,0.0,0.0,3.0367,0.0016,1.1856,0.7514,0.0567,0.0,0.04,0.0,0.0034,0.04,0.0,-0.0034
states,52052,486048081,0.012,0.0,0.0,-0.5697,-0.0071,-6.908,0.0,0.0,0.0,-2.8104,0.0076,19.1588,0.0,0.0,0.0,3.0367,0.0016,1.1856,0.7514,0.0567,0.0,0.04,0.0,0.0034,0.04,0.0,-0.0034
states,52052,502714749,0.012,0.0,0.0,-0.5697,-0.0071,-6.908,0.0,0.0,0.0,-2.8104,0.0076,19.1588,0.0,0.0,0.0,3.0367,0.0016,1.1856,0.7514,0.0567,0.0,0.04,0.0,0.0034,0.04,0.0,-0.0034
states,52052,519381416,0.012,0.0,0.0,-0.5697,-0.0071,-6.908,0.0,0.0,0.0,-2.8104,0.0076,19.1588,0.0,0.0,0.0,3.0367,0.0016,1.1856,0.7514,0.0567,0.0,0.04,0.0,0.0034,0.04,0.0,-0.0034
states,52052,536048084,0.012,0.0,0.0,-0.5697,-0.0071,-6.908,0.0,0.0,0.0,-2.8104,0.0076,19.1588,0.0,0.0,0.0,3.0367,0.0016,1.1856,0.7514,0.0567,0.0,0.04,0.0,0.0034,0.04,0.0,-0.0034
states,52052,552714752,0.012,0.0,0.0,-0.5697,-0.0071,-6.908,0.0,0.0,0.0,-2.8104,0.0076,19.1588,0.0,0.0,0.0,3.0367,0.0016,1.1856,0.7514,0.0567,0.0,0.04,0.0,0.0034,0.04,0.0,-0.0034
states,52052,569381419,0.012,0.0,0.0,-0.5697,-0.0071,-6.908,0.0,0.0,0.0,-2.8104,0.0076,19.1588,0.0,0.0,0.0,3.0367,0.0016,1.1856,0.7514,0.0567,0.0,0.04,0.0,0.0034,0.04,0.0,-0.0034
states,52052,586048087,0.012,0.0,0.0,-0.5697,-0.0071,-6.908,0.0,0.0,0.0,-2.8104,0.0076,19.1588,0.0,0.0,0.0,3.0367,0.0016,1.1856,0.7514,0.0567,0.0,0.04,0.0,0.0034,0.04,0.0,-0.0034
states,52052,602714754,0.012,0.0,0.0,-0.5697,-0.0071,-6.908,0.0,0.0,0.0,-2.8104,0.0076,19.1588,0.0,0.0,0.0,3.0367,0.0016,1.1856,0.7514,0.0567,0.0,0.04,0.0,0.0034,0.04,0.0,-0.0034
states,52052,619381422,0.012,0.0,0.0,-0.5697,-0.0071,-6.908,0.0,0.0,0.0,-2.8104,0.0076,19.1588,0.0,0.0,0.0,3.0367,0.0016,1.1856,0.7514,0.0567,0.0,0.04,0.0,0.0034,0.04,0.0,-0.0034
states,52052,636048089,0.012,0.0,0.0,-0.5697,-0.0071,-6.908,0.0,0.0,0.0,-2.8104,0.0076,19.1588,0.0,0.0,0.0,3.0367,0.0016,1.1856,0.7514,0.0567,0.0,0.04,0.0,0.0034,0.04,0.0,-0.0034
states,52052,652714757,0.012,0.0,0.0,-0.5697,-0.0071,-6.908,0.0,0.0,0.0,-2.8104,0.0076,19.1588,0.0,0.0,0.0,3.0367,0.0016,1.1856,0.7514,0.0567,0.0,0.04,0.0,0.0034,0.04,0.0,-0.0034
states,52052,669381424,0.012,0.0,0.0,-0.5697,-0.0071,-6.908,0.0,0.0,0.0,-2.8104,0.0076,19.1588,0.0,0.0,0.0,3.0367,0.0016,1.1856,0.7514,0.0567,0.0,0.04,0.0,0.0034,0.04,0.0,-0.0034
states,52052,686048092,0.012,0.0,0.0,-0.5697,-0.0071,-6.908,0.0,0.0,0.0,-2.8104,0.0076,19.1588,0.0,0.0,0.0,3.0367,0.0016,1.1856,0.7514,0.0567,0.0,0.04,0.0,0.0034,0.04,0.0,-0.0034
states,52052,702714759,0.012,0.0,0.0,-0.5697,-0.0071,-6.908,0.0,0.0,0.0,-2.8104,0.0076,19.1588,0.0,0.0,0.0,3.0367,0.0016,1.1856,0.7514,0.0567,0.0,0.04,0.0,0.0034,0.04,0.0,-0.0034
states,52052,719381427,0.012,0.0,0.0,-0.5697,-0.0071,-6.908,0.0,0.0,0.0,-2.8104,0.0076,19.1588,0.0,0.0,0.0,3.0367,0.0016,1.1856,0.7514,0.0567,0.0,0.04,0.0,0.0034,0.04,0.0,-0.0034
states,52052,736048094,0.012,0.0,0.0,-0.5697,-0.0071,-6.908,0.0,0.0,0.0,-2.8104,0.0076,19.1588,0.0,0.0,0.0,3.0367,0.0016,1.1856,0.7514,0.0567,0.0,0.04,0.0,0.0034,0.04,0.0,-0.0034
states,52052,752714762,0.012,0.0,0.0,-0.5697,-0.0071,-6.908,0.0,0.0,0.0,-2.8104,0.0076,19.1588,0.0,0.0,0.0,3.0367,0.0016,1.1856,0.7514,0.0567,0.0,0.04,0.0,0.0034,0.04,0.0,-0.0034
states,52052,769381430,0.012,0.0,0.0,-0.5697,-0.0071,-6.908,0.0,0.0,0.0,-2.8104,0.0076,19.1588,0.0,0.0,0.0,3.0367,0.0016,1.1856,0.7514,0.0567,0.0,0.04,0.0,0.0034,0.04,0.0,-0.0034
states,52052,786048097,0.012,0.0,0.0,-0.5697,-0.0071,-6.908,0.0,0.0,0.0,-2.8104,0.0076,19.1588,0.0,0.0,0.0,3.0367,0.0016,1.1856,0.7514,0.0567,0.0,0.04,0.0,0.0034,0.04,0.0,-0.0034
states,52052,802714765,0.012,0.0,0.0,-0.5697,-0.0071,-6.908,0.0,0.0,0.0,-2.8104,0.0076,19.1588,0.0,0.0,0.0,3.0367,0.0016,1.1856,0.7514,0.0567,0.0,0.04,0.0,0.0034,0.04,0.0,-0.0034
states,52052,819381432,0.012,0.0,0.0,-0.5697,-0.0071,-6.908,0.0,0.0,0.0,-2.8104,0.0076,19.1588,0.0,0.0,0.0,3.0367,0.0016,1.1856,0.7514,0.0567,0.0,0.04,0.0,0.0034,0.04,0.0,-0.0034
states,52052,836048100,0.012,0.0,0.0,-0.5697,-0.0071,-6.908,0.0,0.0,0.0,-2.8104,0.0076,19.1588,0.0,0.0,0.0,3.0367,0.0016,1.1856,0.7514,0.0567,0.0,0.04,0.0,0.0034,0.04,0.0,-0.0034
states,52052,852714767,0.012,0.0,0.0,-0.5697,-0.0071,-6.908,0.0,0.0,0.0,-2.8104,0.0076,19.1588,0.0,0.0,0.0,3.0367,0.0016,1.1856,0.7514,0.0567,0.0,0.04,0.0,0.0034,0.04,0.0,-0.0034
states,52052,869381435,0.012,0.0,0.0,-0.5697,-0.0071,-6.908,0.0,0.0,0.0,-2.8104,0.0076,19.1588,0.0,0.0,0.0,3.0367,0.0016,1.1856,0.7514,0.0567,0.0,0.04,0.0,0.0034,0.04,0.0,-0.0034
states,52052,886048102,0.012,0.0,0.0,-0.5697,-0.0071,-6.908,0.0,0.0,0.0,-2.8104,0.0076,19.1588,0.0,0.0,0.0,3.0367,0.0016,1.1856,0.7514,0.0567,0.0,0.04,0.0,0.0034,0.04,0.0,-0.0034
states,52052,902714770,0.012,0.0,0.0,-0.5697,-0.0071,-6.908,0.0,0.0,0.0,-2.8104,0.0076,19.1588,0.0,0.0,0.0,3.0367,0.0016,1.1856,0.7514,0.0567,0.0,0.04,0.0,0.0034,0.04,0.0,-0.0034
states,52052,919381437,0.012,0.0,0.0,-0.5697,-0.0071,-6.908,0.0,0.0,0.0,-2.8104,0.0076,19.1588,0.0,0.0,0.0,3.0367,0.0016,1.1856,0.7514,0.0567,0.0,0.04,0.0,0.0034,0.04,0.0,-0.0034
states,52052,936048105,0.012,0.0,0.0,-0.5697,-0.0071,-6.908,0.0,0.0,0.0,-2.8104,0.0076,19.1588,0.0,0.0,0.0,3.0367,0.0016,1.1856,0.7514,0.0567,0.0,0.04,0.0,0.0034,0.04,0.0,-0.0034
states,52052,952714772,0.012,0.0,0.0,-0.5697,-0.0071,-6.908,0.0,0.0,0.0,-2.8104,0.0076,19.1588,0.0,0.0,0.0,3.0367,0.0016,1.1856,0.7514,0.0567,0.0,0.04,0.0,0.0034,0.04,0.0,-0.0034
states,52052,969381440,0.012,0.0,0.0,-0.5697,-0.0071,-6.908,0.0,0.0,0.0,-2.8104,0.0076,19.1588,0.0,0.0,0.0,3.0367,0.0016,1.1856,0.7514,0.0567,0.0,0.04,0.0,0.0034,0.04,0.0,-0.0034
states,52052,986048107,0.012,0.0,0.0,-0.5697,-0.0071,-6.908,0.0,0.0,0.0,-2.8104,0.0076,19.1588,0.0,0.0,0.0,3.0367,0.0016,1.1856,0.7514,0.0567,0.0,0.04,0.0,0.0034,0.04,0.0,-0.0034
states,52053,2714775,0.012,0.0,0.0,-0.5697,-0.0071,-6.908,0.0,0.0,0.0,-2.8104,0.0076,19.1588,0.0,0.0,0.0,3.0367,0.0016,1.1856,0.7514,0.0567,0.0,0.04,0.0,0.0034,0.04,0.0,-0.0034
states,52053,19381443,0.012,0.0,0.0,-0.5697,-0.0071,-6.908,0.0,0.0,0.0,-2.8104,0.0076,19.1588,0.0,0.0,0.0,3.0367,0.0016,1.1856,0.7514,0.0567,0.0,0.04,0.0,0.0034,0.04,0.0,-0.0034
states,52053,36048110,0.012,0.0,0.0,-0.5697,-0.0071,-6.908,0.0,0.0,0.0,-2.8104,0.0076,19.1588,0.0,0.0,0.0,3.0367,0.0016,1.1856,0.7514,0.0567,0.0,0.04,0.0,0.0034,0.04,0.0,-0.0034
states,52053,52714778,0.012,0.0,0.0,-0.5697,-0.0071,-6.908,0.0,0.0,0.0,-2.8104,0.0076,19.1588,0.0,0.0,0.0,3.0367,0.0016,1.1856,0.7514,0.0567,0.0,0.04,0.0,0.0034,0.04,0.0,-0.0034
states,52053,69381445,0.012,0.0,0.0,-0.5697,-0.0071,-6.908,0.0,0.0,0.0,-2.8104,0.0076,19.1588,0.0,0.0,0.0,3.0367,0.0016,1.1856,0.7514,0.0567,0.0,0.04,0.0,0.0034,0.04,0.0,-0.0034
states,52053,86048113,0.012,0.0,0.0,-0.5697,-0.0071,-6.908,0.0,0.0,0.0,-2.8104,0.0076,19.1588,0.0,0.0,0.0,3.0367,0.0016,1.1856,0.7514,0.0567,0.0,0.04,0.0,0.0034,0.04,0.0,-0.0034
states,52053,102714780,0.012,0.0,0.0,-0.5697,-0.0071,-6.908,0.0,0.0,0.0,-2.8104,0.0076,19.1588,0.0,0.0,0.0,3.0367,0.0016,1.1856,0.7514,0.0567,0.0,0.04,0.0,0.0034,0.04,0.0,-0.0034
states,52053,119381448,0.012,0.0,0.0,-0.5697,-0.0071,-6.908,0.0,0.0,0.0,-2.8104,0.0076,19.1588,0.0,0.0,0.0,3.0367,0.0016,1.1856,0.7514,0.0567,0.0,0.04,0.0,0.0034,0.04,0.0,-0.0034
states,52053,136048115,0.012,0.0,0.0,-0.5697,-0.0071,-6.908,0.0,0.0,0.0,-2.8104,0.0076,19.1588,0.0,0.0,0.0,3.0367,0.0016,1.1856,0.7514,0.0567,0.0,0.04,0.0,0.0034,0.04,0.0,-0.0034
states,52053,152714783,0.012,0.0,0.0,-0.5697,-0.0071,-6.908,0.0,0.0,0.0,-2.8104,0.0076,19.1588,0.0,0.0,0.0,3.0367,0.0016,1.1856,0.7514,0.0567,0.0,0.04,0.0,0.0034,0.04,0.0,-0.0034
states,52053,169381450,0.012,0.0,0.0,-0.5697,-0.0071,-6.908,0.0,0.0,0.0,-2.8104,0.0076,19.1588,0.0,0.0,0.0,3.0367,0.0016,1.1856,0.7514,0.0567,0.0,0.04,0.0,0.0034,0.04,0.0,-0.0034
states,52053,186048118,0.012,0.0,0.0,-0.5697,-0.0071,-6.908,0.0,0.0,0.0,-2.8104,0.0076,19.1588,0.0,0.0,0.0,3.0367,0.0016,1.1856,0.7514,0.0567,0.0,0.04,0.0,0.0034,0.04,0.0,-0.0034
states,52053,202714785,0.012,0.0,0.0,-0.5697,-0.0071,-6.908,0.0,0.0,0.0,-2.8104,0.0076,19.1588,0.0,0.0,0.0,3.0367,0.0016,1.1856,0.7514,0.0567,0.0,0.04,0.0,0.0034,0.04,0.0,-0.0034
states,52053,219381453,0.012,0.0,0.0,-0.5697,-0.0071,-6.908,0.0,0.0,0.0,-2.8104,0.0076,19.1588,0.0,0.0,0.0,3.0367,0.0016,1.1856,0.7514,0.0567,0.0,0.04,0.0,0.0034,0.04,0.0,-0.0034
states,52053,236048121,0.012,0.0,0.0,-0.5697,-0.0071,-6.908,0.0,0.0,0.0,-2.8104,0.0076,19.1588,0.0,0.0,0.0,3.0367,0.0016,1.1856,0.7514,0.0567,0.0,0.04,0.0,0.0034,0.04,0.0,-0.0034
states,52053,252714788,0.012,0.0,0.0,-0.5697,-0.0071,-6.908,0.0,0.0,0.0,-2.8104,0.0076,19.1588,0.0,0.0,0.0,3.0367,0.0016,1.1856,0.7514,0.0567,0.0,0.04,0.0,0.0034,0.04,0.0,-0.0034
states,52053,269381456,0.012,0.0,0.0,-0.5697,-0.0071,-6.908,0.0,0.0,0.0,-2.8104,0.0076,19.1588,0.0,0.0,0.0,3.0367,0.0016,1.1856,0.7514,0.0567,0.0,0.04,0.0,0.0034,0.04,0.0,-0.0034
states,52053,286048123,0.012,0.0,0.0,-0.5697,-0.0071,-6.908,0.0,0.0,0.0,-2.8104,0.0076,19.1588,0.0,0.0,0.0,3.0367,0.0016,1.1856,0.7514,0.0567,0.0,0.04,0.0,0.0034,0.04,0.0,-0.0034
states,52053,302714791,0.012,0.0,0.0,-0.5697,-0.0071,-6.908,0.0,0.0,0.0,-2.8104,0.0076,19.1588,0.0,0.0,0.0,3.0367,0.0016,1.1856,0.7514,0.0567,0.0,0.04,0.0,0.0034,0.04,0.0,-0.0034
states,52053,319381458,0.012,0.0,0.0,-0.5697,-0.0071,-6.908,0.0,0.0,0.0,-2.8104,0.0076,19.1588,0.0,0.0,0.0,3.0367,0.0016,1.1856,0.7514,0.0567,0.0,0.04,0.0,0.0034,0.04,0.0,-0.0034
states,52053,336048126,0.012,0.0,0.0,-0.5697,-0.0071,-6.908,0.0,0.0,0.0,-2.8104,0.0076,19.1588,0.0,0.0,0.0,3.0367,0.0016,1.1856,0.7514,0.0567,0.0,0.04,0.0,0.0034,0.04,0.0,-0.0034
states,52053,352714793,0.012,0.0,0.0,-0.5697,-0.0071,-6.908,0.0,0.0,0.0,-2.8104,0.0076,19.1588,0.0,0.0,0.0,3.0367,0.0016,1.1856,0.7514,0.0567,0.0,0.04,0.0,0.0034,0.04,0.0,-0.0034
states,52053,369381461,0.012,0.0,0.0,-0.5697,-0.0071,-6.908,0.0,0.0,0.0,-2.8104,0.0076,19.1588,0.0,0.0,0.0,3.0367,0.0016,1.1856,0.7514,0.0567,0.0,0.04,0.0,0.0034,0.04,0.0,-0.0034
states,52053,386048128,0.012,0.0,0.0,-0.5697,-0.0071,-6.908,0.0,0.0,0.0,-2.8104,0.0076,19.1588,0.0,0.0,0.0,3.0367,0.0016,1.1856,0.7514,0.0567,0.0,0.04,0.0,0.0034,0.04,0.0,-0.0034
states,52053,402714796,0.012,0.0,0.0,-0.5697,-0.0071,-6.908,0.0,0.0,0.0,-2.8104,0.0076,19.1588,0.0,0.0,0.0,3.0367,0.0016,1.1856,0.7514,0.0567,0.0,0.04,0.0,0.0034,0.04,0.0,-0.0034
states,52053,419381463,0.012,0.0,0.0,-0.5697,-0.0071,-6.908,0.0,0.0,0.0,-2.8104,0.0076,19.1588,0.0,0.0,0.0,3.0367,0.0016,1.1856,0.7514,0.0567,0.0,0.04,0.0,0.0034,0.04,0.0,-0.0034
states,52053,436048131,0.012,0.0,0.0,-0.5697,-0.0071,-6.908,0.0,0.0,0.0,-2.8104,0.0076,19.1588,0.0,0.0,0.0,3.0367,0.0016,1.1856,0.7514,0.0567,0.0,0.04,0.0,0.0034,0.04,0.0,-0.0034
states,52053,452714798,0.012,0.0,0.0,-0.5697,-0.0071,-6.908,0.0,0.0,0.0,-2.8104,0.0076,19.1588,0.0,0.0,0.0,3.0367,0.0016,1.1856,0.7514,0.0567,0.0,0.04,0.0,0.0034,0.04,0.0,-0.0034
states,52053,469381466,0.012,0.0,0.0,-0.5697,-0.0071,-6.908,0.0,0.0,0.0,-2.8104,0.0076,19.1588,0.0,0.0,0.0,3.0367,0.0016,1.1856,0.7514,0.0567,0.0,0.04,0.0,0.0034,0.04,0.0,-0.0034
states,52053,486048134,0.012,0.0,0.0,-0.5697,-0.0071,-6.908,0.0,0.0,0.0,-2.8104,0.0076,19.1588,0.0,0.0,0.0,3.0367,0.0016,1.1856,0.7514,0.0567,0.0,0.04,0.0,0.0034,0.04,0.0,-0.0034
states,52053,502714801,0.012,0.0,0.0,-0.5697,-0.0071,-6.908,0.0,0.0,0.0,-2.8104,0.0076,19.1588,0.0,0.0,0.0,3.0367,0.0016,1.1856,0.7514,0.0567,0.0,0.04,0.0,0.0034,0.04,0.0,-0.0034
states,52053,519381469,0.012,0.0,0.0,-0.5697,-0.0071,-6.908,0.0,0.0,0.0,-2.8104,0.0076,19.1588,0.0,0.0,0.0,3.0367,0.0016,1.1856,0.7514,0.0567,0.0,0.04,0.0,0.0034,0.04,0.0,-0.0034
states,52053,536048136,0.012,0.0,0.0,-0.5697,-0.0071,-6.908,0.0,0.0,0.0,-2.8104,0.0076,19.1588,0.0,0.0,0.0,3.0367,0.0016,1.1856,0.7514,0.0567,0.0,0.04,0.0,0.0034,0.04,0.0,-0.0034
states,52053,552714804,0.012,0.0,0.0,-0.5697,-0.0071,-6.908,0.0,0.0,0.0,-2.8104,0.0076,19.1588,0.0,0.0,0.0,3.0367,0.0016,1.1856,0.7514,0.0567,0.0,0.04,0.0,0.0034,0.04,0.0,-0.0034
states,52053,569381471,0.012,0.0,0.0,-0.5697,-0.0071,-6.908,0.0,0.0,0.0,-2.8104,0.0076,19.1588,0.0,0.0,0.0,3.0367,0.0016,1.1856,0.7514,0.0567,0.0,0.04,0.0,0.0034,0.04,0.0,-0.0034
states,52053,586048139,0.012,0.0,0.0,-0.5697,-0.0071,-6.908,0.0,0.0,0.0,-2.8104,0.0076,19.1588,0.0,0.0,0.0,3.0367,0.0016,1.1856,0.7514,0.0567,0.0,0.04,0.0,0.0034,0.04,0.0,-0.0034
states,52053,602714806,0.012,0.0,0.0,-0.5697,-0.0071,-6.908,0.0,0.0,0.0,-2.8104,0.0076,19.1588,0.0,0.0,0.0,3.0367,0.0016,1.1856,0.7514,0.0567,0.0,0.04,0.0,0.0034,0.04,0.0,-0.0034
states,52053,619381474,0.012,0.0,0.0,-0.5697,-0.0071,-6.908,0.0,0.0,0.0,-2.8104,0.0076,19.1588,0.0,0.0,0.0,3.0367,0.0016,1.1856,0.7514,0.0567,0.0,0.04,0.0,0.0034,0.04,0.0,-0.0034
states,52053,636048141,0.012,0.0,0.0,-0.5697,-0.0071,-6.908,0.0,0.0,0.0,-2.8104,0.0076,19.1588,0.0,0.0,0.0,3.0367,0.0016,1.1856,0.7514,0.0567,0.0,0.04,0.0,0.0034,0.04,0.0,-0.0034
states,52053,652714809,0.012,0.0,0.0,-0.5697,-0.0071,-6.908,0.0,0.0,0.0,-2.8104,0.0076,19.1588,0.0,0.0,0.0,3.0367,0.0016,1.1856,0.7514,0.0567,0.0,0.04,0.0,0.0034,0.04,0.0,-0.0034
states,52053,669381476,0.012,0.0,0.0,-0.5697,-0.0071,-6.908,0.0,0.0,0.0,-2.8104,0.0076,19.1588,0.0,0.0,0.0,3.0367,0.0016,1.1856,0.7514,0.0567,0.0,0.04,0.0,0.0034,0.04,0.0,-0.0034
states,52053,686048144,0.012,0.0,0.0,-0.5697,-0.0071,-6.908,0.0,0.0,0.0,-2.8104,0.0076,19.1588,0.0,0.0,0.0,3.0367,0.0016,1.1856,0.7514,0.0567,0.0,0.04,0.0,0.0034,0.04,0.0,-0.0034
states,52053,702714812,0.012,0.0,0.0,-0.5697,-0.0071,-6.908,0.0,0.0,0.0,-2.8104,0.0076,19.1588,0.0,0.0,0.0,3.0367,0.0016,1.1856,0.7514,0.0567,0.0,0.04,0.0,0.0034,0.04,0.0,-0.0034
states,52053,719381479,0.012,0.0,0.0,-0.5697,-0.0071,-6.908,0.0,0.0,0.0,-2.8104,0.0076,19.1588,0.0,0.0,0.0,3.0367,0.0016,1.1856,0.7514,0.0567,0.0,0.04,0.0,0.0034,0.04,0.0,-0.0034
states,52053,736048147,0.012,0.0,0.0,-0.5697,-0.0071,-6.908,0.0,0.0,0.0,-2.8104,0.0076,19.1588,0.0,0.0,0.0,3.0367,0.0016,1.1856,0.7514,0.0567,0.0,0.04,0.0,0.0034,0.04,0.0,-0.0034
states,52053,752714814,0.012,0.0,0.0,-0.5697,-0.0071,-6.908,0.0,0.0,0.0,-2.8104,0.0076,19.1588,0.0,0.0,0.0,3.0367,0.0016,1.1856,0.7514,0.0567,0.0,0.04,0.0,0.0034,0.04,0.0,-0.0034
states,52053,769381482,0.012,0.0,0.0,-0.5697,-0.0071,-6.908,0.0,0.0,0.0,-2.8104,0.0076,19.1588,0.0,0.0,0.0,3.0367,0.0016,1.1856,0.7514,0.0567,0.0,0.04,0.0,0.0034,0.04,0.0,-0.0034
states,52053,786048149,0.012,0.0,0.0,-0.5697,-0.0071,-6.908,0.0,0.0,0.0,-2.8104,0.0076,19.1588,0.0,0.0,0.0,3.0367,0.0016,1.1856,0.7514,0.0567,0.0,0.04,0.0,0.0034,0.04,0.0,-0.0034
states,52053,802714817,0.012,0.0,0.0,-0.5697,-0.0071,-6.908,0.0,0.0,0.0,-2.8104,0.0076,19.1588,0.0,0.0,0.0,3.0367,0.0016,1.1856,0.7514,0.0567,0.0,0.04,0.0,0.0034,0.04,0.0,-0.0034
states,52053,819381484,0.012,0.0,0.0,-0.5697,-0.0071,-6.908,0.0,0.0,0.0,-2.8104,0.0076,19.1588,0.0,0.0,0.0,3.0367,0.0016,1.1856,0.7514,0.0567,0.0,0.04,0.0,0.0034,0.04,0.0,-0.0034
states,52053,836048152,0.012,0.0,0.0,-0.5697,-0.0071,-6.908,0.0,0.0,0.0,-2.8104,0.0076,19.1588,0.0,0.0,0.0,3.0367,0.0016,1.1856,0.7514,0.0567,0.0,0.04,0.0,0.0034,0.04,0.0,-0.0034
states,52053,852714819,0.012,0.0,0.0,-0.5697,-0.0071,-6.908,0.0,0.0,0.0,-2.8104,0.0076,19.1588,0.0,0.0,0.0,3.0367,0.0016,1.1856,0.7514,0.0567,0.0,0.04,0.0,0.0034,0.04,0.0,-0.0034
states,52053,869381487,0.012,0.0,0.0,-0.5697,-0.0071,-6.908,0.0,0.0,0.0,-2.8104,0.0076,19.1588,0.0,0.0,0.0,3.0367,0.0016,1.1856,0.7514,0.0567,0.0,0.04,0.0,0.0034,0.04,0.0,-0.0034
states,52053,886048154,0.012,0.0,0.0,-0.5697,-0.0071,-6.908,0.0,0.0,0.0,-2.8104,0.0076,19.1588,0.0,0.0,0.0,3.0367,0.0016,1.1856,0.7514,0.0567,0.0,0.04,0.0,0.0034,0.04,0.0,-0.0034
states,52053,902714822,0.012,0.0,0.0,-0.5697,-0.0071,-6.908,0.0,0.0,0.0,-2.8104,0.0076,19.1588,0.0,0.0,0.0,3.0367,0.0016,1.1856,0.7514,0.0567,0.0,0.04,0.0,0.0034,0.04,0.0,-0.0034
states,52053,919381489,0.012,0.0,0.0,-0.5697,-0.0071,-6.908,0.0,0.0,0.0,-2.8104,0.0076,19.1588,0.0,0.0,0.0,3.0367,0.0016,1.1856,0.7514,0.0567,0.0,0.04,0.0,0.0034,0.04,0.0,-0.0034
states,52053,936048157,0.012,0.0,0.0,-0.5697,-0.0071,-6.908,0.0,0.0,0.0,-2.8104,0.0076,19.1588,0.0,0.0,0.0,3.0367,0.0016,1.1856,0.7514,0.0567,0.0,0.04,0.0,0.0034,0.04,0.0,-0.0034
states,52053,952714825,0.012,0.0,0.0,-0.5697,-0.0071,-6.908,0.0,0.0,0.0,-2.8104,0.0076,19.1588,0.0,0.0,0.0,3.0367,0.0016,1.1856,0.7514,0.0567,0.0,0.04,0.0,0.0034,0.04,0.0,-0.0034
states,52053,969381492,0.012,0.0,0.0,-0.5697,-0.0071,-6.908,0.0,0.0,0.0,-2.8104,0.0076,19.1588,0.0,0.0,0.0,3.0367,0.0016,1.1856,0.7514,0.0567,0.0,0.04,0.0,0.0034,0.04,0.0,-0.0034
states,52053,986048160,0.012,0.0,0.0,-0.5697,-0.0071,-6.908,0.0,0.0,0.0,-2.8104,0.0076,19.1588,0.0,0.0,0.0,3.0367,0.0016,1.1856,0.7514,0.0567,0.0,0.04,0.0,0.0034,0.04,0.0,-0.0034
states,52054,2714827,0.012,0.0,0.0,-0.5697,-0.0071,-6.908,0.0,0.0,0.0,-2.8104,0.0076,19.1588,0.0,0.0,0.0,3.0367,0.0016,1.1856,0.7514,0.0567,0.0,0.04,0.0,0.0034,0.04,0.0,-0.0034
states,52054,19381495,0.012,0.0,0.0,-0.5697,-0.0071,-6.908,0.0,0.0,0.0,-2.8104,0.0076,19.1588,0.0,0.0,0.0,3.0367,0.0016,1.1856,0.7514,0.0567,0.0,0.04,0.0,0.0034,0.04,0.0,-0.0034
states,52054,36048162,0.012,0.0,0.0,-0.5697,-0.0071,-6.908,0.0,0.0,0.0,-2.8104,0.0076,19.1588,0.0,0.0,0.0,3.0367,0.0016,1.1856,0.7514,0.0567,0.0,0.04,0.0,0.0034,0.04,0.0,-0.0034
states,52054,52714830,0.012,0.0,0.0,-0.5697,-0.0071,-6.908,0.0,0.0,0.0,-2.8104,0.0076,19.1588,0.0,0.0,0.0,3.0367,0.0016,1.1856,0.7514,0.0567,0.0,0.04,0.0,0.0034,0.04,0.0,-0.0034
states,52054,69381497,0.012,0.0,0.0,-0.5697,-0.0071,-6.908,0.0,0.0,0.0,-2.8104,0.0076,19.1588,0.0,0.0,0.0,3.0367,0.0016,1.1856,0.7514,0.0567,0.0,0.04,0.0,0.0034,0.04,0.0,-0.0034
states,52054,86048165,0.012,0.0,0.0,-0.5697,-0.0071,-6.908,0.0,0.0,0.0,-2.8104,0.0076,19.1588,0.0,0.0,0.0,3.0367,0.0016,1.1856,0.7514,0.0567,0.0,0.04,0.0,0.0034,0.04,0.0,-0.0034
states,52054,102714832,0.012,0.0,0.0,-0.5697,-0.0071,-6.908,0.0,0.0,0.0,-2.8104,0.0076,19.1588,0.0,0.0,0.0,3.0367,0.0016,1.1856,0.7514,0.0567,0.0,0.04,0.0,0.0034,0.04,0.0,-0.0034
states,52054,119381500,0.012,0.0,0.0,-0.5697,-0.0071,-6.908,0.0,0.0,0.0,-2.8104,0.0076,19.1588,0.0,0.0,0.0,3.0367,0.0016,1.1856,0.7514,0.0567,0.0,0.04,0.0,0.0034,0.04,0.0,-0.0034
states,52054,136048167,0.012,0.0,0.0,-0.5697,-0.0071,-6.908,0.0,0.0,0.0,-2.8104,0.0076,19.1588,0.0,0.0,0.0,3.0367,0.0016,1.1856,0.7514,0.0567,0.0,0.04,0.0,0.0034,0.04,0.0,-0.0034
states,52054,152714835,0.012,0.0,0.0,-0.5697,-0.0071,-6.908,0.0,0.0,0.0,-2.8104,0.0076,19.1588,0.0,0.0,0.0,3.0367,0.0016,1.1856,0.7514,0.0567,0.0,0.04,0.0,0.0034,0.04,0.0,-0.0034
states,52054,169381503,0.012,0.0,0.0,-0.5697,-0.0071,-6.908,0.0,0.0,0.0,-2.8104,0.0076,19.1588,0.0,0.0,0.0,3.0367,0.0016,1.1856,0.7514,0.0567,0.0,0.04,0.0,0.0034,0.04,0.0,-0.0034
states,52054,186048170,0.012,0.0,0.0,-0.5697,-0.0071,-6.908,0.0,0.0,0.0,-2.8104,0.0076,19.1588,0.0,0.0,0.0,3.0367,0.0016,1.1856,0.7514,0.0567,0.0,0.04,0.0,0.0034,0.04,0.0,-0.0034
states,52054,202714838,0.012,0.0,0.0,-0.5697,-0.0071,-6.908,0.0,0.0,0.0,-2.8104,0.0076,19.1588,0.0,0.0,0.0,3.0367,0.0016,1.1856,0.7514,0.0567,0.0,0.04,0.0,0.0034,0.04,0.0,-0.0034
states,52054,219381505,0.012,0.0,0.0,-0.5697,-0.0071,-6.908,0.0,0.0,0.0,-2.8104,0.0076,19.1588,0.0,0.0,0.0,3.0367,0.0016,1.1856,0.7514,0.0567,0.0,0.04,0.0,0.0034,0.04,0.0,-0.0034
states,52054,236048173,0.012,0.0,0.0,-0.5697,-0.0071,-6.908,0.0,0.0,0.0,-2.8104,0.0076,19.1588,0.0,0.0,0.0,3.0367,0.0016,1.1856,0.7514,0.0567,0.0,0.04,0.0,0.0034,0.04,0.0,-0.0034
states,52054,252714840,0.012,0.0,0.0,-0.5697,-0.0071,-6.908,0.0,0.0,0.0,-2.8104,0.0076,19.1588,0.0,0.0,0.0,3.0367,0.0016,1.1856,0.7514,0.0567,0.0,0.04,0.0,0.0034,0.04,0.0,-0.0034
states,52054,269381508,0.012,0.0,0.0,-0.5697,-0.0071,-6.908,0.0,0.0,0.0,-2.8104,0.0076,19.1588,0.0,0.0,0.0,3.0367,0.0016,1.1856,0.7514,0.0567,0.0,0.04,0.0,0.0034,0.04,0.0,-0.0034
states,52054,286048175,0.012,0.0,0.0,-0.5697,-0.0071,-6.908,0.0,0.0,0.0,-2.8104,0.0076,19.1588,0.0,0.0,0.0,3.0367,0.0016,1.1856,0.7514,0.0567,0.0,0.04,0.0,0.0034,0.04,0.0,-0.0034
states,52054,302714843,0.012,0.0,0.0,-0.5697,-0.0071,-6.908,0.0,0.0,0.0,-2.8104,0.0076,19.1588,0.0,0.0,0.0,3.0367,0.0016,1.1856,0.7514,0.0567,0.0,0.04,0.0,0.0034,0.04,0.0,-0.0034
states,52054,319381510,0.012,0.0,0.0,-0.5697,-0.0071,-6.908,0.0,0.0,0.0,-2.8104,0.0076,19.1588,0.0,0.0,0.0,3.0367,0.0016,1.1856,0.7514,0.0567,0.0,0.04,0.0,0.0034,0.04,0.0,-0.0034
states,52054,336048178,0.012,0.0,0.0,-0.5697,-0.0071,-6.908,0.0,0.0,0.0,-2.8104,0.0076,19.1588,0.0,0.0,0.0,3.0367,0.0016,1.1856,0.7514,0.0567,0.0,0.04,0.0,0.0034,0.04,0.0,-0.0034
states,52054,352714845,0.012,0.0,0.0,-0.5697,-0.0071,-6.908,0.0,0.0,0.0,-2.8104,0.0076,19.1588,0.0,0.0,0.0,3.0367,0.0016,1.1856,0.7514,0.0567,0.0,0.04,0.0,0.0034,0.04,0.0,-0.0034
states,52054,369381513,0.012,0.0,0.0,-0.5697,-0.0071,-6.908,0.0,0.0,0.0,-2.8104,0.0076,19.1588,0.0,0.0,0.0,3.0367,0.0016,1.1856,0.7514,0.0567,0.0,0.04,0.0,0.0034,0.04,0.0,-0.0034
states,52054,386048180,0.012,0.0,0.0,-0.5697,-0.0071,-6.908,0.0,0.0,0.0,-2.8104,0.0076,19.1588,0.0,0.0,0.0,3.0367,0.0016,1.1856,0.7514,0.0567,0.0,0.04,0.0,0.0034,0.04,0.0,-0.0034
states,52054,402714848,0.012,0.0,0.0,-0.5697,-0.0071,-6.908,0.0,0.0,0.0,-2.8104,0.0076,19.1588,0.0,0.0,0.0,3.0367,0.0016,1.1856,0.7514,0.0567,0.0,0.04,0.0,0.0034,0.04,0.0,-0.0034
states,52054,419381516,0.012,0.0,0.0,-0.5697,-0.0071,-6.908,0.0,0.0,0.0,-2.8104,0.0076,19.1588,0.0,0.0,0.0,3.0367,0.0016,1.1856,0.7514,0.0567,0.0,0.04,0.0,0.0034,0.04,0.0,-0.0034
states,52054,436048183,0.012,0.0,0.0,-0.5697,-0.0071,-6.908,0.0,0.0,0.0,-2.8104,0.0076,19.1588,0.0,0.0,0.0,3.0367,0.0016,1.1856,0.7514,0.0567,0.0,0.04,0.0,0.0034,0.04,0.0,-0.0034
states,52054,452714851,0.012,0.0,0.0,-0.5697,-0.0071,-6.908,0.0,0.0,0.0,-2.8104,0.0076,19.1588,0.0,0.0,0.0,3.0367,0.0016,1.1856,0.7514,0.0567,0.0,0.04,0.0,0.0034,0.04,0.0,-0.0034
states,52054,469381518,0.012,0.0,0.0,-0.5697,-0.0071,-6.908,0.0,0.0,0.0,-2.8104,0.0076,19.1588,0.0,0.0,0.0,3.0367,0.0016,1.1856,0.7514,0.0567,0.0,0.04,0.0,0.0034,0.04,0.0,-0.0034
states,52054,486048186,0.012,0.0,0.0,-0.5697,-0.0071,-6.908,0.0,0.0,0.0,-2.8104,0.0076,19.1588,0.0,0.0,0.0,3.0367,0.0016,1.1856,0.7514,0.0567,0.0,0.04,0.0,0.0034,0.04,0.0,-0.0034
states,52054,502714853,0.012,0.0,0.0,-0.5697,-0.0071,-6.908,0.0,0.0,0.0,-2.8104,0.0076,19.1588,0.0,0.0,0.0,3.0367,0.0016,1.1856,0.7514,0.0567,0.0,0.04,0.0,0.0034,0.04,0.0,-0.0034
states,52054,519381521,0.012,0.0,0.0,-0.5697,-0.0071,-6.908,0.0,0.0,0.0,-2.8104,0.0076,19.1588,0.0,0.0,0.0,3.0367,0.0016,1.1856,0.7514,0.0567,0.0,0.04,0.0,0.0034,0.04,0.0,-0.0034
states,52054,536048188,0.012,0.0,0.0,-0.5697,-0.0071,-6.908,0.0,0.0,0.0,-2.8104,0.0076,19.1588,0.0,0.0,0.0,3.0367,0.0016,1.1856,0.7514,0.0567,0.0,0.04,0.0,0.0034,0.04,0.0,-0.0034
states,52054,552714856,0.012,0.0,0.0,-0.5697,-0.0071,-6.908,0.0,0.0,0.0,-2.8104,0.0076,19.1588,0.0,0.0,0.0,3.0367,0.0016,1.1856,0.7514,0.0567,0.0,0.04,0.0,0.0034,0.04,0.0,-0.0034
states,52054,569381523,0.012,0.0,0.0,-0.5697,-0.0071,-6.908,0.0,0.0,0.0,-2.8104,0.0076,19.1588,0.0,0.0,0.0,3.0367,0.0016,1.1856,0.7514,0.0567,0.0,0.04,0.0,0.0034,0.04,0.0,-0.0034
states,52054,586048191,0.012,0.0,0.0,-0.5697,-0.0071,-6.908,0.0,0.0,0.0,-2.8104,0.0076,19.1588,0.0,0.0,0.0,3.0367,0.0016,1.1856,0.7514,0.0567,0.0,0.04,0.0,0.0034,0.04,0.0,-0.0034
states,52054,602714858,0.012,0.0,0.0,-0.5697,-0.0071,-6.908,0.0,0.0,0.0,-2.8104,0.0076,19.1588,0.0,0.0,0.0,3.0367,0.0016,1.1856,0.7514,0.0567,0.0,0.04,0.0,0.0034,0.04,0.0,-0.0034
states,52054,619381526,0.012,0.0,0.0,-0.5697,-0.0071,-6.908,0.0,0.0,0.0,-2.8104,0.0076,19.1588,0.0,0.0,0.0,3.0367,0.0016,1.1856,0.7514,0.0567,0.0,0.04,0.0,0.0034,0.04,0.0,-0.0034
states,52054,636048194,0.012,0.0,0.0,-0.5697,-0.0071,-6.908,0.0,0.0,0.0,-2.8104,0.0076,19.1588,0.0,0.0,0.0,3.0367,0.0016,1.1856,0.7514,0.0567,0.0,0.04,0.0,0.0034,0.04,0.0,-0.0034
states,52054,652714861,0.012,0.0,0.0,-0.5697,-0.0071,-6.908,0.0,0.0,0.0,-2.8104,0.0076,19.1588,0.0,0.0,0.0,3.0367,0.0016,1.1856,0.7514,0.0567,0.0,0.04,0.0,0.0034,0.04,0.0,-0.0034
states,52054,669381529,0.012,0.0,0.0,-0.5697,-0.0071,-6.908,0.0,0.0,0.0,-2.8104,0.0076,19.1588,0.0,0.0,0.0,3.0367,0.0016,1.1856,0.7514,0.0567,0.0,0.04,0.0,0.0034,0.04,0.0,-0.0034
states,52054,686048196,0.012,0.0,0.0,-0.5697,-0.0071,-6.908,0.0,0.0,0.0,-2.8104,0.0076,19.1588,0.0,0.0,0.0,3.0367,0.0016,1.1856,0.7514,0.0567,0.0,0.04,0.0,0.0034,0.04,0.0,-0.0034
states,52054,702714864,0.012,0.0,0.0,-0.5697,-0.0071,-6.908,0.0,0.0,0.0,-2.8104,0.0076,19.1588,0.0,0.0,0.0,3.0367,0.0016,1.1856,0.7514,0.0567,0.0,0.04,0.0,0.0034,0.04,0.0,-0.0034
states,52054,719381531,0.012,0.0,0.0,-0.5697,-0.0071,-6.908,0.0,0.0,0.0,-2.8104,0.0076,19.1588,0.0,0.0,0.0,3.0367,0.0016,1.1856,0.7514,0.0567,0.0,0.04,0.0,0.0034,0.04,0.0,-0.0034
states,52054,736048199,0.012,0.0,0.0,-0.5697,-0.0071,-6.908,0.0,0.0,0.0,-2.8104,0.0076,19.1588,0.0,0.0,0.0,3.0367,0.0016,1.1856,0.7514,0.0567,0.0,0.04,0.0,0.0034,0.04,0.0,-0.0034
states,52054,752714866,0.012,0.0,0.0,-0.5697,-0.0071,-6.908,0.0,0.0,0.0,-2.8104,0.0076,19.1588,0.0,0.0,0.0,3.0367,0.0016,1.1856,0.7514,0.0567,0.0,0.04,0.0,0.0034,0.04,0.0,-0.0034
states,52054,769381534,0.012,0.0,0.0,-0.5697,-0.0071,-6.908,0.0,0.0,0.0,-2.8104,0.0076,19.1588,0.0,0.0,0.0,3.0367,0.0016,1.1856,0.7514,0.0567,0.0,0.04,0.0,0.0034,0.04,0.0,-0.0034
states,52054,786048201,0.012,0.0,0.0,-0.5697,-0.0071,-6.908,0.0,0.0,0.0,-2.8104,0.0076,19.1588,0.0,0.0,0.0,3.0367,0.0016,1.1856,0.7514,0.0567,0.0,0.04,0.0,0.0034,0.04,0.0,-0.0034
states,52054,802714869,0.012,0.0,0.0,-0.5697,-0.0071,-6.908,0.0,0.0,0.0,-2.8104,0.0076,19.1588,0.0,0.0,0.0,3.0367,0.0016,1.1856,0.7514,0.0567,0.0,0.04,0.0,0.0034,0.04,0.0,-0.0034
states,52054,819381536,0.012,0.0,0.0,-0.5697,-0.0071,-6.908,0.0,0.0,0.0,-2.8104,0.0076,19.1588,0.0,0.0,0.0,3.0367,0.0016,1.1856,0.7514,0.0567,0.0,0.04,0.0,0.0034,0.04,0.0,-0.0034
states,52054,836048204,0.012,0.0,0.0,-0.5697,-0.0071,-6.908,0.0,0.0,0.0,-2.8104,0.0076,19.1588,0.0,0.0,0.0,3.0367,0.0016,1.1856,0.7514,0.0567,0.0,0.04,0.0,0.0034,0.04,0.0,-0.0034
states,52054,852714871,0.012,0.0,0.0,-0.5697,-0.0071,-6.908,0.0,0.0,0.0,-2.8104,0.0076,19.1588,0.0,0.0,0.0,3.0367,0.0016,1.1856,0.7514,0.0567,0.0,0.04,0.0,0.0034,0.04,0.0,-0.0034
states,52054,869381539,0.012,0.0,0.0,-0.5697,-0.0071,-6.908,0.0,0.0,0.0,-2.8104,0.0076,19.1588,0.0,0.0,0.0,3.0367,0.0016,1.1856,0.7514,0.0567,0.0,0.04,0.0,0.0034,0.04,0.0,-0.0034
states,52054,886048207,0.012,0.0,0.0,-0.5697,-0.0071,-6.908,0.0,0.0,0.0,-2.8104,0.0076,19.1588,0.0,0.0,0.0,3.0367,0.0016,1.1856,0.7514,0.0567,0.0,0.04,0.0,0.0034,0.04,0.0,-0.0034
states,52054,902714874,0.012,0.0,0.0,-0.5697,-0.0071,-6.908,0.0,0.0,0.0,-2.8104,0.0076,19.1588,0.0,0.0,0.0,3.0367,0.0016,1.1856,0.7514,0.0567,0.0,0.04,0.0,0.0034,0.04,0.0,-0.0034
states,52054,919381542,0.012,0.0,0.0,-0.5697,-0.0071,-6.908,0.0,0.0,0.0,-2.8104,0.0076,19.1588,0.0,0.0,0.0,3.0367,0.0016,1.1856,0.7514,0.0567,0.0,0.04,0.0,0.0034,0.04,0.0,-0.0034
states,52054,936048209,0.012,0.0,0.0,-0.5697,-0.0071,-6.908,0.0,0.0,0.0,-2.8104,0.0076,19.1588,0.0,0.0,0.0,3.0367,0.0016,1.1856,0.7514,0.0567,0.0,0.04,0.0,0.0034,0.04,0.0,-0.0034
states,52054,952714877,0.012,0.0,0.0,-0.5697,-0.0071,-6.908,0.0,0.0,0.0,-2.8104,0.0076,19.1588,0.0,0.0,0.0,3.0367,0.0016,1.1856,0.7514,0.0567,0.0,0.04,0.0,0.0034,0.04,0.0,-0.0034
states,52054,969381544,0.012,0.0,0.0,-0.5697,-0.0071,-6.908,0.0,0.0,0.0,-2.8104,0.0076,19.1588,0.0,0.0,0.0,3.0367,0.0016,1.1856,0.7514,0.0567,0.0,0.04,0.0,0.0034,0.04,0.0,-0.0034
states,52054,986048212,0.012,0.0,0.0,-0.5697,-0.0071,-6.908,0.0,0.0,0.0,-2.8104,0.0076,19.1588,0.0,0.0,0.0,3.0367,0.0016,1.1856,0.7514,0.0567,0.0,0.04,0.0,0.0034,0.04,0.0,-0.0034
states,52055,2714879,0.012,0.0,0.0,-0.5697,-0.0071,-6.908,0.0,0.0,0.0,-2.8104,0.0076,19.1588,0.0,0.0,0.0,3.0367,0.0016,1.1856,0.7514,0.0567,0.0,0.04,0.0,0.0034,0.04,0.0,-0.0034
states,52055,19381547,0.012,0.0,0.0,-0.5697,-0.0071,-6.908,0.0,0.0,0.0,-2.8104,0.0076,19.1588,0.0,0.0,0.0,3.0367,0.0016,1.1856,0.7514,0.0567,0.0,0.04,0.0,0.0034,0.04,0.0,-0.0034
states,52055,36048214,0.012,0.0,0.0,-0.5697,-0.0071,-6.908,0.0,0.0,0.0,-2.8104,0.0076,19.1588,0.0,0.0,0.0,3.0367,0.0016,1.1856,0.7514,0.0567,0.0,0.04,0.0,0.0034,0.04,0.0,-0.0034
states,52055,52714882,0.012,0.0,0.0,-0.5697,-0.0071,-6.908,0.0,0.0,0.0,-2.8104,0.0076,19.1588,0.0,0.0,0.0,3.0367,0.0016,1.1856,0.7514,0.0567,0.0,0.04,0.0,0.0034,0.04,0.0,-0.0034
states,52055,69381549,0.012,0.0,0.0,-0.5697,-0.0071,-6.908,0.0,0.0,0.0,-2.8104,0.0076,19.1588,0.0,0.0,0.0,3.0367,0.0016,1.1856,0.7514,0.0567,0.0,0.04,0.0,0.0034,0.04,0.0,-0.0034
states,52055,86048217,0.012,0.0,0.0,-0.5697,-0.0071,-6.908,0.0,0.0,0.0,-2.8104,0.0076,19.1588,0.0,0.0,0.0,3.0367,0.0016,1.1856,0.7514,0.0567,0.0,0.04,0.0,0.0034,0.04,0.0,-0.0034
states,52055,102714885,0.012,0.0,0.0,-0.5697,-0.0071,-6.908,0.0,0.0,0.0,-2.8104,0.0076,19.1588,0.0,0.0,0.0,3.0367,0.0016,1.1856,0.7514,0.0567,0.0,0.04,0.0,0.0034,0.04,0.0,-0.0034
states,52055,119381552,0.012,0.0,0.0,-0.5697,-0.0071,-6.908,0.0,0.0,0.0,-2.8104,0.0076,19.1588,0.0,0.0,0.0,3.0367,0.0016,1.1856,0.7514,0.0567,0.0,0.04,0.0,0.0034,0.04,0.0,-0.0034
states,52055,136048220,0.012,0.0,0.0,-0.5697,-0.0071,-6.908,0.0,0.0,0.0,-2.8104,0.0076,19.1588,0.0,0.0,0.0,3.0367,0.0016,1.1856,0.7514,0.0567,0.0,0.04,0.0,0.0034,0.04,0.0,-0.0034
states,52055,152714887,0.012,0.0,0.0,-0.5697,-0.0071,-6.908,0.0,0.0,0.0,-2.8104,0.0076,19.1588,0.0,0.0,0.0,3.0367,0.0016,1.1856,0.7514,0.0567,0.0,0.04,0.0,0.0034,0.04,0.0,-0.0034
states,52055,169381555,0.012,0.0,0.0,-0.5697,-0.0071,-6.908,0.0,0.0,0.0,-2.8104,0.0076,19.1588,0.0,0.0,0.0,3.0367,0.0016,1.1856,0.7514,0.0567,0.0,0.04,0.0,0.0034,0.04,0.0,-0.0034
states,52055,186048222,0.012,0.0,0.0,-0.5697,-0.0071,-6.908,0.0,0.0,0.0,-2.8104,0.0076,19.1588,0.0,0.0,0.0,3.0367,0.0016,1.1856,0.7514,0.0567,0.0,0.04,0.0,0.0034,0.04,0.0,-0.0034
states,52055,202714890,0.012,0.0,0.0,-0.5697,-0.0071,-6.908,0.0,0.0,0.0,-2.8104,0.0076,19.1588,0.0,0.0,0.0,3.0367,0.0016,1.1856,0.7514,0.0567,0.0,0.04,0.0,0.0034,0.04,0.0,-0.0034
states,52055,219381557,0.012,0.0,0.0,-0.5697,-0.0071,-6.908,0.0,0.0,0.0,-2.8104,0.0076,19.1588,0.0,0.0,0.0,3.0367,0.0016,1.1856,0.7514,0.0567,0.0,0.04,0.0,0.0034,0.04,0.0,-0.0034
states,52055,236048225,0.012,0.0,0.0,-0.5697,-0.0071,-6.908,0.0,0.0,0.0,-2.8104,0.0076,19.1588,0.0,0.0,0.0,3.0367,0.0016,1.1856,0.7514,0.0567,0.0,0.04,0.0,0.0034,0.04,0.0,-0.0034
states,52055,252714892,0.012,0.0,0.0,-0.5697,-0.0071,-6.908,0.0,0.0,0.0,-2.8104,0.0076,19.1588,0.0,0.0,0.0,3.0367,0.0016,1.1856,0.7514,0.0567,0.0,0.04,0.0,0.0034,0.04,0.0,-0.0034
states,52055,269381560,0.012,0.0,0.0,-0.5697,-0.0071,-6.908,0.0,0.0,0.0,-2.8104,0.0076,19.1588,0.0,0.0,0.0,3.0367,0.0016,1.1856,0.7514,0.0567,0.0,0.04,0.0,0.0034,0.04,0.0,-0.0034
states,52055,286048227,0.012,0.0,0.0,-0.5697,-0.0071,-6.908,0.0,0.0,0.0,-2.8104,0.0076,19.1588,0.0,0.0,0.0,3.0367,0.0016,1.1856,0.7514,0.0567,0.0,0.04,0.0,0.0034,0.04,0.0,-0.0034
states,52055,302714895,0.012,0.0,0.0,-0.5697,-0.0071,-6.908,0.0,0.0,0.0,-2.8104,0.0076,19.1588,0.0,0.0,0.0,3.0367,0.0016,1.1856,0.7514,0.0567,0.0,0.04,0.0,0.0034,0.04,0.0,-0.0034
states,52055,319381562,0.012,0.0,0.0,-0.5697,-0.0071,-6.908,0.0,0.0,0.0,-2.8104,0.0076,19.1588,0.0,0.0,0.0,3.0367,0.0016,1.1856,0.7514,0.0567,0.0,0.04,0.0,0.0034,0.04,0.0,-0.0034
states,52055,336048230,0.012,0.0,0.0,-0.5697,-0.0071,-6.908,0.0,0.0,0.0,-2.8104,0.0076,19.1588,0.0,0.0,0.0,3.0367,0.0016,1.1856,0.7514,0.0567,0.0,0.04,0.0,0.0034,0.04,0.0,-0.0034
states,52055,352714898,0.012,0.0,0.0,-0.5697,-0.0071,-6.908,0.0,0.0,0.0,-2.8104,0.0076,19.1588,0.0,0.0,0.0,3.0367,0.0016,1.1856,0.7514,0.0567,0.0,0.04,0.0,0.0034,0.04,0.0,-0.0034
states,52055,369381565,0.012,0.0,0.0,-0.5697,-0.0071,-6.908,0.0,0.0,0.0,-2.8104,0.0076,19.1588,0.0,0.0,0.0,3.0367,0.0016,1.1856,0.7514,0.0567,0.0,0.04,0.0,0.0034,0.04,0.0,-0.0034
states,52055,386048233,0.012,0.0,0.0,-0.5697,-0.0071,-6.908,0.0,0.0,0.0,-2.8104,0.0076,19.1588,0.0,0.0,0.0,3.0367,0.0016,1.1856,0.7514,0.0567,0.0,0.04,0.0,0.0034,0.04,0.0,-0.0034
states,52055,402714900,0.012,0.0,0.0,-0.5697,-0.0071,-6.908,0.0,0.0,0.0,-2.8104,0.0076,19.1588,0.0,0.0,0.0,3.0367,0.0016,1.1856,0.7514,0.0567,0.0,0.04,0.0,0.0034,0.04,0.0,-0.0034
states,52055,419381568,0.012,0.0,0.0,-0.5697,-0.0071,-6.908,0.0,0.0,0.0,-2.8104,0.0076,19.1588,0.0,0.0,0.0,3.0367,0.0016,1.1856,0.7514,0.0567,0.0,0.04,0.0,0.0034,0.04,0.0,-0.0034
states,52055,436048235,0.012,0.0,0.0,-0.5697,-0.0071,-6.908,0.0,0.0,0.0,-2.8104,0.0076,19.1588,0.0,0.0,0.0,3.0367,0.0016,1.1856,0.7514,0.0567,0.0,0.04,0.0,0.0034,0.04,0.0,-0.0034
states,52055,452714903,0.012,0.0,0.0,-0.5697,-0.0071,-6.908,0.0,0.0,0.0,-2.8104,0.0076,19.1588,0.0,0.0,0.0,3.0367,0.0016,1.1856,0.7514,0.0567,0.0,0.04,0.0,0.0034,0.04,0.0,-0.0034
states,52055,469381570,0.012,0.0,0.0,-0.5697,-0.0071,-6.908,0.0,0.0,0.0,-2.8104,0.0076,19.1588,0.0,0.0,0.0,3.0367,0.0016,1.1856,0.7514,0.0567,0.0,0.04,0.0,0.0034,0.04,0.0,-0.0034
states,52055,486048238,0.012,0.0,0.0,-0.5697,-0.0071,-6.908,0.0,0.0,0.0,-2.8104,0.0076,19.1588,0.0,0.0,0.0,3.0367,0.0016,1.1856,0.7514,0.0567,0.0,0.04,0.0,0.0034,0.04,0.0,-0.0034
states,52055,502714905,0.012,0.0,0.0,-0.5697,-0.0071,-6.908,0.0,0.0,0.0,-2.8104,0.0076,19.1588,0.0,0.0,0.0,3.0367,0.0016,1.1856,0.7514,0.0567,0.0,0.04,0.0,0.0034,0.04,0.0,-0.0034
states,52055,519381573,0.012,0.0,0.0,-0.5697,-0.0071,-6.908,0.0,0.0,0.0,-2.8104,0.0076,19.1588,0.0,0.0,0.0,3.0367,0.0016,1.1856,0.7514,0.0567,0.0,0.04,0.0,0.0034,0.04,0.0,-0.0034
states,52055,536048240,0.012,0.0,0.0,-0.5697,-0.0071,-6.908,0.0,0.0,0.0,-2.8104,0.0076,19.1588,0.0,0.0,0.0,3.0367,0.0016,1.1856,0.7514,0.0567,0.0,0.04,0.0,0.0034,0.04,0.0,-0.0034
states,52055,552714908,0.012,0.0,0.0,-0.5697,-0.0071,-6.908,0.0,0.0,0.0,-2.8104,0.0076,19.1588,0.0,0.0,0.0,3.0367,0.0016,1.1856,0.7514,0.0567,0.0,0.04,0.0,0.0034,0.04,0.0,-0.0034
states,52055,569381576,0.012,0.0,0.0,-0.5697,-0.0071,-6.908,0.0,0.0,0.0,-2.8104,0.0076,19.1588,0.0,0.0,0.0,3.0367,0.0016,1.1856,0.7514,0.0567,0.0,0.04,0.0,0.0034,0.04,0.0,-0.0034
states,52055,586048243,0.012,0.0,0.0,-0.5697,-0.0071,-6.908,0.0,0.0,0.0,-2.8104,0.0076,19.1588,0.0,0.0,0.0,3.0367,0.0016,1.1856,0.7514,0.0567,0.0,0.04,0.0,0.0034,0.04,0.0,-0.0034
states,52055,602714911,0.012,0.0,0.0,-0.5697,-0.0071,-6.908,0.0,0.0,0.0,-2.8104,0.0076,19.1588,0.0,0.0,0.0,3.0367,0.0016,1.1856,0.7514,0.0567,0.0,0.04,0.0,0.0034,0.04,0.0,-0.0034
states,52055,619381578,0.012,0.0,0.0,-0.5697,-0.0071,-6.908,0.0,0.0,0.0,-2.8104,0.0076,19.1588,0.0,0.0,0.0,3.0367,0.0016,1.1856,0.7514,0.0567,0.0,0.04,0.0,0.0034,0.04,0.0,-0.0034
states,52055,636048246,0.012,0.0,0.0,-0.5697,-0.0071,-6.908,0.0,0.0,0.0,-2.8104,0.0076,19.1588,0.0,0.0,0.0,3.0367,0.0016,1.1856,0.7514,0.0567,0.0,0.04,0.0,0.0034,0.04,0.0,-0.0034
states,52055,652714913,0.012,0.0,0.0,-0.5697,-0.0071,-6.908,0.0,0.0,0.0,-2.8104,0.0076,19.1588,0.0,0.0,0.0,3.0367,0.0016,1.1856,0.7514,0.0567,0.0,0.04,0.0,0.0034,0.04,0.0,-0.0034
states,52055,669381581,0.012,0.0,0.0,-0.5697,-0.0071,-6.908,0.0,0.0,0.0,-2.8104,0.0076,19.1588,0.0,0.0,0.0,3.0367,0.0016,1.1856,0.7514,0.0567,0.0,0.04,0.0,0.0034,0.04,0.0,-0.0034
states,52055,686048248,0.012,0.0,0.0,-0.5697,-0.0071,-6.908,0.0,0.0,0.0,-2.8104,0.0076,19.1588,0.0,0.0,0.0,3.0367,0.0016,1.1856,0.7514,0.0567,0.0,0.04,0.0,0.0034,0.04,0.0,-0.0034
states,52055,702714916,0.012,0.0,0.0,-0.5697,-0.0071,-6.908,0.0,0.0,0.0,-2.8104,0.0076,19.1588,0.0,0.0,0.0,3.0367,0.0016,1.1856,0.7514,0.0567,0.0,0.04,0.0,0.0034,0.04,0.0,-0.0034
states,52055,719381583,0.012,0.0,0.0,-0.5697,-0.0071,-6.908,0.0,0.0,0.0,-2.8104,0.0076,19.1588,0.0,0.0,0.0,3.0367,0.0016,1.1856,0.7514,0.0567,0.0,0.04,0.0,0.0034,0.04,0.0,-0.0034
states,52055,736048251,0.012,0.0,0.0,-0.5697,-0.0071,-6.908,0.0,0.0,0.0,-2.8104,0.0076,19.1588,0.0,0.0,0.0,3.0367,0.0016,1.1856,0.7514,0.0567,0.0,0.04,0.0,0.0034,0.04,0.0,-0.0034
states,52055,752714918,0.012,0.0,0.0,-0.5697,-0.0071,-6.908,0.0,0.0,0.0,-2.8104,0.0076,19.1588,0.0,0.0,0.0,3.0367,0.0016,1.1856,0.7514,0.0567,0.0,0.04,0.0,0.0034,0.04,0.0,-0.0034
states,52055,769381586,0.012,0.0,0.0,-0.5697,-0.0071,-6.908,0.0,0.0,0.0,-2.8104,0.0076,19.1588,0.0,0.0,0.0,3.0367,0.0016,1.1856,0.7514,0.0567,0.0,0.04,0.0,0.0034,0.04,0.0,-0.0034
states,52055,786048254,0.012,0.0,0.0,-0.5697,-0.0071,-6.908,0.0,0.0,0.0,-2.8104,0.0076,19.1588,0.0,0.0,0.0,3.0367,0.0016,1.1856,0.7514,0.0567,0.0,0.04,0.0,0.0034,0.04,0.0,-0.0034
states,52055,802714921,0.012,0.0,0.0,-0.5697,-0.0071,-6.908,0.0,0.0,0.0,-2.8104,0.0076,19.1588,0.0,0.0,0.0,3.0367,0.0016,1.1856,0.7514,0.0567,0.0,0.04,0.0,0.0034,0.04,0.0,-0.0034
states,52055,819381589,0.012,0.0,0.0,-0.5697,-0.0071,-6.908,0.0,0.0,0.0,-2.8104,0.0076,19.1588,0.0,0.0,0.0,3.0367,0.0016,1.1856,0.7514,0.0567,0.0,0.04,0.0,0.0034,0.04,0.0,-0.0034
states,52055,836048256,0.012,0.0,0.0,-0.5697,-0.0071,-6.908,0.0,0.0,0.0,-2.8104,0.0076,19.1588,0.0,0.0,0.0,3.0367,0.0016,1.1856,0.7514,0.0567,0.0,0.04,0.0,0.0034,0.04,0.0,-0.0034
states,52055,852714924,0.012,0.0,0.0,-0.5697,-0.0071,-6.908,0.0,0.0,0.0,-2.8104,0.0076,19.1588,0.0,0.0,0.0,3.0367,0.0016,1.1856,0.7514,0.0567,0.0,0.04,0.0,0.0034,0.04,0.0,-0.0034
states,52055,869381591,0.012,0.0,0.0,-0.5697,-0.0071,-6.908,0.0,0.0,0.0,-2.8104,0.0076,19.1588,0.0,0.0,0.0,3.0367,0.0016,1.1856,0.7514,0.0567,0.0,0.04,0.0,0.0034,0.04,0.0,-0.0034
states,52055,886048259,0.012,0.0,0.0,-0.5697,-0.0071,-6.908,0.0,0.0,0.0,-2.8104,0.0076,19.1588,0.0,0.0,0.0,3.0367,0.0016,1.1856,0.7514,0.0567,0.0,0.04,0.0,0.0034,0.04,0.0,-0.0034
states,52055,902714926,0.012,0.0,0.0,-0.5697,-0.0071,-6.908,0.0,0.0,0.0,-2.8104,0.0076,19.1588,0.0,0.0,0.0,3.0367,0.0016,1.1856,0.7514,0.0567,0.0,0.04,0.0,0.0034,0.04,0.0,-0.0034
states,52055,919381594,0.012,0.0,0.0,-0.5697,-0.0071,-6.908,0.0,0.0,0.0,-2.8104,0.0076,19.1588,0.0,0.0,0.0,3.0367,0.0016,1.1856,0.7514,0.0567,0.0,0.04,0.0,0.0034,0.04,0.0,-0.0034
states,52055,936048261,0.012,0.0,0.0,-0.5697,-0.0071,-6.908,0.0,0.0,0.0,-2.8104,0.0076,19.1588,0.0,0.0,0.0,3.0367,0.0016,1.1856,0.7514,0.0567,0.0,0.04,0.0,0.0034,0.04,0.0,-0.0034
states,52055,952714929,0.012,0.0,0.0,-0.5697,-0.0071,-6.908,0.0,0.0,0.0,-2.8104,0.0076,19.1588,0.0,0.0,0.0,3.0367,0.0016,1.1856,0.7514,0.0567,0.0,0.04,0.0,0.0034,0.04,0.0,-0.0034
states,52055,969381596,0.012,0.0,0.0,-0.5697,-0.0071,-6.908,0.0,0.0,0.0,-2.8104,0.0076,19.1588,0.0,0.0,0.0,3.0367,0.0016,1.1856,0.7514,0.0567,0.0,0.04,0.0,0.0034,0.04,0.0,-0.0034
states,52055,986048264,0.012,0.0,0.0,-0.5697,-0.0071,-6.908,0.0,0.0,0.0,-2.8104,0.0076,19.1588,0.0,0.0,0.0,3.0367,0.0016,1.1856,0.7514,0.0567,0.0,0.04,0.0,0.0034,0.04,0.0,-0.0034
states,52056,2714931,0.012,0.0,0.0,-0.5697,-0.0071,-6.908,0.0,0.0,0.0,-2.8104,0.0076,19.1588,0.0,0.0,0.0,3.0367,0.0016,1.1856,0.7514,0.0567,0.0,0.04,0.0,0.0034,0.04,0.0,-0.0034
states,52056,19381599,0.012,0.0,0.0,-0.5697,-0.0071,-6.908,0.0,0.0,0.0,-2.8104,0.0076,19.1588,0.0,0.0,0.0,3.0367,0.0016,1.1856,0.7514,0.0567,0.0,0.04,0.0,0.0034,0.04,0.0,-0.0034
states,52056,36048267,0.012,0.0,0.0,-0.5697,-0.0071,-6.908,0.0,0.0,0.0,-2.8104,0.0076,19.1588,0.0,0.0,0.0,3.0367,0.0016,1.1856,0.7514,0.0567,0.0,0.04,0.0,0.0034,0.04,0.0,-0.0034
states,52056,52714934,0.012,0.0,0.0,-0.5697,-0.0071,-6.908,0.0,0.0,0.0,-2.8104,0.0076,19.1588,0.0,0.0,0.0,3.0367,0.0016,1.1856,0.7514,0.0567,0.0,0.04,0.0,0.0034,0.04,0.0,-0.0034
states,52056,69381602,0.012,0.0,0.0,-0.5697,-0.0071,-6.908,0.0,0.0,0.0,-2.8104,0.0076,19.1588,0.0,0.0,0.0,3.0367,0.0016,1.1856,0.7514,0.0567,0.0,0.04,0.0,0.0034,0.04,0.0,-0.0034
states,52056,86048269,0.012,0.0,0.0,-0.5697,-0.0071,-6.908,0.0,0.0,0.0,-2.8104,0.0076,19.1588,0.0,0.0,0.0,3.0367,0.0016,1.1856,0.7514,0.0567,0.0,0.04,0.0,0.0034,0.04,0.0,-0.0034
states,52056,102714937,0.012,0.0,0.0,-0.5697,-0.0071,-6.908,0.0,0.0,0.0,-2.8104,0.0076,19.1588,0.0,0.0,0.0,3.0367,0.0016,1.1856,0.7514,0.0567,0.0,0.04,0.0,0.0034,0.04,0.0,-0.0034
states,52056,119381604,0.012,0.0,0.0,-0.5697,-0.0071,-6.908,0.0,0.0,0.0,-2.8104,0.0076,19.1588,0.0,0.0,0.0,3.0367,0.0016,1.1856,0.7514,0.0567,0.0,0.04,0.0,0.0034,0.04,0.0,-0.0034
states,52056,136048272,0.012,0.0,0.0,-0.5697,-0.0071,-6.908,0.0,0.0,0.0,-2.8104,0.0076,19.1588,0.0,0.0,0.0,3.0367,0.0016,1.1856,0.7514,0.0567,0.0,0.04,0.0,0.0034,0.04,0.0,-0.0034
states,52056,152714939,0.012,0.0,0.0,-0.5697,-0.0071,-6.908,0.0,0.0,0.0,-2.8104,0.0076,19.1588,0.0,0.0,0.0,3.0367,0.0016,1.1856,0.7514,0.0567,0.0,0.04,0.0,0.0034,0.04,0.0,-0.0034
states,52056,169381607,0.012,0.0,0.0,-0.5697,-0.0071,-6.908,0.0,0.0,0.0,-2.8104,0.0076,19.1588,0.0,0.0,0.0,3.0367,0.0016,1.1856,0.7514,0.0567,0.0,0.04,0.0,0.0034,0.04,0.0,-0.0034
states,52056,186048274,0.012,0.0,0.0,-0.5697,-0.0071,-6.908,0.0,0.0,0.0,-2.8104,0.0076,19.1588,0.0,0.0,0.0,3.0367,0.0016,1.1856,0.7514,0.0567,0.0,0.04,0.0,0.0034,0.04,0.0,-0.0034
states,52056,202714942,0.012,0.0,0.0,-0.5697,-0.0071,-6.908,0.0,0.0,0.0,-2.8104,0.0076,19.1588,0.0,0.0,0.0,3.0367,0.0016,1.1856,0.7514,0.0567,0.0,0.04,0.0,0.0034,0.04,0.0,-0.0034
states,52056,219381609,0.012,0.0,0.0,-0.5697,-0.0071,-6.908,0.0,0.0,0.0,-2.8104,0.0076,19.1588,0.0,0.0,0.0,3.0367,0.0016,1.1856,0.7514,0.0567,0.0,0.04,0.0,0.0034,0.04,0.0,-0.0034
states,52056,236048277,0.012,0.0,0.0,-0.5697,-0.0071,-6.908,0.0,0.0,0.0,-2.8104,0.0076,19.1588,0.0,0.0,0.0,3.0367,0.0016,1.1856,0.7514,0.0567,0.0,0.04,0.0,0.0034,0.04,0.0,-0.0034
states,52056,252714945,0.012,0.0,0.0,-0.5697,-0.0071,-6.908,0.0,0.0,0.0,-2.8104,0.0076,19.1588,0.0,0.0,0.0,3.0367,0.0016,1.1856,0.7514,0.0567,0.0,0.04,0.0,0.0034,0.04,0.0,-0.0034
states,52056,269381612,0.012,0.0,0.0,-0.5697,-0.0071,-6.908,0.0,0.0,0.0,-2.8104,0.0076,19.1588,0.0,0.0,0.0,3.0367,0.0016,1.1856,0.7514,0.0567,0.0,0.04,0.0,0.0034,0.04,0.0,-0.0034
states,52056,286048280,0.012,0.0,0.0,-0.5697,-0.0071,-6.908,0.0,0.0,0.0,-2.8104,0.0076,19.1588,0.0,0.0,0.0,3.0367,0.0016,1.1856,0.7514,0.0567,0.0,0.04,0.0,0.0034,0.04,0.0,-0.0034
states,52056,302714947,0.012,0.0,0.0,-0.5697,-0.0071,-6.908,0.0,0.0,0.0,-2.8104,0.0076,19.1588,0.0,0.0,0.0,3.0367,0.0016,1.1856,0.7514,0.0567,0.0,0.04,0.0,0.0034,0.04,0.0,-0.0034
states,52056,319381615,0.012,0.0,0.0,-0.5697,-0.0071,-6.908,0.0,0.0,0.0,-2.8104,0.0076,19.1588,0.0,0.0,0.0,3.0367,0.0016,1.1856,0.7514,0.0567,0.0,0.04,0.0,0.0034,0.04,0.0,-0.0034
states,52056,336048282,0.012,0.0,0.0,-0.5697,-0.0071,-6.908,0.0,0.0,0.0,-2.8104,0.0076,19.1588,0.0,0.0,0.0,3.0367,0.0016,1.1856,0.7514,0.0567,0.0,0.04,0.0,0.0034,0.04,0.0,-0.0034
states,52056,352714950,0.012,0.0,0.0,-0.5697,-0.0071,-6.908,0.0,0.0,0.0,-2.8104,0.0076,19.1588,0.0,0.0,0.0,3.0367,0.0016,1.1856,0.7514,0.0567,0.0,0.04,0.0,0.0034,0.04,0.0,-0.0034
states,52056,369381617,0.012,0.0,0.0,-0.5697,-0.0071,-6.908,0.0,0.0,0.0,-2.8104,0.0076,19.1588,0.0,0.0,0.0,3.0367,0.0016,1.1856,0.7514,0.0567,0.0,0.04,0.0,0.0034,0.04,0.0,-0.0034
states,52056,386048285,0.012,0.0,0.0,-0.5697,-0.0071,-6.908,0.0,0.0,0.0,-2.8104,0.0076,19.1588,0.0,0.0,0.0,3.0367,0.0016,1.1856,0.7514,0.0567,0.0,0.04,0.0,0.0034,0.04,0.0,-0.0034
states,52056,402714952,0.012,0.0,0.0,-0.5697,-0.0071,-6.908,0.0,0.0,0.0,-2.8104,0.0076,19.1588,0.0,0.0,0.0,3.0367,0.0016,1.1856,0.7514,0.0567,0.0,0.04,0.0,0.0034,0.04,0.0,-0.0034
states,52056,419381620,0.012,0.0,0.0,-0.5697,-0.0071,-6.908,0.0,0.0,0.0,-2.8104,0.0076,19.1588,0.0,0.0,0.0,3.0367,0.0016,1.1856,0.7514,0.0567,0.0,0.04,0.0,0.0034,0.04,0.0,-0.0034
states,52056,436048287,0.012,0.0,0.0,-0.5697,-0.0071,-6.908,0.0,0.0,0.0,-2.8104,0.0076,19.1588,0.0,0.0,0.0,3.0367,0.0016,1.1856,0.7514,0.0567,0.0,0.04,0.0,0.0034,0.04,0.0,-0.0034
states,52056,452714955,0.012,0.0,0.0,-0.5697,-0.0071,-6.908,0.0,0.0,0.0,-2.8104,0.0076,19.1588,0.0,0.0,0.0,3.0367,0.0016,1.1856,0.7514,0.0567,0.0,0.04,0.0,0.0034,0.04,0.0,-0.0034
states,52056,469381622,0.012,0.0,0.0,-0.5697,-0.0071,-6.908,0.0,0.0,0.0,-2.8104,0.0076,19.1588,0.0,0.0,0.0,3.0367,0.0016,1.1856,0.7514,0.0567,0.0,0.04,0.0,0.0034,0.04,0.0,-0.0034
states,52056,486048290,0.012,0.0,0.0,-0.5697,-0.0071,-6.908,0.0,0.0,0.0,-2.8104,0.0076,19.1588,0.0,0.0,0.0,3.0367,0.0016,1.1856,0.7514,0.0567,0.0,0.04,0.0,0.0034,0.04,0.0,-0.0034
states,52056,502714958,0.012,0.0,0.0,-0.5697,-0.0071,-6.908,0.0,0.0,0.0,-2.8104,0.0076,19.1588,0.0,0.0,0.0,3.0367,0.0016,1.1856,0.7514,0.0567,0.0,0.04,0.0,0.0034,0.04,0.0,-0.0034
states,52056,519381625,0.012,0.0,0.0,-0.5697,-0.0071,-6.908,0.0,0.0,0.0,-2.8104,0.0076,19.1588,0.0,0.0,0.0,3.0367,0.0016,1.1856,0.7514,0.0567,0.0,0.04,0.0,0.0034,0.04,0.0,-0.0034
states,52056,536048293,0.012,0.0,0.0,-0.5697,-0.0071,-6.908,0.0,0.0,0.0,-2.8104,0.0076,19.1588,0.0,0.0,0.0,3.0367,0.0016,1.1856,0.7514,0.0567,0.0,0.04,0.0,0.0034,0.04,0.0,-0.0034
states,52056,552714960,0.012,0.0,0.0,-0.5697,-0.0071,-6.908,0.0,0.0,0.0,-2.8104,0.0076,19.1588,0.0,0.0,0.0,3.0367,0.0016,1.1856,0.7514,0.0567,0.0,0.04,0.0,0.0034,0.04,0.0,-0.0034
states,52056,569381628,0.012,0.0,0.0,-0.5697,-0.0071,-6.908,0.0,0.0,0.0,-2.8104,0.0076,19.1588,0.0,0.0,0.0,3.0367,0.0016,1.1856,0.7514,0.0567,0.0,0.04,0.0,0.0034,0.04,0.0,-0.0034
states,52056,586048295,0.012,0.0,0.0,-0.5697,-0.0071,-6.908,0.0,0.0,0.0,-2.8104,0.0076,19.1588,0.0,0.0,0.0,3.0367,0.0016,1.1856,0.7514,0.0567,0.0,0.04,0.0,0.0034,0.04,0.0,-0.0034
states,52056,602714963,0.012,0.0,0.0,-0.5697,-0.0071,-6.908,0.0,0.0,0.0,-2.8104,0.0076,19.1588,0.0,0.0,0.0,3.0367,0.0016,1.1856,0.7514,0.0567,0.0,0.04,0.0,0.0034,0.04,0.0,-0.0034
states,52056,619381630,0.012,0.0,0.0,-0.5697,-0.0071,-6.908,0.0,0.0,0.0,-2.8104,0.0076,19.1588,0.0,0.0,0.0,3.0367,0.0016,1.1856,0.7514,0.0567,0.0,0.04,0.0,0.0034,0.04,0.0,-0.0034
states,52056,636048298,0.012,0.0,0.0,-0.5697,-0.0071,-6.908,0.0,0.0,0.0,-2.8104,0.0076,19.1588,0.0,0.0,0.0,3.0367,0.0016,1.1856,0.7514,0.0567,0.0,0.04,0.0,0.0034,0.04,0.0,-0.0034
states,52056,652714965,0.012,0.0,0.0,-0.5697,-0.0071,-6.908,0.0,0.0,0.0,-2.8104,0.0076,19.1588,0.0,0.0,0.0,3.0367,0.0016,1.1856,0.7514,0.0567,0.0,0.04,0.0,0.0034,0.04,0.0,-0.0034
states,52056,669381633,0.012,0.0,0.0,-0.5697,-0.0071,-6.908,0.0,0.0,0.0,-2.8104,0.0076,19.1588,0.0,0.0,0.0,3.0367,0.0016,1.1856,0.7514,0.0567,0.0,0.04,0.0,0.0034,0.04,0.0,-0.0034
states,52056,686048300,0.012,0.0,0.0,-0.5697,-0.0071,-6.908,0.0,0.0,0.0,-2.8104,0.0076,19.1588,0.0,0.0,0.0,3.0367,0.0016,1.1856,0.7514,0.0567,0.0,0.04,0.0,0.0034,0.04,0.0,-0.0034
states,52056,702714968,0.012,0.0,0.0,-0.5697,-0.0071,-6.908,0.0,0.0,0.0,-2.8104,0.0076,19.1588,0.0,0.0,0.0,3.0367,0.0016,1.1856,0.7514,0.0567,0.0,0.04,0.0,0.0034,0.04,0.0,-0.0034
states,52056,719381636,0.012,0.0,0.0,-0.5697,-0.0071,-6.908,0.0,0.0,0.0,-2.8104,0.0076,19.1588,0.0,0.0,0.0,3.0367,0.0016,1.1856,0.7514,0.0567,0.0,0.04,0.0,0.0034,0.04,0.0,-0.0034
states,52056,736048303,0.012,0.0,0.0,-0.5697,-0.0071,-6.908,0.0,0.0,0.0,-2.8104,0.0076,19.1588,0.0,0.0,0.0,3.0367,0.0016,1.1856,0.7514,0.0567,0.0,0.04,0.0,0.0034,0.04,0.0,-0.0034
states,52056,752714971,0.012,0.0,0.0,-0.5697,-0.0071,-6.908,0.0,0.0,0.0,-2.8104,0.0076,19.1588,0.0,0.0,0.0,3.0367,0.0016,1.1856,0.7514,0.0567,0.0,0.04,0.0,0.0034,0.04,0.0,-0.0034
states,52056,769381638,0.012,0.0,0.0,-0.5697,-0.0071,-6.908,0.0,0.0,0.0,-2.8104,0.0076,19.1588,0.0,0.0,0.0,3.0367,0.0016,1.1856,0.7514,0.0567,0.0,0.04,0.0,0.0034,0.04,0.0,-0.0034
states,52056,786048306,0.012,0.0,0.0,-0.5697,-0.0071,-6.908,0.0,0.0,0.0,-2.8104,0.0076,19.1588,0.0,0.0,0.0,3.0367,0.0016,1.1856,0.7514,0.0567,0.0,0.04,0.0,0.0034,0.04,0.0,-0.0034
states,52056,802714973,0.012,0.0,0.0,-0.5697,-0.0071,-6.908,0.0,0.0,0.0,-2.8104,0.0076,19.1588,0.0,0.0,0.0,3.0367,0.0016,1.1856,0.7514,0.0567,0.0,0.04,0.0,0.0034,0.04,0.0,-0.0034
states,52056,819381641,0.012,0.0,0.0,-0.5697,-0.0071,-6.908,0.0,0.0,0.0,-2.8104,0.0076,19.1588,0.0,0.0,0.0,3.0367,0.0016,1.1856,0.7514,0.0567,0.0,0.04,0.0,0.0034,0.04,0.0,-0.0034
states,52056,836048308,0.012,0.0,0.0,-0.5697,-0.0071,-6.908,0.0,0.0,0.0,-2.8104,0.0076,19.1588,0.0,0.0,0.0,3.0367,0.0016,1.1856,0.7514,0.0567,0.0,0.04,0.0,0.0034,0.04,0.0,-0.0034
states,52056,852714976,0.012,0.0,0.0,-0.5697,-0.0071,-6.908,0.0,0.0,0.0,-2.8104,0.0076,19.1588,0.0,0.0,0.0,3.0367,0.0016,1.1856,0.7514,0.0567,0.0,0.04,0.0,0.0034,0.04,0.0,-0.0034
states,52056,869381643,0.012,0.0,0.0,-0.5697,-0.0071,-6.908,0.0,0.0,0.0,-2.8104,0.0076,19.1588,0.0,0.0,0.0,3.0367,0.0016,1.1856,0.7514,0.0567,0.0,0.04,0.0,0.0034,0.04,0.0,-0.0034
states,52056,886048311,0.012,0.0,0.0,-0.5697,-0.0071,-6.908,0.0,0.0,0.0,-2.8104,0.0076,19.1588,0.0,0.0,0.0,3.0367,0.0016,1.1856,0.7514,0.0567,0.0,0.04,0.0,0.0034,0.04,0.0,-0.0034
states,52056,902714978,0.012,0.0,0.0,-0.5697,-0.0071,-6.908,0.0,0.0,0.0,-2.8104,0.0076,19.1588,0.0,0.0,0.0,3.0367,0.0016,1.1856,0.7514,0.0567,0.0,0.04,0.0,0.0034,0.04,0.0,-0.0034
states,52056,919381646,0.012,0.0,0.0,-0.5697,-0.0071,-6.908,0.0,0.0,0.0,-2.8104,0.0076,19.1588,0.0,0.0,0.0,3.0367,0.0016,1.1856,0.7514,0.0567,0.0,0.04,0.0,0.0034,0.04,0.0,-0.0034
states,52056,936048313,0.012,0.0,0.0,-0.5697,-0.0071,-6.908,0.0,0.0,0.0,-2.8104,0.0076,19.1588,0.0,0.0,0.0,3.0367,0.0016,1.1856,0.7514,0.0567,0.0,0.04,0.0,0.0034,0.04,0.0,-0.0034
states,52056,952714981,0.012,0.0,0.0,-0.5697,-0.0071,-6.908,0.0,0.0,0.0,-2.8104,0.0076,19.1588,0.0,0.0,0.0,3.0367,0.0016,1.1856,0.7514,0.0567,0.0,0.04,0.0,0.0034,0.04,0.0,-0.0034
states,52056,969381649,0.012,0.0,0.0,-0.5697,-0.0071,-6.908,0.0,0.0,0.0,-2.8104,0.0076,19.1588,0.0,0.0,0.0,3.0367,0.0016,1.1856,0.7514,0.0567,0.0,0.04,0.0,0.0034,0.04,0.0,-0.0034
states,52056,986048316,0.012,0.0,0.0,-0.5697,-0.0071,-6.908,0.0,0.0,0.0,-2.8104,0.0076,19.1588,0.0,0.0,0.0,3.0367,0.0016,1.1856,0.7514,0.0567,0.0,0.04,0.0,0.0034,0.04,0.0,-0.0034
states,52057,2714984,0.012,0.0,0.0,-0.5697,-0.0071,-6.908,0.0,0.0,0.0,-2.8104,0.0076,19.1588,0.0,0.0,0.0,3.0367,0.0016,1.1856,0.7514,0.0567,0.0,0.04,0.0,0.0034,0.04,0.0,-0.0034
states,52057,19381651,0.012,0.0,0.0,-0.5697,-0.0071,-6.908,0.0,0.0,0.0,-2.8104,0.0076,19.1588,0.0,0.0,0.0,3.0367,0.0016,1.1856,0.7514,0.0567,0.0,0.04,0.0,0.0034,0.04,0.0,-0.0034
states,52057,36048319,0.012,0.0,0.0,-0.5697,-0.0071,-6.908,0.0,0.0,0.0,-2.8104,0.0076,19.1588,0.0,0.0,0.0,3.0367,0.0016,1.1856,0.7514,0.0567,0.0,0.04,0.0,0.0034,0.04,0.0,-0.0034
states,52057,52714986,0.012,0.0,0.0,-0.5697,-0.0071,-6.908,0.0,0.0,0.0,-2.8104,0.0076,19.1588,0.0,0.0,0.0,3.0367,0.0016,1.1856,0.7514,0.0567,0.0,0.04,0.0,0.0034,0.04,0.0,-0.0034
states,52057,69381654,0.012,0.0,0.0,-0.5697,-0.0071,-6.908,0.0,0.0,0.0,-2.8104,0.0076,19.1588,0.0,0.0,0.0,3.0367,0.0016,1.1856,0.7514,0.0567,0.0,0.04,0.0,0.0034,0.04,0.0,-0.0034
states,52057,86048321,0.012,0.0,0.0,-0.5697,-0.0071,-6.908,0.0,0.0,0.0,-2.8104,0.0076,19.1588,0.0,0.0,0.0,3.0367,0.0016,1.1856,0.7514,0.0567,0.0,0.04,0.0,0.0034,0.04,0.0,-0.0034
states,52057,102714989,0.012,0.0,0.0,-0.5697,-0.0071,-6.908,0.0,0.0,0.0,-2.8104,0.0076,19.1588,0.0,0.0,0.0,3.0367,0.0016,1.1856,0.7514,0.0567,0.0,0.04,0.0,0.0034,0.04,0.0,-0.0034
states,52057,119381656,0.012,0.0,0.0,-0.5697,-0.0071,-6.908,0.0,0.0,0.0,-2.8104,0.0076,19.1588,0.0,0.0,0.0,3.0367,0.0016,1.1856,0.7514,0.0567,0.0,0.04,0.0,0.0034,0.04,0.0,-0.0034
states,52057,136048324,0.012,0.0,0.0,-0.5697,-0.0071,-6.908,0.0,0.0,0.0,-2.8104,0.0076,19.1588,0.0,0.0,0.0,3.0367,0.0016,1.1856,0.7514,0.0567,0.0,0.04,0.0,0.0034,0.04,0.0,-0.0034
states,52057,152714991,0.012,0.0,0.0,-0.5697,-0.0071,-6.908,0.0,0.0,0.0,-2.8104,0.0076,19.1588,0.0,0.0,0.0,3.0367,0.0016,1.1856,0.7514,0.0567,0.0,0.04,0.0,0.0034,0.04,0.0,-0.0034
states,52057,169381659,0.012,0.0,0.0,-0.5697,-0.0071,-6.908,0.0,0.0,0.0,-2.8104,0.0076,19.1588,0.0,0.0,0.0,3.0367,0.0016,1.1856,0.7514,0.0567,0.0,0.04,0.0,0.0034,0.04,0.0,-0.0034
states,52057,186048327,0.012,0.0,0.0,-0.5697,-0.0071,-6.908,0.0,0.0,0.0,-2.8104,0.0076,19.1588,0.0,0.0,0.0,3.0367,0.0016,1.1856,0.7514,0.0567,0.0,0.04,0.0,0.0034,0.04,0.0,-0.0034
states,52057,202714994,0.012,0.0,0.0,-0.5697,-0.0071,-6.908,0.0,0.0,0.0,-2.8104,0.0076,19.1588,0.0,0.0,0.0,3.0367,0.0016,1.1856,0.7514,0.0567,0.0,0.04,0.0,0.0034,0.04,0.0,-0.0034
states,52057,219381662,0.012,0.0,0.0,-0.5697,-0.0071,-6.908,0.0,0.0,0.0,-2.8104,0.0076,19.1588,0.0,0.0,0.0,3.0367,0.0016,1.1856,0.7514,0.0567,0.0,0.04,0.0,0.0034,0.04,0.0,-0.0034
states,52057,236048329,0.012,0.0,0.0,-0.5697,-0.0071,-6.908,0.0,0.0,0.0,-2.8104,0.0076,19.1588,0.0,0.0,0.0,3.0367,0.0016,1.1856,0.7514,0.0567,0.0,0.04,0.0,0.0034,0.04,0.0,-0.0034
states,52057,252714997,0.012,0.0,0.0,-0.5697,-0.0071,-6.908,0.0,0.0,0.0,-2.8104,0.0076,19.1588,0.0,0.0,0.0,3.0367,0.0016,1.1856,0.7514,0.0567,0.0,0.04,0.0,0.0034,0.04,0.0,-0.0034
states,52057,269381664,0.012,0.0,0.0,-0.5697,-0.0071,-6.908,0.0,0.0,0.0,-2.8104,0.0076,19.1588,0.0,0.0,0.0,3.0367,0.0016,1.1856,0.7514,0.0567,0.0,0.04,0.0,0.0034,0.04,0.0,-0.0034
states,52057,286048332,0.012,0.0,0.0,-0.5697,-0.0071,-6.908,0.0,0.0,0.0,-2.8104,0.0076,19.1588,0.0,0.0,0.0,3.0367,0.0016,1.1856,0.7514,0.0567,0.0,0.04,0.0,0.0034,0.04,0.0,-0.0034
states,52057,302714999,0.012,0.0,0.0,-0.5697,-0.0071,-6.908,0.0,0.0,0.0,-2.8104,0.0076,19.1588,0.0,0.0,0.0,3.0367,0.0016,1.1856,0.7514,0.0567,0.0,0.04,0.0,0.0034,0.04,0.0,-0.0034
states,52057,319381667,0.012,0.0,0.0,-0.5697,-0.0071,-6.908,0.0,0.0,0.0,-2.8104,0.0076,19.1588,0.0,0.0,0.0,3.0367,0.0016,1.1856,0.7514,0.0567,0.0,0.04,0.0,0.0034,0.04,0.0,-0.0034
states,52057,336048334,0.012,0.0,0.0,-0.5697,-0.0071,-6.908,0.0,0.0,0.0,-2.8104,0.0076,19.1588,0.0,0.0,0.0,3.0367,0.0016,1.1856,0.7514,0.0567,0.0,0.04,0.0,0.0034,0.04,0.0,-0.0034
states,52057,352715002,0.012,0.0,0.0,-0.5697,-0.0071,-6.908,0.0,0.0,0.0,-2.8104,0.0076,19.1588,0.0,0.0,0.0,3.0367,0.0016,1.1856,0.7514,0.0567,0.0,0.04,0.0,0.0034,0.04,0.0,-0.0034
states,52057,369381669,0.012,0.0,0.0,-0.5697,-0.0071,-6.908,0.0,0.0,0.0,-2.8104,0.0076,19.1588,0.0,0.0,0.0,3.0367,0.0016,1.1856,0.7514,0.0567,0.0,0.04,0.0,0.0034,0.04,0.0,-0.0034
states,52057,386048337,0.012,0.0,0.0,-0.5697,-0.0071,-6.908,0.0,0.0,0.0,-2.8104,0.0076,19.1588,0.0,0.0,0.0,3.0367,0.0016,1.1856,0.7514,0.0567,0.0,0.04,0.0,0.0034,0.04,0.0,-0.0034
states,52057,402715004,0.012,0.0,0.0,-0.5697,-0.0071,-6.908,0.0,0.0,0.0,-2.8104,0.0076,19.1588,0.0,0.0,0.0,3.0367,0.0016,1.1856,0.7514,0.0567,0.0,0.04,0.0,0.0034,0.04,0.0,-0.0034
states,52057,419381672,0.012,0.0,0.0,-0.5697,-0.0071,-6.908,0.0,0.0,0.0,-2.8104,0.0076,19.1588,0.0,0.0,0.0,3.0367,0.0016,1.1856,0.7514,0.0567,0.0,0.04,0.0,0.0034,0.04,0.0,-0.0034
states,52057,436048340,0.012,0.0,0.0,-0.5697,-0.0071,-6.908,0.0,0.0,0.0,-2.8104,0.0076,19.1588,0.0,0.0,0.0,3.0367,0.0016,1.1856,0.7514,0.0567,0.0,0.04,0.0,0.0034,0.04,0.0,-0.0034
states,52057,452715007,0.012,0.0,0.0,-0.5697,-0.0071,-6.908,0.0,0.0,0.0,-2.8104,0.0076,19.1588,0.0,0.0,0.0,3.0367,0.0016,1.1856,0.7514,0.0567,0.0,0.04,0.0,0.0034,0.04,0.0,-0.0034
states,52057,469381675,0.012,0.0,0.0,-0.5697,-0.0071,-6.908,0.0,0.0,0.0,-2.8104,0.0076,19.1588,0.0,0.0,0.0,3.0367,0.0016,1.1856,0.7514,0.0567,0.0,0.04,0.0,0.0034,0.04,0.0,-0.0034
states,52057,486048342,0.012,0.0,0.0,-0.5697,-0.0071,-6.908,0.0,0.0,0.0,-2.8104,0.0076,19.1588,0.0,0.0,0.0,3.0367,0.0016,1.1856,0.7514,0.0567,0.0,0.04,0.0,0.0034,0.04,0.0,-0.0034
states,52057,502715010,0.012,0.0,0.0,-0.5697,-0.0071,-6.908,0.0,0.0,0.0,-2.8104,0.0076,19.1588,0.0,0.0,0.0,3.0367,0.0016,1.1856,0.7514,0.0567,0.0,0.04,0.0,0.0034,0.04,0.0,-0.0034
states,52057,519381677,0.012,0.0,0.0,-0.5697,-0.0071,-6.908,0.0,0.0,0.0,-2.8104,0.0076,19.1588,0.0,0.0,0.0,3.0367,0.0016,1.1856,0.7514,0.0567,0.0,0.04,0.0,0.0034,0.04,0.0,-0.0034
states,52057,536048345,0.012,0.0,0.0,-0.5697,-0.0071,-6.908,0.0,0.0,0.0,-2.8104,0.0076,19.1588,0.0,0.0,0.0,3.0367,0.0016,1.1856,0.7514,0.0567,0.0,0.04,0.0,0.0034,0.04,0.0,-0.0034
states,52057,552715012,0.012,0.0,0.0,-0.5697,-0.0071,-6.908,0.0,0.0,0.0,-2.8104,0.0076,19.1588,0.0,0.0,0.0,3.0367,0.0016,1.1856,0.7514,0.0567,0.0,0.04,0.0,0.0034,0.04,0.0,-0.0034
states,52057,569381680,0.012,0.0,0.0,-0.5697,-0.0071,-6.908,0.0,0.0,0.0,-2.8104,0.0076,19.1588,0.0,0.0,0.0,3.0367,0.0016,1.1856,0.7514,0.0567,0.0,0.04,0.0,0.0034,0.04,0.0,-0.0034
states,52057,586048347,0.012,0.0,0.0,-0.5697,-0.0071,-6.908,0.0,0.0,0.0,-2.8104,0.0076,19.1588,0.0,0.0,0.0,3.0367,0.0016,1.1856,0.7514,0.0567,0.0,0.04,0.0,0.0034,0.04,0.0,-0.0034
states,52057,602715015,0.012,0.0,0.0,-0.5697,-0.0071,-6.908,0.0,0.0,0.0,-2.8104,0.0076,19.1588,0.0,0.0,0.0,3.0367,0.0016,1.1856,0.7514,0.0567,0.0,0.04,0.0,0.0034,0.04,0.0,-0.0034
states,52057,619381682,0.012,0.0,0.0,-0.5697,-0.0071,-6.908,0.0,0.0,0.0,-2.8104,0.0076,19.1588,0.0,0.0,0.0,3.0367,0.0016,1.1856,0.7514,0.0567,0.0,0.04,0.0,0.0034,0.04,0.0,-0.0034
states,52057,636048350,0.012,0.0,0.0,-0.5697,-0.0071,-6.908,0.0,0.0,0.0,-2.8104,0.0076,19.1588,0.0,0.0,0.0,3.0367,0.0016,1.1856,0.7514,0.0567,0.0,0.04,0.0,0.0034,0.04,0.0,-0.0034
states,52057,652715018,0.012,0.0,0.0,-0.5697,-0.0071,-6.908,0.0,0.0,0.0,-2.8104,0.0076,19.1588,0.0,0.0,0.0,3.0367,0.0016,1.1856,0.7514,0.0567,0.0,0.04,0.0,0.0034,0.04,0.0,-0.0034
states,52057,669381685,0.012,0.0,0.0,-0.5697,-0.0071,-6.908,0.0,0.0,0.0,-2.8104,0.0076,19.1588,0.0,0.0,0.0,3.0367,0.0016,1.1856,0.7514,0.0567,0.0,0.04,0.0,0.0034,0.04,0.0,-0.0034
states,52057,686048353,0.012,0.0,0.0,-0.5697,-0.0071,-6.908,0.0,0.0,0.0,-2.8104,0.0076,19.1588,0.0,0.0,0.0,3.0367,0.0016,1.1856,0.7514,0.0567,0.0,0.04,0.0,0.0034,0.04,0.0,-0.0034
states,52057,702715020,0.012,0.0,0.0,-0.5697,-0.0071,-6.908,0.0,0.0,0.0,-2.8104,0.0076,19.1588,0.0,0.0,0.0,3.0367,0.0016,1.1856,0.7514,0.0567,0.0,0.04,0.0,0.0034,0.04,0.0,-0.0034
states,52057,719381688,0.012,0.0,0.0,-0.5697,-0.0071,-6.908,0.0,0.0,0.0,-2.8104,0.0076,19.1588,0.0,0.0,0.0,3.0367,0.0016,1.1856,0.7514,0.0567,0.0,0.04,0.0,0.0034,0.04,0.0,-0.0034
states,52057,736048355,0.012,0.0,0.0,-0.5697,-0.0071,-6.908,0.0,0.0,0.0,-2.8104,0.0076,19.1588,0.0,0.0,0.0,3.0367,0.0016,1.1856,0.7514,0.0567,0.0,0.04,0.0,0.0034,0.04,0.0,-0.0034
states,52057,752715023,0.012,0.0,0.0,-0.5697,-0.0071,-6.908,0.0,0.0,0.0,-2.8104,0.0076,19.1588,0.0,0.0,0.0,3.0367,0.0016,1.1856,0.7514,0.0567,0.0,0.04,0.0,0.0034,0.04,0.0,-0.0034
states,52057,769381690,0.012,0.0,0.0,-0.5697,-0.0071,-6.908,0.0,0.0,0.0,-2.8104,0.0076,19.1588,0.0,0.0,0.0,3.0367,0.0016,1.1856,0.7514,0.0567,0.0,0.04,0.0,0.0034,0.04,0.0,-0.0034
states,52057,786048358,0.012,0.0,0.0,-0.5697,-0.0071,-6.908,0.0,0.0,0.0,-2.8104,0.0076,19.1588,0.0,0.0,0.0,3.0367,0.0016,1.1856,0.7514,0.0567,0.0,0.04,0.0,0.0034,0.04,0.0,-0.0034
states,52057,802715025,0.012,0.0,0.0,-0.5697,-0.0071,-6.908,0.0,0.0,0.0,-2.8104,0.0076,19.1588,0.0,0.0,0.0,3.0367,0.0016,1.1856,0.7514,0.0567,0.0,0.04,0.0,0.0034,0.04,0.0,-0.0034
states,52057,819381693,0.012,0.0,0.0,-0.5697,-0.0071,-6.908,0.0,0.0,0.0,-2.8104,0.0076,19.1588,0.0,0.0,0.0,3.0367,0.0016,1.1856,0.7514,0.0567,0.0,0.04,0.0,0.0034,0.04,0.0,-0.0034
states,52057,836048360,0.012,0.0,0.0,-0.5697,-0.0071,-6.908,0.0,0.0,0.0,-2.8104,0.0076,19.1588,0.0,0.0,0.0,3.0367,0.0016,1.1856,0.7514,0.0567,0.0,0.04,0.0,0.0034,0.04,0.0,-0.0034
states,52057,852715028,0.012,0.0,0.0,-0.5697,-0.0071,-6.908,0.0,0.0,0.0,-2.8104,0.0076,19.1588,0.0,0.0,0.0,3.0367,0.0016,1.1856,0.7514,0.0567,0.0,0.04,0.0,0.0034,0.04,0.0,-0.0034
states,52057,869381695,0.012,0.0,0.0,-0.5697,-0.0071,-6.908,0.0,0.0,0.0,-2.8104,0.0076,19.1588,0.0,0.0,0.0,3.0367,0.0016,1.1856,0.7514,0.0567,0.0,0.04,0.0,0.0034,0.04,0.0,-0.0034
states,52057,886048363,0.012,0.0,0.0,-0.5697,-0.0071,-6.908,0.0,0.0,0.0,-2.8104,0.0076,19.1588,0.0,0.0,0.0,3.0367,0.0016,1.1856,0.7514,0.0567,0.0,0.04,0.0,0.0034,0.04,0.0,-0.0034
states,52057,902715031,0.012,0.0,0.0,-0.5697,-0.0071,-6.908,0.0,0.0,0.0,-2.8104,0.0076,19.1588,0.0,0.0,0.0,3.0367,0.0016,1.1856,0.7514,0.0567,0.0,0.04,0.0,0.0034,0.04,0.0,-0.0034
states,52057,919381698,0.012,0.0,0.0,-0.5697,-0.0071,-6.908,0.0,0.0,0.0,-2.8104,0.0076,19.1588,0.0,0.0,0.0,3.0367,0.0016,1.1856,0.7514,0.0567,0.0,0.04,0.0,0.0034,0.04,0.0,-0.0034
states,52057,936048366,0.012,0.0,0.0,-0.5697,-0.0071,-6.908,0.0,0.0,0.0,-2.8104,0.0076,19.1588,0.0,0.0,0.0,3.0367,0.0016,1.1856,0.7514,0.0567,0.0,0.04,0.0,0.0034,0.04,0.0,-0.0034
states,52057,952715033,0.012,0.0,0.0,-0.5697,-0.0071,-6.908,0.0,0.0,0.0,-2.8104,0.0076,19.1588,0.0,0.0,0.0,3.0367,0.0016,1.1856,0.7514,0.0567,0.0,0.04,0.0,0.0034,0.04,0.0,-0.0034
states,52057,969381701,0.012,0.0,0.0,-0.5697,-0.0071,-6.908,0.0,0.0,0.0,-2.8104,0.0076,19.1588,0.0,0.0,0.0,3.0367,0.0016,1.1856,0.7514,0.0567,0.0,0.04,0.0,0.0034,0.04,0.0,-0.0034
states,52057,986048368,0.012,0.0,0.0,-0.5697,-0.0071,-6.908,0.0,0.0,0.0,-2.8104,0.0076,19.1588,0.0,0.0,0.0,3.0367,0.0016,1.1856,0.7514,0.0567,0.0,0.04,0.0,0.0034,0.04,0.0,-0.0034
states,52058,2715036,0.012,0.0,0.0,-0.5697,-0.0071,-6.908,0.0,0.0,0.0,-2.8104,0.0076,19.1588,0.0,0.0,0.0,3.0367,0.0016,1.1856,0.7514,0.0567,0.0,0.04,0.0,0.0034,0.04,0.0,-0.0034
states,52058,19381703,0.012,0.0,0.0,-0.5697,-0.0071,-6.908,0.0,0.0,0.0,-2.8104,0.0076,19.1588,0.0,0.0,0.0,3.0367,0.0016,1.1856,0.7514,0.0567,0.0,0.04,0.0,0.0034,0.04,0.0,-0.0034
states,52058,36048371,0.012,0.0,0.0,-0.5697,-0.0071,-6.908,0.0,0.0,0.0,-2.8104,0.0076,19.1588,0.0,0.0,0.0,3.0367,0.0016,1.1856,0.7514,0.0567,0.0,0.04,0.0,0.0034,0.04,0.0,-0.0034
states,52058,52715038,0.012,0.0,0.0,-0.5697,-0.0071,-6.908,0.0,0.0,0.0,-2.8104,0.0076,19.1588,0.0,0.0,0.0,3.0367,0.0016,1.1856,0.7514,0.0567,0.0,0.04,0.0,0.0034,0.04,0.0,-0.0034
states,52058,69381706,0.012,0.0,0.0,-0.5697,-0.0071,-6.908,0.0,0.0,0.0,-2.8104,0.0076,19.1588,0.0,0.0,0.0,3.0367,0.0016,1.1856,0.7514,0.0567,0.0,0.04,0.0,0.0034,0.04,0.0,-0.0034
states,52058,86048373,0.012,0.0,0.0,-0.5697,-0.0071,-6.908,0.0,0.0,0.0,-2.8104,0.0076,19.1588,0.0,0.0,0.0,3.0367,0.0016,1.1856,0.7514,0.0567,0.0,0.04,0.0,0.0034,0.04,0.0,-0.0034
states,52058,102715041,0.012,0.0,0.0,-0.5697,-0.0071,-6.908,0.0,0.0,0.0,-2.8104,0.0076,19.1588,0.0,0.0,0.0,3.0367,0.0016,1.1856,0.7514,0.0567,0.0,0.04,0.0,0.0034,0.04,0.0,-0.0034
states,52058,119381709,0.012,0.0,0.0,-0.5697,-0.0071,-6.908,0.0,0.0,0.0,-2.8104,0.0076,19.1588,0.0,0.0,0.0,3.0367,0.0016,1.1856,0.7514,0.0567,0.0,0.04,0.0,0.0034,0.04,0.0,-0.0034
states,52058,136048376,0.012,0.0,0.0,-0.5697,-0.0071,-6.908,0.0,0.0,0.0,-2.8104,0.0076,19.1588,0.0,0.0,0.0,3.0367,0.0016,1.1856,0.7514,0.0567,0.0,0.04,0.0,0.0034,0.04,0.0,-0.0034
states,52058,152715044,0.012,0.0,0.0,-0.5697,-0.0071,-6.908,0.0,0.0,0.0,-2.8104,0.0076,19.1588,0.0,0.0,0.0,3.0367,0.0016,1.1856,0.7514,0.0567,0.0,0.04,0.0,0.0034,0.04,0.0,-0.0034
states,52058,169381711,0.012,0.0,0.0,-0.5697,-0.0071,-6.908,0.0,0.0,0.0,-2.8104,0.0076,19.1588,0.0,0.0,0.0,3.0367,0.0016,1.1856,0.7514,0.0567,0.0,0.04,0.0,0.0034,0.04,0.0,-0.0034
states,52058,186048379,0.012,0.0,0.0,-0.5697,-0.0071,-6.908,0.0,0.0,0.0,-2.8104,0.0076,19.1588,0.0,0.0,0.0,3.0367,0.0016,1.1856,0.7514,0.0567,0.0,0.04,0.0,0.0034,0.04,0.0,-0.0034
states,52058,202715046,0.012,0.0,0.0,-0.5697,-0.0071,-6.908,0.0,0.0,0.0,-2.8104,0.0076,19.1588,0.0,0.0,0.0,3.0367,0.0016,1.1856,0.7514,0.0567,0.0,0.04,0.0,0.0034,0.04,0.0,-0.0034
states,52058,219381714,0.012,0.0,0.0,-0.5697,-0.0071,-6.908,0.0,0.0,0.0,-2.8104,0.0076,19.1588,0.0,0.0,0.0,3.0367,0.0016,1.1856,0.7514,0.0567,0.0,0.04,0.0,0.0034,0.04,0.0,-0.0034
states,52058,236048381,0.012,0.0,0.0,-0.5697,-0.0071,-6.908,0.0,0.0,0.0,-2.8104,0.0076,19.1588,0.0,0.0,0.0,3.0367,0.0016,1.1856,0.7514,0.0567,0.0,0.04,0.0,0.0034,0.04,0.0,-0.0034
states,52058,252715049,0.012,0.0,0.0,-0.5697,-0.0071,-6.908,0.0,0.0,0.0,-2.8104,0.0076,19.1588,0.0,0.0,0.0,3.0367,0.0016,1.1856,0.7514,0.0567,0.0,0.04,0.0,0.0034,0.04,0.0,-0.0034
states,52058,269381716,0.012,0.0,0.0,-0.5697,-0.0071,-6.908,0.0,0.0,0.0,-2.8104,0.0076,19.1588,0.0,0.0,0.0,3.0367,0.0016,1.1856,0.7514,0.0567,0.0,0.04,0.0,0.0034,0.04,0.0,-0.0034
states,52058,286048384,0.012,0.0,0.0,-0.5697,-0.0071,-6.908,0.0,0.0,0.0,-2.8104,0.0076,19.1588,0.0,0.0,0.0,3.0367,0.0016,1.1856,0.7514,0.0567,0.0,0.04,0.0,0.0034,0.04,0.0,-0.0034
states,52058,302715051,0.012,0.0,0.0,-0.5697,-0.0071,-6.908,0.0,0.0,0.0,-2.8104,0.0076,19.1588,0.0,0.0,0.0,3.0367,0.0016,1.1856,0.7514,0.0567,0.0,0.04,0.0,0.0034,0.04,0.0,-0.0034
states,52058,319381719,0.012,0.0,0.0,-0.5697,-0.0071,-6.908,0.0,0.0,0.0,-2.8104,0.0076,19.1588,0.0,0.0,0.0,3.0367,0.0016,1.1856,0.7514,0.0567,0.0,0.04,0.0,0.0034,0.04,0.0,-0.0034
states,52058,336048386,0.012,0.0,0.0,-0.5697,-0.0071,-6.908,0.0,0.0,0.0,-2.8104,0.0076,19.1588,0.0,0.0,0.0,3.0367,0.0016,1.1856,0.7514,0.0567,0.0,0.04,0.0,0.0034,0.04,0.0,-0.0034
states,52058,352715054,0.012,0.0,0.0,-0.5697,-0.0071,-6.908,0.0,0.0,0.0,-2.8104,0.0076,19.1588,0.0,0.0,0.0,3.0367,0.0016,1.1856,0.7514,0.0567,0.0,0.04,0.0,0.0034,0.04,0.0,-0.0034
states,52058,369381722,0.012,0.0,0.0,-0.5697,-0.0071,-6.908,0.0,0.0,0.0,-2.8104,0.0076,19.1588,0.0,0.0,0.0,3.0367,0.0016,1.1856,0.7514,0.0567,0.0,0.04,0.0,0.0034,0.04,0.0,-0.0034
states,52058,386048389,0.012,0.0,0.0,-0.5697,-0.0071,-6.908,0.0,0.0,0.0,-2.8104,0.0076,19.1588,0.0,0.0,0.0,3.0367,0.0016,1.1856,0.7514,0.0567,0.0,0.04,0.0,0.0034,0.04,0.0,-0.0034
states,52058,402715057,0.012,0.0,0.0,-0.5697,-0.0071,-6.908,0.0,0.0,0.0,-2.8104,0.0076,19.1588,0.0,0.0,0.0,3.0367,0.0016,1.1856,0.7514,0.0567,0.0,0.04,0.0,0.0034,0.04,0.0,-0.0034
states,52058,419381724,0.012,0.0,0.0,-0.5697,-0.0071,-6.908,0.0,0.0,0.0,-2.8104,0.0076,19.1588,0.0,0.0,0.0,3.0367,0.0016,1.1856,0.7514,0.0567,0.0,0.04,0.0,0.0034,0.04,0.0,-0.0034
states,52058,436048392,0.012,0.0,0.0,-0.5697,-0.0071,-6.908,0.0,0.0,0.0,-2.8104,0.0076,19.1588,0.0,0.0,0.0,3.0367,0.0016,1.1856,0.7514,0.0567,0.0,0.04,0.0,0.0034,0.04,0.0,-0.0034
states,52058,452715059,0.012,0.0,0.0,-0.5697,-0.0071,-6.908,0.0,0.0,0.0,-2.8104,0.0076,19.1588,0.0,0.0,0.0,3.0367,0.0016,1.1856,0.7514,0.0567,0.0,0.04,0.0,0.0034,0.04,0.0,-0.0034
states,52058,469381727,0.012,0.0,0.0,-0.5697,-0.0071,-6.908,0.0,0.0,0.0,-2.8104,0.0076,19.1588,0.0,0.0,0.0,3.0367,0.0016,1.1856,0.7514,0.0567,0.0,0.04,0.0,0.0034,0.04,0.0,-0.0034
states,52058,486048394,0.012,0.0,0.0,-0.5697,-0.0071,-6.908,0.0,0.0,0.0,-2.8104,0.0076,19.1588,0.0,0.0,0.0,3.0367,0.0016,1.1856,0.7514,0.0567,0.0,0.04,0.0,0.0034,0.04,0.0,-0.0034
states,52058,502715062,0.012,0.0,0.0,-0.5697,-0.0071,-6.908,0.0,0.0,0.0,-2.8104,0.0076,19.1588,0.0,0.0,0.0,3.0367,0.0016,1.1856,0.7514,0.0567,0.0,0.04,0.0,0.0034,0.04,0.0,-0.0034
states,52058,519381729,0.012,0.0,0.0,-0.5697,-0.0071,-6.908,0.0,0.0,0.0,-2.8104,0.0076,19.1588,0.0,0.0,0.0,3.0367,0.0016,1.1856,0.7514,0.0567,0.0,0.04,0.0,0.0034,0.04,0.0,-0.0034
